; generated by Slic3r 1.36.2-prusa3d-stable-win64 on 2017-08-31 at 02:44:32

; 

; external perimeters extrusion width = 0.45mm
; perimeters extrusion width = 0.45mm
; infill extrusion width = 0.45mm
; solid infill extrusion width = 0.45mm
; top infill extrusion width = 0.42mm
; support material extrusion width = 0.35mm
; first layer extrusion width = 0.60mm

M115 U3.0.12 ; tell printer latest fw version
M83  ; extruder relative mode
M104 S240 ; set extruder temp
M140 S100 ; set bed temp
M190 S100 ; wait for bed temp
M109 S240 ; wait for extruder temp
G28 W ; home all without mesh bed level
G80 ; mesh bed leveling
G1 Y-3.0 F1000.0 ; go outside pritn area
G1 X60.0 E9.0  F1000.0 ; intro line
G1 X100.0 E12.5  F1000.0 ; intro line
; Filament gcode
G21 ; set units to millimeters
G90 ; use absolute coordinates
M83 ; use relative distances for extrusion
; Layer 0
G1 Z0.150 F7200.000
G1 E-1.50000 F2100.00000
G1 X32.920 Y136.364 F7200.000
G1 E1.50000 F2100.00000
M204 S1000
G1 F2100
G1 X33.522 Y135.586 E0.03412
G1 X34.080 Y135.213 E0.02328
G1 X42.410 Y131.216 E0.32057
G1 X50.852 Y130.189 E0.29502
G1 X198.130 Y129.193 E5.10970
G1 X202.377 Y129.222 E0.14734
G1 X219.026 Y131.933 E0.58520
G1 X219.618 Y132.116 E0.02151
G1 X220.150 Y132.435 E0.02151
G1 X220.552 Y132.827 E0.01946
G1 X220.859 Y133.296 E0.01946
G1 X221.058 Y133.825 E0.01960
G1 X221.137 Y134.380 E0.01946
G1 X221.136 Y145.244 E0.37690
G1 X220.980 Y146.021 E0.02750
G1 X220.594 Y146.714 E0.02750
G1 X218.215 Y149.133 E0.11771
G1 X217.756 Y149.455 E0.01946
G1 X217.242 Y149.670 E0.01933
G1 X216.713 Y149.767 E0.01864
G1 X208.202 Y150.360 E0.29601
G1 X134.087 Y151.705 E2.57171
G1 X61.087 Y151.348 E2.53263
G1 X50.972 Y151.009 E0.35113
G1 X34.551 Y148.342 E0.57716
G1 X33.843 Y148.032 E0.02682
G1 X33.261 Y147.529 E0.02668
G1 X32.854 Y146.872 E0.02682
G1 X32.660 Y146.124 E0.02682
G1 X32.655 Y137.307 E0.30587
G1 X32.904 Y136.422 E0.03191
G1 F5760
G1 X33.522 Y135.586 E-0.36002
G1 F5760
G1 X34.080 Y135.213 E-0.23243
G1 F5760
G1 X36.247 Y134.173 E-0.83255
G1 E-0.07500 F2100.00000
G1 X35.214 Y137.517 F7200.000
G1 E1.50000 F2100.00000
G1 F2100
G1 X35.214 Y145.861 E0.28950
G1 X36.350 Y145.861 E0.03940
G1 X36.350 Y137.772 E0.28064
G1 X37.486 Y137.772 E0.03940
G1 X37.486 Y145.861 E0.28064
G1 X38.621 Y145.861 E0.03940
G1 X38.621 Y137.772 E0.28064
G1 X39.757 Y137.772 E0.03940
G1 X39.757 Y145.861 E0.28064
G1 X40.892 Y145.861 E0.03940
G1 X40.892 Y137.772 E0.28064
G1 X42.028 Y137.772 E0.03940
G1 X42.028 Y145.861 E0.28064
G1 X43.164 Y145.861 E0.03940
G1 X43.164 Y137.772 E0.28064
G1 X44.299 Y137.772 E0.03940
G1 X44.299 Y145.861 E0.28064
G1 X45.435 Y145.861 E0.03940
G1 X45.435 Y137.772 E0.28064
G1 X46.571 Y137.772 E0.03940
G1 X46.571 Y145.861 E0.28064
G1 X47.706 Y145.861 E0.03940
G1 X47.706 Y137.772 E0.28064
G1 X48.842 Y137.772 E0.03940
G1 X48.842 Y145.861 E0.28064
G1 X49.977 Y145.861 E0.03940
G1 X49.977 Y138.148 E0.26762
G1 X50.595 Y138.363 E0.02268
G1 X51.082 Y137.917 E0.02292
G1 X50.905 Y137.207 E0.02538
G1 X50.905 Y135.745 E0.05074
G1 X51.113 Y135.745 E0.00721
G1 X51.113 Y148.446 E0.44063
G1 X59.062 Y148.446 F7200.000
G1 F2100
G1 X59.062 Y145.451 E0.10388
G1 X58.858 Y144.635 E0.02920
G1 X58.567 Y144.635 E0.01012
G1 X58.242 Y144.310 E0.01592
G1 X58.242 Y142.806 E0.05221
G1 X57.927 Y142.813 E0.01095
G1 X57.927 Y148.190 E0.18655
G1 X56.791 Y148.190 E0.03940
G1 X56.791 Y142.857 E0.18502
G1 X55.655 Y142.857 E0.03940
G1 X55.655 Y148.190 E0.18502
G1 X54.520 Y148.190 E0.03940
G1 X54.520 Y142.857 E0.18502
G1 X53.868 Y142.857 E0.02262
G1 X53.816 Y142.806 E0.00252
G1 X53.384 Y142.806 E0.01499
G1 X53.384 Y148.190 E0.18681
G1 X52.249 Y148.190 E0.03940
G1 X52.249 Y135.745 E0.43176
G1 X53.384 Y135.745 E0.03940
G1 X53.384 Y140.277 E0.15722
G1 X53.816 Y140.277 E0.01499
G1 X53.868 Y140.225 E0.00252
G1 X54.520 Y140.225 E0.02262
G1 X54.520 Y135.489 E0.16430
G1 F5760
G1 X54.520 Y139.604 E-1.42500
G1 E-0.07500 F2100.00000
G1 X51.113 Y133.369 F7200.000
G1 E1.50000 F2100.00000
G1 F2100
G1 X51.113 Y132.744 E0.02168
G1 X52.249 Y132.744 E0.03940
G1 X52.249 Y133.113 E0.01280
G1 X53.384 Y133.113 E0.03940
G1 X53.384 Y132.745 E0.01277
G1 X54.520 Y132.746 E0.03940
G1 X54.520 Y133.113 E0.01275
G1 X55.655 Y133.113 E0.03940
G1 X55.655 Y132.746 E0.01273
G1 X56.125 Y132.746 E0.01628
G1 X56.791 Y133.810 E0.04356
G1 X56.791 Y134.048 E0.00823
G1 X57.894 Y136.136 E0.08192
G1 X57.927 Y136.250 E0.00411
G1 X57.927 Y135.623 E0.02172
G1 X58.449 Y136.457 E0.03412
G1 X58.687 Y135.444 E0.03610
G1 X59.062 Y135.444 E0.01303
G1 X59.062 Y138.703 E0.11306
G1 F5760
G1 X59.062 Y135.444 E-1.12871
G1 F5760
G1 X58.687 Y135.444 E-0.13008
G1 F5760
G1 X58.577 Y135.911 E-0.16621
G1 E-0.07500 F2100.00000
G1 X61.334 Y136.700 F7200.000
G1 E1.50000 F2100.00000
G1 F2100
G1 X61.334 Y145.608 E0.30904
G1 X61.644 Y146.482 E0.03216
G1 X61.863 Y147.000 E0.01951
G1 X62.103 Y147.508 E0.01951
G1 X62.469 Y148.185 E0.02669
G1 X62.469 Y135.444 E0.44203
G1 X63.605 Y135.444 E0.03940
G1 X63.605 Y148.190 E0.44221
G1 X64.740 Y148.190 E0.03940
G1 X64.740 Y135.444 E0.44221
G1 X65.876 Y135.444 E0.03940
G1 X65.876 Y148.190 E0.44221
G1 X67.012 Y148.190 E0.03940
G1 X67.012 Y135.444 E0.44221
G1 X68.147 Y135.444 E0.03940
G1 X68.147 Y148.190 E0.44221
G1 X69.283 Y148.190 E0.03940
G1 X69.283 Y135.444 E0.44221
G1 X70.419 Y135.444 E0.03940
G1 X70.418 Y148.190 E0.44221
G1 X70.637 Y148.190 E0.00757
G1 X70.637 Y145.861 E0.08078
G1 X71.554 Y145.861 E0.03182
G1 X71.554 Y135.444 E0.36142
G1 X72.690 Y135.444 E0.03940
G1 X72.690 Y146.117 E0.37029
G1 F5760
G1 X72.690 Y142.003 E-1.42500
G1 E-0.07500 F2100.00000
G1 X48.428 Y135.501 F7200.000
G1 E1.50000 F2100.00000
G1 F840
G1 X47.285 Y135.103 E0.04199
G1 X48.328 Y135.103 E0.03620
G1 X48.413 Y135.443 E0.01216
G1 X48.771 Y134.535 F7200.000
G1 F840
G1 X49.233 Y136.383 E0.06609
G1 X44.043 Y134.574 E0.19069
G1 X44.043 Y134.535 E0.00137
G1 X48.711 Y134.535 E0.16196
G1 F5760
G1 X49.233 Y136.383 E-0.66514
G1 F5760
G1 X47.162 Y135.661 E-0.75986
G1 E-0.07500 F2100.00000
G1 X55.383 Y134.535 F7200.000
G1 E1.50000 F2100.00000
G1 F840
G1 X55.441 Y134.535 E0.00201
G1 X55.752 Y135.124 E0.02311
G1 X55.414 Y134.586 E0.02203
G1 X54.936 Y134.891 F7200.000
G1 F1050
G1 X49.446 Y134.891 E0.19047
G1 X50.039 Y137.265 E0.08490
G1 X43.475 Y134.978 E0.24116
G1 X43.475 Y133.967 E0.03507
G1 X55.783 Y133.967 E0.42699
G1 X57.078 Y136.420 E0.09625
G1 X57.353 Y138.136 E0.06027
G1 X57.353 Y141.130 E0.10389
G1 X59.096 Y141.130 E0.06047
G1 X59.096 Y139.301 E0.06347
G1 X59.549 Y139.301 E0.01570
G1 X59.849 Y137.984 E0.04688
G1 X60.178 Y136.938 E0.03805
G1 X60.374 Y136.424 E0.01908
G1 X60.830 Y135.420 E0.03825
G1 X61.284 Y134.602 E0.03245
G1 X61.666 Y134.602 E0.01323
G1 X61.341 Y135.190 E0.02330
G1 X61.083 Y135.733 E0.02087
G1 X60.847 Y136.293 E0.02109
G1 X60.455 Y137.413 E0.04117
G1 X60.157 Y138.569 E0.04139
G1 X60.043 Y139.162 E0.02097
G1 X59.892 Y140.346 E0.04139
G1 X59.842 Y141.538 E0.04139
G1 X59.855 Y142.151 E0.02128
G1 X59.955 Y143.331 E0.04109
G1 X60.155 Y144.507 E0.04139
G1 X60.296 Y145.102 E0.02120
G1 X60.641 Y146.237 E0.04117
G1 X61.082 Y147.346 E0.04139
G1 X61.341 Y147.892 E0.02097
G1 X61.666 Y148.480 E0.02330
G1 X61.284 Y148.480 E0.01323
G1 X60.829 Y147.660 E0.03255
G1 X60.594 Y147.169 E0.01887
G1 X60.179 Y146.147 E0.03826
G1 X59.849 Y145.098 E0.03815
G1 X59.549 Y143.781 E0.04688
G1 X59.096 Y143.781 E0.01570
G1 X59.096 Y141.952 E0.06347
G1 X57.353 Y141.952 E0.06047
G1 X57.353 Y142.003 E0.00178
G1 X54.397 Y142.003 E0.10255
G1 X54.397 Y141.952 E0.00178
G1 X53.190 Y141.952 E0.04188
G1 X53.150 Y141.788 E0.00584
G1 X53.132 Y141.541 E0.00859
G1 X53.150 Y141.294 E0.00859
G1 X53.190 Y141.130 E0.00584
G1 X54.397 Y141.130 E0.04188
G1 X54.397 Y141.079 E0.00178
G1 X56.429 Y141.079 E0.07050
G1 X56.429 Y138.466 E0.09066
G1 X56.133 Y136.802 E0.05864
G1 X54.968 Y134.942 E0.07614
G1 X54.883 Y134.495 F7200.000
G1 X54.981 Y134.429 F7200.000
G1 F1680
G1 X49.038 Y134.429 E0.11584
G1 F5760
G1 X53.152 Y134.429 E-1.42500
G1 E-0.07500 F2100.00000
G1 X47.005 Y135.055 F7200.000
G1 E1.50000 F2100.00000
G1 F1680
G1 X46.656 Y134.996 E0.00798
G1 F1680
G1 X46.307 Y134.937 E0.00588
G1 F1680
G1 X45.959 Y134.878 E0.00378
G1 F1680
G1 X45.784 Y134.849 E0.00084
G1 F5760
G1 X45.959 Y134.878 E-0.06125
G1 E-1.43875 F2100.00000
G1 X55.893 Y135.370 F7200.000
G1 E1.50000 F2100.00000
G1 F1680
G1 X56.242 Y135.975 E0.02106
G1 F1680
G1 X56.592 Y136.583 E0.01750
G1 X56.613 Y136.660 E0.00200
G1 F1680
G1 X56.869 Y138.174 E0.03343
G1 X56.891 Y138.441 E0.00581
G1 X56.891 Y141.363 E0.06361
G1 X56.874 Y141.504 E0.00310
G1 X56.713 Y141.541 E0.00360
G1 F1680
G1 X54.723 Y141.541 E0.03453
G1 F1680
G1 X53.544 Y141.541 E0.01541
G1 F5760
G1 X54.723 Y141.541 E-0.40826
G1 E-1.09174 F2100.00000
G1 X56.874 Y141.504 F7200.000
G1 E1.50000 F2100.00000
G1 F1680
G1 X56.944 Y141.541 E0.00189
G1 F1680
G1 X57.028 Y141.541 E0.00163
G1 F1680
G1 X59.424 Y141.541 E0.03646
G1 X59.452 Y141.472 E0.00113
G1 F1680
G1 X59.472 Y141.414 E0.00066
G1 X59.518 Y139.946 E0.01597
G1 F1680
G1 X59.541 Y139.585 E0.00584
G1 F5760
G1 X59.518 Y139.946 E-0.12538
G1 E-1.37462 F2100.00000
G1 X59.424 Y141.541 F7200.000
G1 E1.50000 F2100.00000
G1 F1680
G1 X59.447 Y141.604 E0.00094
G1 F1680
G1 X59.471 Y141.668 E0.00062
G1 X59.476 Y142.174 E0.00469
G1 F1680
G1 X59.526 Y143.351 E0.01821
G1 X59.540 Y143.364 E0.00029
G1 F1680
G1 X59.690 Y143.497 E0.00245
; Layer 1
G1 Z0.250 F7200.000
M104 S235 ; set temperature
M140 S140 ; set bed temperature
G1 E-1.50000 F2100.00000
G1 X32.920 Y136.364 F7200.000
G1 E1.50000 F2100.00000
G1 F3000
G1 X33.522 Y135.586 E0.02335
G1 X34.080 Y135.213 E0.01593
G1 X42.410 Y131.216 E0.21931
G1 X50.852 Y130.189 E0.20183
G1 X198.130 Y129.193 E3.49563
G1 X202.377 Y129.222 E0.10080
G1 X219.026 Y131.933 E0.40035
G1 X219.618 Y132.116 E0.01472
G1 X220.150 Y132.435 E0.01472
G1 X220.552 Y132.827 E0.01332
G1 X220.859 Y133.296 E0.01332
G1 X221.058 Y133.825 E0.01341
G1 X221.137 Y134.380 E0.01332
G1 X221.136 Y145.244 E0.25784
G1 X220.980 Y146.021 E0.01881
G1 X220.594 Y146.714 E0.01881
G1 X218.215 Y149.133 E0.08053
G1 X217.756 Y149.455 E0.01332
G1 X217.242 Y149.670 E0.01322
G1 X216.713 Y149.767 E0.01276
G1 X208.202 Y150.360 E0.20251
G1 X134.087 Y151.705 E1.75935
G1 X61.087 Y151.348 E1.73262
G1 X50.972 Y151.009 E0.24022
G1 X34.551 Y148.342 E0.39485
G1 X33.843 Y148.032 E0.01835
G1 X33.261 Y147.529 E0.01825
G1 X32.854 Y146.872 E0.01835
G1 X32.660 Y146.124 E0.01835
G1 X32.655 Y137.307 E0.20925
G1 X32.904 Y136.422 E0.02183
G1 F5760
G1 X33.522 Y135.586 E-0.36002
G1 F5760
G1 X34.080 Y135.213 E-0.23243
G1 F5760
G1 X36.247 Y134.173 E-0.83255
G1 E-0.07500 F2100.00000
G1 X58.735 Y141.470 F7200.000
G1 E1.50000 F2100.00000
M204 S800
G1 F1200
G1 X59.062 Y141.470 E0.00572
G1 X59.062 Y141.612 E0.00247
G1 X58.735 Y141.612 E0.00571
G1 X58.735 Y141.530 E0.00142
M204 S1000
G1 F5760
G1 X59.062 Y141.470 E-0.11516
G1 F5760
G1 X59.062 Y141.612 E-0.04897
G1 F5760
G1 X58.735 Y141.612 E-0.11303
G1 F5760
G1 X58.735 Y141.530 E-0.02819
G1 E-1.19465 F2100.00000
G1 X48.321 Y135.384 F7200.000
G1 E1.50000 F2100.00000
M204 S800
G1 F1200
G1 X47.728 Y135.178 E0.01099
G1 X48.269 Y135.178 E0.00948
G1 X48.307 Y135.326 E0.00268
M204 S1000
G1 X48.604 Y134.749 F7200.000
M204 S800
G1 F1200
G1 X48.929 Y136.050 E0.02347
G1 X45.196 Y134.749 E0.06919
G1 X48.544 Y134.749 E0.05859
M204 S1000
G1 F5760
G1 X48.929 Y136.050 E-0.46994
G1 F5760
G1 X46.325 Y135.143 E-0.95506
G1 E-0.07500 F2100.00000
G1 X57.000 Y141.042 F7200.000
G1 E1.50000 F2100.00000
M204 S800
G1 F2400
G1 X59.450 Y141.042 E0.04287
G1 X59.450 Y139.655 E0.02427
G1 X59.613 Y139.655 E0.00286
G1 X59.536 Y140.378 E0.01273
G1 X59.489 Y141.535 E0.02026
G1 X59.503 Y142.185 E0.01137
G1 X59.612 Y143.427 E0.02183
G1 X59.450 Y143.427 E0.00285
G1 X59.450 Y142.040 E0.02427
G1 X58.307 Y142.040 E0.02000
G1 X58.307 Y141.649 E0.00684
G1 X53.444 Y141.649 E0.08509
G1 X53.444 Y142.040 E0.00684
G1 X53.377 Y142.040 E0.00116
G1 X53.339 Y141.932 E0.00200
G1 X53.296 Y141.732 E0.00359
G1 X53.283 Y141.541 E0.00334
G1 X53.296 Y141.350 E0.00334
G1 X53.377 Y141.042 E0.00558
G1 X53.444 Y141.042 E0.00116
G1 X53.444 Y141.433 E0.00684
G1 X56.783 Y141.433 E0.05843
G1 X56.783 Y138.434 E0.05246
G1 X56.469 Y136.672 E0.03132
G1 X55.131 Y134.537 E0.04407
G1 X48.993 Y134.537 E0.10741
G1 X49.537 Y136.716 E0.03929
G1 X43.829 Y134.727 E0.10578
G1 X43.829 Y134.321 E0.00711
G1 X55.570 Y134.321 E0.20544
G1 X56.753 Y136.562 E0.04434
G1 X57.000 Y138.162 E0.02834
G1 X57.000 Y140.982 E0.04934
M204 S1000
G1 X57.428 Y140.613 F7200.000
M204 S800
G1 F1500
G1 X57.853 Y140.613 E0.00744
G1 F1500
G1 X58.596 Y140.613 E0.03105
G1 F1500
G1 X59.021 Y140.613 E0.00744
G1 X59.021 Y139.226 E0.02427
G1 X59.489 Y139.226 E0.00818
G1 X59.776 Y137.964 E0.02265
G1 X60.108 Y136.909 E0.01935
G1 X60.524 Y135.885 E0.01935
G1 X61.023 Y134.895 E0.01939
G1 X61.237 Y134.527 E0.00745
G1 X61.793 Y134.527 E0.00973
G1 X61.407 Y135.224 E0.01394
G1 X61.151 Y135.766 E0.01050
G1 X60.712 Y136.867 E0.02074
G1 X60.521 Y137.454 E0.01079
G1 X60.229 Y138.587 E0.02048
G1 X60.030 Y139.758 E0.02078
G1 X59.963 Y140.409 E0.01144
G1 X59.917 Y141.539 E0.01980
G1 X59.931 Y142.162 E0.01090
G1 X60.030 Y143.319 E0.02033
G1 X60.118 Y143.913 E0.01049
G1 X60.366 Y145.074 E0.02078
G1 X60.711 Y146.213 E0.02082
G1 X61.151 Y147.316 E0.02078
G1 X61.407 Y147.858 E0.01050
G1 X61.793 Y148.555 E0.01394
G1 X61.237 Y148.555 E0.00973
G1 X61.023 Y148.187 E0.00745
G1 X60.524 Y147.197 E0.01939
G1 X60.108 Y146.173 E0.01935
G1 X59.776 Y145.118 E0.01935
G1 X59.489 Y143.856 E0.02265
G1 X59.021 Y143.856 E0.00818
G1 X59.021 Y142.469 E0.02427
G1 X58.596 Y142.469 E0.00744
G1 F1500
G1 X57.878 Y142.469 E0.03001
G1 X57.878 Y142.452 E0.00072
G1 F1500
G1 X57.878 Y142.078 E0.00654
G1 X53.872 Y142.078 E0.07010
G1 X53.872 Y142.452 E0.00654
G1 F1500
G1 X53.872 Y142.469 E0.00072
G1 X53.095 Y142.469 E0.03250
G1 X53.086 Y142.452 E0.00080
G1 F1500
G1 X52.926 Y142.049 E0.00758
G1 X52.871 Y141.792 E0.00460
G1 X52.853 Y141.541 E0.00440
G1 X52.871 Y141.290 E0.00440
G1 X52.926 Y141.033 E0.00460
G1 X53.086 Y140.630 E0.00758
G1 F1500
G1 X53.095 Y140.613 E0.00080
G1 X53.872 Y140.613 E0.03250
G1 X53.872 Y140.630 E0.00072
G1 F1500
G1 X53.872 Y141.004 E0.00654
G1 X56.354 Y141.004 E0.04343
G1 X56.354 Y138.472 E0.04430
G1 X56.061 Y136.829 E0.02921
G1 X54.894 Y134.966 E0.03847
G1 X49.542 Y134.966 E0.09366
G1 X50.146 Y137.382 E0.04357
G1 X43.400 Y135.031 E0.12499
G1 X43.400 Y133.892 E0.01993
G1 X55.828 Y133.892 E0.21746
G1 X57.166 Y136.425 E0.05012
G1 X57.428 Y138.129 E0.03017
G1 X57.428 Y140.553 E0.04242
M204 S1000
G1 X57.436 Y141.013 F7200.000
G1 X56.997 Y141.346 F7200.000
G1 F2400
G1 X58.521 Y141.346 E0.00951
G1 F5760
G1 X56.997 Y141.346 E-0.52784
G1 E-0.97216 F2100.00000
G1 X59.764 Y139.440 F7200.000
G1 E1.50000 F2100.00000
G1 F2400
G1 X59.945 Y138.530 E0.00649
G1 F2400
G1 X60.253 Y137.378 E0.00513
G1 X60.456 Y136.777 E0.00273
G1 F2400
G1 X60.918 Y135.666 E0.00190
G1 X61.189 Y135.111 E0.00098
G1 X61.395 Y134.741 E0.00067
G1 F5760
G1 X61.189 Y135.111 E-0.14659
G1 F5760
G1 X60.918 Y135.666 E-0.21399
G1 F5760
G1 X60.456 Y136.777 E-0.41660
G1 E-0.72282 F2100.00000
G1 X59.761 Y143.642 F7200.000
G1 E1.50000 F2100.00000
G1 F2400
G1 X59.821 Y143.963 E0.00219
G1 F2400
G1 X60.086 Y145.143 E0.00542
G1 X60.454 Y146.300 E0.00545
G1 F2400
G1 X60.918 Y147.416 E0.00191
G1 X61.189 Y147.971 E0.00098
G1 X61.395 Y148.341 E0.00067
G1 F5760
G1 X61.189 Y147.971 E-0.14659
G1 F5760
G1 X60.918 Y147.416 E-0.21399
G1 F5760
G1 X60.454 Y146.300 E-0.41851
G1 E-0.72091 F2100.00000
G1 X47.517 Y135.142 F7200.000
G1 E1.50000 F2100.00000
G1 F2400
G1 X47.209 Y135.090 E0.00359
G1 F2400
G1 X46.902 Y135.038 E0.00250
G1 F2400
G1 X46.595 Y134.986 E0.00141
G1 F5760
G1 X46.902 Y135.038 E-0.10796
G1 E-1.39204 F2100.00000
G1 X44.984 Y134.713 F7200.000
G1 E1.50000 F2100.00000
G1 F2400
G1 X44.677 Y134.661 E0.00359
G1 F2400
G1 X44.370 Y134.609 E0.00250
G1 F2400
G1 X44.062 Y134.557 E0.00141
; Layer 2
G1 Z0.350 F7200.000
G1 E-1.50000 F2100.00000
G1 X32.920 Y136.364 F7200.000
G1 E1.50000 F2100.00000
G1 F3000
G1 X33.522 Y135.586 E0.02335
G1 X34.080 Y135.213 E0.01593
G1 X42.410 Y131.216 E0.21931
G1 X50.852 Y130.189 E0.20183
