; generated by Slic3r 1.36.2-prusa3d-stable-win64 on 2017-08-31 at 00:57:52

; 

; external perimeters extrusion width = 0.45mm
; perimeters extrusion width = 0.45mm
; infill extrusion width = 0.45mm
; solid infill extrusion width = 0.45mm
; top infill extrusion width = 0.42mm
; support material extrusion width = 0.35mm
; first layer extrusion width = 0.45mm

M115 U3.0.12 ; tell printer latest fw version
M83  ; extruder relative mode
M104 S240 ; set extruder temp
M140 S95 ; set bed temp
M190 S95 ; wait for bed temp
M109 S240 ; wait for extruder temp
G28 W ; home all without mesh bed level
G80 ; mesh bed leveling
G1 Y-3.0 F1000.0 ; go outside pritn area
G1 X60.0 E9.0  F1000.0 ; intro line
G1 X100.0 E12.5  F1000.0 ; intro line
; Filament gcode
G21 ; set units to millimeters
G90 ; use absolute coordinates
M83 ; use relative distances for extrusion
; Layer 0
G1 Z0.100 F7200.000
G1 E-1.50000 F2100.00000
G1 X104.554 Y98.996 F7200.000
G1 E1.50000 F2100.00000
M204 S1000
G1 F2100
G1 X105.471 Y98.332 E0.01980
G1 X114.159 Y94.317 E0.16748
G1 X123.200 Y92.973 E0.15994
G1 X128.655 Y93.204 E0.09552
G1 X145.223 Y95.921 E0.29378
G1 X145.977 Y96.158 E0.01384
G1 X146.656 Y96.572 E0.01391
G1 X147.163 Y97.069 E0.01243
G1 X147.551 Y97.665 E0.01243
G1 X147.802 Y98.330 E0.01243
G1 X147.904 Y99.033 E0.01243
G1 X147.902 Y110.079 E0.19329
G1 X147.693 Y111.066 E0.01764
G1 X147.198 Y111.939 E0.01756
G1 X146.761 Y112.393 E0.01103
G1 X144.058 Y114.636 E0.06146
G1 X143.552 Y114.958 E0.01049
G1 X142.992 Y115.184 E0.01056
G1 X142.294 Y115.313 E0.01243
G1 X134.180 Y115.842 E0.14227
G1 X123.633 Y115.488 E0.18465
G1 X106.325 Y112.941 E0.30612
G1 X105.404 Y112.628 E0.01702
G1 X104.618 Y112.063 E0.01694
G1 X104.200 Y111.567 E0.01134
G1 X103.886 Y110.995 E0.01142
G1 X103.692 Y110.376 E0.01134
G1 X103.624 Y109.727 E0.01142
G1 X103.636 Y101.005 E0.15263
G1 X103.922 Y99.919 E0.01965
G1 X104.520 Y99.045 E0.01852
G1 F5760
G1 X105.471 Y98.332 E-0.41162
G1 F5760
G1 X108.127 Y97.105 E-1.01338
G1 E-0.07500 F2100.00000
G1 X104.314 Y100.092 F7200.000
G1 E1.50000 F2100.00000
G1 F2100
G1 X104.888 Y99.267 E0.01759
G1 X105.667 Y98.713 E0.01673
G1 X114.299 Y94.722 E0.16641
G1 X123.197 Y93.402 E0.15739
G1 X128.584 Y93.627 E0.09435
G1 X145.136 Y96.340 E0.29350
G1 X145.785 Y96.542 E0.01188
G1 X146.365 Y96.887 E0.01181
G1 X146.815 Y97.321 E0.01094
G1 X147.161 Y97.842 E0.01094
G1 X147.384 Y98.426 E0.01094
G1 X147.476 Y99.048 E0.01101
G1 X147.475 Y110.034 E0.19223
G1 X147.304 Y110.882 E0.01514
G1 X146.884 Y111.644 E0.01521
G1 X146.483 Y112.067 E0.01021
G1 X143.804 Y114.291 E0.06093
G1 X142.862 Y114.775 E0.01853
G1 X142.259 Y114.885 E0.01072
G1 X134.174 Y115.414 E0.14177
G1 X123.694 Y115.064 E0.18349
G1 X106.411 Y112.521 E0.30567
G1 X105.588 Y112.241 E0.01521
G1 X104.890 Y111.729 E0.01514
G1 X104.536 Y111.298 E0.00978
G1 X104.270 Y110.801 E0.00985
G1 X104.108 Y110.267 E0.00978
G1 X104.052 Y109.708 E0.00983
G1 X104.061 Y101.061 E0.15130
G1 X104.299 Y100.150 E0.01647
G1 X104.672 Y100.342 F7200.000
G1 F2100
G1 X105.213 Y99.549 E0.01680
G1 X105.860 Y99.096 E0.01382
G1 X114.433 Y95.130 E0.16528
G1 X123.196 Y93.830 E0.15502
G1 X128.512 Y94.049 E0.09310
G1 X145.052 Y96.761 E0.29327
G1 X145.592 Y96.925 E0.00988
G1 X146.080 Y97.209 E0.00988
G1 X146.471 Y97.578 E0.00941
G1 X146.774 Y98.027 E0.00948
G1 X146.969 Y98.532 E0.00948
G1 X147.048 Y99.068 E0.00948
G1 X147.047 Y109.997 E0.19122
G1 X146.910 Y110.712 E0.01275
G1 X146.563 Y111.358 E0.01282
G1 X146.204 Y111.742 E0.00921
G1 X143.550 Y113.945 E0.06035
G1 X142.734 Y114.366 E0.01607
G1 X142.224 Y114.458 E0.00908
G1 X134.172 Y114.985 E0.14119
G1 X123.756 Y114.640 E0.18236
G1 X106.491 Y112.100 E0.30535
G1 X105.777 Y111.856 E0.01322
G1 X105.171 Y111.404 E0.01322
G1 X104.693 Y110.701 E0.01488
G1 X104.486 Y109.872 E0.01494
G1 X104.481 Y101.279 E0.15036
G1 X104.660 Y100.401 E0.01568
G1 F5760
G1 X105.213 Y99.549 E-0.35175
G1 F5760
G1 X105.860 Y99.096 E-0.27348
G1 F5760
G1 X107.956 Y98.127 E-0.79977
G1 E-0.07500 F2100.00000
G1 X106.909 Y101.286 F7200.000
G1 E1.50000 F2100.00000
G1 F2100
G1 X106.909 Y109.708 E0.14735
G1 X107.766 Y109.708 E0.01500
G1 X107.766 Y101.479 E0.14398
G1 X108.624 Y101.479 E0.01500
G1 X108.624 Y109.708 E0.14398
G1 X109.481 Y109.708 E0.01500
G1 X109.481 Y101.479 E0.14398
G1 X110.338 Y101.479 E0.01500
G1 X110.338 Y109.708 E0.14398
G1 X111.195 Y109.708 E0.01500
G1 X111.195 Y101.479 E0.14398
G1 X112.052 Y101.479 E0.01500
G1 X112.052 Y109.708 E0.14398
G1 X112.909 Y109.708 E0.01500
G1 X112.909 Y101.479 E0.14398
G1 X113.766 Y101.479 E0.01500
G1 X113.766 Y109.708 E0.14398
G1 X114.623 Y109.708 E0.01500
G1 X114.623 Y101.479 E0.14398
G1 X115.480 Y101.479 E0.01500
G1 X115.480 Y109.708 E0.14398
G1 X116.337 Y109.708 E0.01500
G1 X116.337 Y101.479 E0.14398
G1 X117.194 Y101.479 E0.01500
G1 X117.194 Y109.708 E0.14398
G1 X118.051 Y109.708 E0.01500
G1 X118.051 Y101.479 E0.14398
G1 X118.908 Y101.479 E0.01500
G1 X118.908 Y109.708 E0.14398
G1 X119.766 Y109.708 E0.01500
G1 X119.766 Y101.479 E0.14398
G1 X120.623 Y101.479 E0.01500
G1 X120.623 Y109.708 E0.14398
G1 X121.480 Y109.708 E0.01500
G1 X121.480 Y101.679 E0.14049
G1 X122.337 Y101.977 E0.01588
G1 X122.337 Y109.708 E0.13526
G1 X122.830 Y109.708 E0.00864
G1 X122.830 Y112.036 E0.04074
G1 X123.194 Y112.036 E0.00636
G1 X123.194 Y99.452 E0.22020
G1 X124.051 Y99.452 E0.01500
G1 X124.051 Y112.229 E0.22358
G1 X131.765 Y112.229 F7200.000
G1 F2100
G1 X131.765 Y111.014 E0.02125
G1 X131.437 Y110.194 E0.01545
G1 X131.252 Y109.643 E0.01018
G1 X131.085 Y109.075 E0.01035
G1 X130.910 Y108.342 E0.01320
G1 X130.908 Y112.036 E0.06464
G1 X130.050 Y112.036 E0.01500
G1 X130.050 Y106.384 E0.09891
G1 X130.029 Y106.384 E0.00038
G1 X129.849 Y106.564 E0.00446
G1 X129.193 Y106.564 E0.01147
G1 X129.193 Y112.036 E0.09575
G1 X128.336 Y112.036 E0.01500
G1 X128.336 Y106.564 E0.09575
G1 X127.479 Y106.564 E0.01500
G1 X127.479 Y112.036 E0.09575
G1 X126.622 Y112.036 E0.01500
G1 X126.622 Y106.564 E0.09575
G1 X125.892 Y106.564 E0.01278
G1 X125.765 Y106.437 E0.00313
G1 X125.765 Y112.036 E0.09797
G1 X124.908 Y112.036 E0.01500
G1 X124.908 Y106.384 E0.09891
G1 X124.782 Y106.384 E0.00220
G1 X124.519 Y106.178 E0.00584
G1 X124.410 Y105.690 E0.00876
G1 X124.383 Y105.326 E0.00638
G1 X124.410 Y104.945 E0.00668
G1 X124.519 Y104.457 E0.00876
G1 X124.782 Y104.251 E0.00584
G1 X124.908 Y104.251 E0.00220
G1 X124.908 Y99.452 E0.08398
G1 X125.765 Y99.452 E0.01500
G1 X125.765 Y104.198 E0.08304
G1 X125.892 Y104.071 E0.00313
G1 X126.622 Y104.071 E0.01278
G1 X126.622 Y99.652 E0.07732
G1 X127.382 Y100.866 E0.02505
G1 X127.479 Y101.410 E0.00968
G1 X127.479 Y104.264 E0.04994
G1 F5760
G1 X127.479 Y101.410 E-0.98849
G1 F5760
G1 X127.382 Y100.866 E-0.19158
G1 F5760
G1 X127.007 Y100.266 E-0.24493
G1 E-0.07500 F2100.00000
G1 X131.765 Y100.126 F7200.000
G1 E1.50000 F2100.00000
G1 F2100
G1 X131.765 Y99.151 E0.01706
G1 X130.908 Y99.151 E0.01500
G1 X130.908 Y102.293 E0.05499
G1 X130.591 Y102.293 E0.00555
G1 X130.307 Y102.577 E0.00702
G1 X130.307 Y104.251 E0.02930
G1 X130.132 Y104.251 E0.00305
G1 X130.132 Y101.870 E0.04167
G1 X130.050 Y101.319 E0.00974
G1 X130.050 Y99.474 E0.03229
G1 X129.193 Y98.106 E0.02825
G1 X129.193 Y98.745 E0.01118
G1 X128.336 Y97.122 E0.03212
G1 X128.336 Y96.738 E0.00672
G1 X128.157 Y96.452 E0.00590
G1 X127.479 Y96.452 E0.01187
G1 X127.479 Y96.959 E0.00888
G1 X126.622 Y96.959 E0.01500
G1 X126.622 Y96.452 E0.00888
G1 X125.765 Y96.452 E0.01500
G1 X125.765 Y96.959 E0.00888
G1 X124.908 Y96.959 E0.01500
G1 X124.908 Y96.452 E0.00888
G1 X124.051 Y96.452 E0.01500
G1 X124.051 Y96.959 E0.00888
G1 X123.194 Y96.959 E0.01500
G1 X123.194 Y96.259 E0.01225
G1 F5760
G1 X123.194 Y96.959 E-0.24252
G1 F5760
G1 X124.051 Y96.959 E-0.29685
G1 F5760
G1 X124.051 Y96.452 E-0.17573
G1 F5760
G1 X124.908 Y96.452 E-0.29685
G1 F5760
G1 X124.908 Y96.959 E-0.17573
G1 F5760
G1 X125.593 Y96.959 E-0.23732
G1 E-0.07500 F2100.00000
G1 X133.479 Y110.554 F7200.000
G1 E1.50000 F2100.00000
G1 F2100
G1 X133.479 Y100.606 E0.17407
G1 X133.794 Y99.830 E0.01465
G1 X134.125 Y99.151 E0.01323
G1 X134.336 Y99.151 E0.00369
G1 X134.336 Y111.879 E0.22272
G1 X134.427 Y112.036 E0.00318
G1 X135.193 Y112.036 E0.01340
G1 X135.193 Y99.151 E0.22547
G1 X136.050 Y99.151 E0.01500
G1 X136.050 Y112.036 E0.22547
G1 X136.907 Y112.036 E0.01500
G1 X136.907 Y99.151 E0.22547
G1 X137.764 Y99.151 E0.01500
G1 X137.764 Y112.036 E0.22547
G1 X138.621 Y112.036 E0.01500
G1 X138.621 Y99.151 E0.22547
G1 X139.478 Y99.151 E0.01500
G1 X139.478 Y112.036 E0.22547
G1 X140.335 Y112.036 E0.01500
G1 X140.335 Y99.151 E0.22547
G1 X141.193 Y99.151 E0.01500
G1 X141.193 Y112.036 E0.22547
G1 X142.050 Y112.036 E0.01500
G1 X142.050 Y99.151 E0.22547
G1 X142.907 Y99.151 E0.01500
G1 X142.907 Y109.708 E0.18473
G1 X143.764 Y109.708 E0.01500
G1 X143.764 Y99.151 E0.18473
G1 X144.621 Y99.151 E0.01500
G1 X144.621 Y109.900 E0.18810
G1 F5760
G1 X144.621 Y105.786 E-1.42500
G1 E-0.07500 F2100.00000
G1 X131.607 Y107.204 F7200.000
G1 E1.50000 F2100.00000
G1 F840
G1 X131.445 Y107.204 E0.00285
G1 X131.445 Y103.431 E0.06602
G1 X131.619 Y103.431 E0.00305
G1 X131.535 Y104.093 E0.01167
G1 X131.484 Y105.311 E0.02133
G1 X131.497 Y105.943 E0.01107
G1 X131.599 Y107.145 E0.02110
G1 F5760
G1 X131.445 Y107.204 E-0.05714
G1 F5760
G1 X131.445 Y103.431 E-1.30677
G1 F5760
G1 X131.619 Y103.431 E-0.06032
G1 F5760
G1 X131.619 Y103.433 E-0.00078
G1 E-0.07500 F2100.00000
G1 X120.316 Y99.161 F7200.000
G1 E1.50000 F2100.00000
G1 F840
G1 X119.723 Y98.954 E0.01099
G1 X120.265 Y98.954 E0.00948
G1 X120.302 Y99.103 E0.00268
G1 X120.599 Y98.526 F7200.000
G1 F840
G1 X120.924 Y99.827 E0.02347
G1 X117.191 Y98.526 E0.06919
G1 X120.539 Y98.526 E0.05859
G1 F5760
G1 X120.924 Y99.827 E-0.46994
G1 F5760
G1 X118.320 Y98.919 E-0.95506
G1 E-0.07500 F2100.00000
G1 X128.778 Y105.209 F7200.000
G1 E1.50000 F2100.00000
G1 F1680
G1 X128.778 Y102.211 E0.05246
G1 X128.464 Y100.449 E0.03132
G1 X127.127 Y98.314 E0.04407
G1 X120.988 Y98.314 E0.10741
G1 X121.533 Y100.492 E0.03929
G1 X115.824 Y98.503 E0.10578
G1 X115.824 Y98.097 E0.00711
G1 X127.565 Y98.097 E0.20544
G1 X128.738 Y100.320 E0.04398
G1 X128.995 Y101.940 E0.02870
G1 X128.995 Y105.426 E0.06100
G1 X126.746 Y105.426 E0.03935
G1 X126.746 Y105.209 E0.00380
G1 X128.718 Y105.209 E0.03451
G1 X128.349 Y104.780 F7200.000
G1 F1260
G1 X128.349 Y102.249 E0.04430
G1 X128.056 Y100.606 E0.02921
G1 X126.889 Y98.743 E0.03847
G1 X121.537 Y98.743 E0.09366
G1 X122.141 Y101.158 E0.04357
G1 X115.395 Y98.808 E0.12499
G1 X115.395 Y97.668 E0.01993
G1 X127.823 Y97.668 E0.21746
G1 X129.151 Y100.182 E0.04974
G1 X129.423 Y101.906 E0.03054
G1 X129.423 Y104.961 E0.05345
G1 X131.016 Y104.961 E0.02787
G1 X131.016 Y103.002 E0.03426
G1 X131.488 Y103.002 E0.00825
G1 X131.637 Y102.279 E0.01292
G1 X131.927 Y101.210 E0.01939
G1 X132.301 Y100.169 E0.01935
G1 X132.758 Y99.162 E0.01935
G1 X133.235 Y98.303 E0.01719
G1 X133.788 Y98.303 E0.00967
G1 X133.402 Y99.000 E0.01394
G1 X133.147 Y99.541 E0.01045
G1 X132.913 Y100.095 E0.01053
G1 X132.522 Y101.212 E0.02070
G1 X132.225 Y102.361 E0.02078
G1 X132.112 Y102.951 E0.01050
G1 X131.962 Y104.129 E0.02078
G1 X131.912 Y105.315 E0.02078
G1 X131.925 Y105.921 E0.01060
G1 X132.025 Y107.096 E0.02064
G1 X132.113 Y107.689 E0.01050
G1 X132.361 Y108.850 E0.02078
G1 X132.706 Y109.989 E0.02082
G1 X133.146 Y111.092 E0.02078
G1 X133.402 Y111.635 E0.01050
G1 X133.788 Y112.332 E0.01394
G1 X133.235 Y112.332 E0.00967
G1 X132.757 Y111.471 E0.01723
G1 X132.520 Y110.976 E0.00960
G1 X132.103 Y109.949 E0.01939
G1 X131.772 Y108.894 E0.01935
G1 X131.484 Y107.633 E0.02265
G1 X131.016 Y107.633 E0.00818
G1 X131.016 Y105.674 E0.03426
G1 X129.423 Y105.674 E0.02787
G1 X129.423 Y105.855 E0.00315
G1 X126.317 Y105.855 E0.05435
G1 X126.317 Y105.674 E0.00315
G1 X125.132 Y105.674 E0.02075
G1 X125.093 Y105.318 E0.00628
G1 X125.132 Y104.961 E0.00628
G1 X126.317 Y104.961 E0.02075
G1 X126.317 Y104.780 E0.00315
G1 X128.289 Y104.780 E0.03451
G1 X128.749 Y104.769 F7200.000
G1 F5760
G1 X128.349 Y102.249 E-0.87711
G1 F5760
G1 X128.072 Y100.691 E-0.54789
G1 E-0.07500 F2100.00000
G1 X129.209 Y105.318 F7200.000
G1 E1.50000 F2100.00000
G1 F1680
G1 X131.230 Y105.318 E0.02152
G1 F5760
G1 X129.209 Y105.318 E-0.70016
G1 E-0.79984 F2100.00000
G1 X131.756 Y107.418 F7200.000
G1 E1.50000 F2100.00000
G1 F1680
G1 X132.054 Y108.818 E0.00850
G1 F1680
G1 X132.449 Y110.077 E0.00441
G1 X132.909 Y111.194 E0.00404
G1 F1680
G1 X133.393 Y112.117 E0.00117
G1 F5760
G1 X132.909 Y111.194 E-0.36103
G1 E-1.13897 F2100.00000
G1 X131.763 Y103.217 F7200.000
G1 E1.50000 F2100.00000
G1 F1680
G1 X131.815 Y102.906 E0.00210
G1 F1680
G1 X131.937 Y102.299 E0.00245
G1 X132.202 Y101.296 E0.00410
G1 X132.666 Y100.001 E0.00544
G1 F1680
G1 X132.987 Y99.278 E0.00089
G1 X133.393 Y98.518 E0.00097
G1 F5760
G1 X132.987 Y99.278 E-0.29837
G1 F5760
G1 X132.666 Y100.001 E-0.27419
G1 E-0.92744 F2100.00000
G1 X126.531 Y105.318 F7200.000
G1 E1.50000 F2100.00000
G1 F1680
G1 X125.451 Y105.318 E0.01150
G1 F5760
G1 X126.531 Y105.318 E-0.37428
G1 E-1.12572 F2100.00000
G1 X119.512 Y98.918 F7200.000
G1 E1.50000 F2100.00000
G1 F1680
G1 X119.204 Y98.866 E0.00359
G1 F1680
G1 X118.897 Y98.814 E0.00250
G1 F1680
G1 X118.590 Y98.762 E0.00141
G1 F5760
G1 X118.897 Y98.814 E-0.10796
G1 E-1.39204 F2100.00000
G1 X116.979 Y98.490 F7200.000
G1 E1.50000 F2100.00000
G1 F1680
G1 X116.672 Y98.438 E0.00359
G1 F1680
G1 X116.365 Y98.386 E0.00250
G1 F1680
G1 X116.057 Y98.334 E0.00141
; Layer 1
G1 Z0.200 F7200.000
M104 S235 ; set temperature
M140 S90 ; set bed temperature
G1 E-1.50000 F2100.00000
G1 X114.159 Y94.317 F7200.000
G1 E1.50000 F2100.00000
G1 F3000
G1 X123.200 Y92.973 E0.15994
G1 X128.655 Y93.204 E0.09552
G1 X145.223 Y95.921 E0.29378
G1 X145.977 Y96.158 E0.01384
G1 X146.656 Y96.572 E0.01391
G1 X147.163 Y97.069 E0.01243
G1 X147.551 Y97.665 E0.01243
G1 X147.802 Y98.330 E0.01243
G1 X147.904 Y99.033 E0.01243
G1 X147.902 Y110.079 E0.19329
G1 X147.693 Y111.066 E0.01764
G1 X147.198 Y111.939 E0.01756
G1 X146.761 Y112.393 E0.01103
G1 X144.058 Y114.636 E0.06146
G1 X143.552 Y114.958 E0.01049
G1 X142.992 Y115.184 E0.01056
G1 X142.294 Y115.313 E0.01243
G1 X134.180 Y115.842 E0.14227
G1 X123.633 Y115.488 E0.18465
G1 X106.325 Y112.941 E0.30612
G1 X105.404 Y112.628 E0.01702
G1 X104.618 Y112.063 E0.01694
G1 X104.200 Y111.567 E0.01134
G1 X103.886 Y110.995 E0.01142
G1 X103.692 Y110.376 E0.01134
G1 X103.624 Y109.727 E0.01142
G1 X103.636 Y101.005 E0.15263
G1 X103.922 Y99.919 E0.01965
G1 X104.554 Y98.996 E0.01957
G1 X105.471 Y98.332 E0.01980
G1 X114.105 Y94.342 E0.16643
G1 F5760
G1 X118.173 Y93.730 E-1.42500
G1 E-0.07500 F2100.00000
G1 X119.723 Y98.954 F7200.000
G1 E1.50000 F2100.00000
M204 S800
G1 F1200
G1 X120.265 Y98.954 E0.00948
G1 X120.316 Y99.161 E0.00373
G1 X119.780 Y98.974 E0.00994
M204 S1000
G1 F5760
G1 X120.265 Y98.954 E-0.16812
G1 F5760
G1 X120.316 Y99.161 E-0.07381
G1 F5760
G1 X119.780 Y98.974 E-0.19684
G1 E-1.06123 F2100.00000
G1 X120.924 Y99.827 F7200.000
G1 E1.50000 F2100.00000
M204 S800
G1 F1200
G1 X117.191 Y98.526 E0.06919
G1 X120.599 Y98.526 E0.05964
G1 X120.910 Y99.768 E0.02242
M204 S1000
G1 F5760
G1 X117.191 Y98.526 E-1.35820
G1 F5760
G1 X117.383 Y98.526 E-0.06680
G1 E-0.07500 F2100.00000
G1 X128.995 Y104.970 F7200.000
G1 E1.50000 F2100.00000
M204 S800
G1 F2400
G1 X131.445 Y104.970 E0.04287
G1 X131.445 Y103.431 E0.02692
G1 X131.608 Y103.431 E0.00286
G1 X131.532 Y104.141 E0.01249
G1 X131.484 Y105.311 E0.02050
G1 X131.498 Y105.955 E0.01127
G1 X131.607 Y107.204 E0.02194
G1 X131.445 Y107.204 E0.00285
G1 X131.445 Y105.665 E0.02692
G1 X130.302 Y105.665 E0.02000
G1 X130.302 Y105.426 E0.00419
G1 X125.439 Y105.426 E0.08509
G1 X125.439 Y105.665 E0.00419
G1 X125.406 Y105.665 E0.00057
G1 X125.394 Y105.624 E0.00074
G1 X125.361 Y105.318 E0.00540
G1 X125.406 Y104.970 E0.00613
G1 X125.439 Y104.970 E0.00057
G1 X125.439 Y105.209 E0.00419
G1 X128.778 Y105.209 E0.05843
G1 X128.778 Y102.211 E0.05246
G1 X128.464 Y100.449 E0.03132
G1 X127.127 Y98.314 E0.04407
G1 X120.988 Y98.314 E0.10741
G1 X121.533 Y100.492 E0.03929
G1 X115.824 Y98.503 E0.10578
G1 X115.824 Y98.097 E0.00711
G1 X127.565 Y98.097 E0.20544
G1 X128.748 Y100.338 E0.04434
G1 X128.995 Y101.939 E0.02834
