; generated by Slic3r 1.36.2-prusa3d-stable-win64 on 2017-09-05 at 22:45:28

; 

; external perimeters extrusion width = 0.45mm
; perimeters extrusion width = 0.45mm
; infill extrusion width = 0.50mm
; solid infill extrusion width = 0.50mm
; top infill extrusion width = 0.40mm
; first layer extrusion width = 0.50mm

M107
M115 U3.0.12 ; tell printer latest fw version
M83  ; extruder relative mode
M104 S255 ; set extruder temp
M140 S100 ; set bed temp
M190 S100 ; wait for bed temp
M109 S255 ; wait for extruder temp
G28 W ; home all without mesh bed level
G80 ; mesh bed leveling
G1 Y-3.0 F1000.0 ; go outside pritn area
G1 X60.0 E9.0  F1000.0 ; intro line
G1 X100.0 E12.5  F1000.0 ; intro line
; Filament gcode

G21 ; set units to millimeters
G90 ; use absolute coordinates
M83 ; use relative distances for extrusion
; Layer 0
G1 E-0.80000 F2100.00000
G1 Z0.200 F7200.000
G1 X137.805 Y159.667 F7200.000
G1 E0.80000 F2100.00000
M204 S1000
G1 F2100
G1 X137.097 Y160.199 E0.03189
G1 X136.250 Y160.444 E0.03175
G1 X113.783 Y160.448 E0.80873
G1 X112.968 Y160.230 E0.03038
G1 X112.274 Y159.749 E0.03038
G1 X111.784 Y159.062 E0.03038
G1 X111.556 Y158.250 E0.03038
G1 X111.543 Y62.996 E3.42887
G1 X111.656 Y61.262 E0.06255
G1 X111.861 Y60.090 E0.04282
G1 X112.161 Y58.968 E0.04183
G1 X112.563 Y57.861 E0.04240
G1 X113.066 Y56.782 E0.04283
G1 X113.651 Y55.769 E0.04212
G1 X114.320 Y54.813 E0.04201
G1 X115.074 Y53.914 E0.04222
G1 X115.946 Y53.044 E0.04436
G1 X117.239 Y52.007 E0.05965
G1 X118.225 Y51.373 E0.04221
G1 X119.292 Y50.814 E0.04336
G1 X120.351 Y50.372 E0.04130
G1 X121.511 Y50.003 E0.04384
G1 X122.644 Y49.751 E0.04178
G1 X123.824 Y49.594 E0.04283
G1 X124.992 Y49.543 E0.04211
G1 X126.162 Y49.593 E0.04212
G1 X127.369 Y49.754 E0.04383
G1 X128.530 Y50.014 E0.04283
G1 X130.086 Y50.542 E0.05917
G1 X131.197 Y51.055 E0.04403
G1 X132.215 Y51.641 E0.04230
G1 X133.190 Y52.322 E0.04279
G1 X134.080 Y53.068 E0.04183
G1 X134.911 Y53.897 E0.04226
G1 X135.677 Y54.809 E0.04287
G1 X136.353 Y55.774 E0.04240
G1 X136.953 Y56.819 E0.04336
G1 X137.450 Y57.894 E0.04265
G1 X137.974 Y59.431 E0.05845
G1 X138.248 Y60.641 E0.04465
G1 X138.403 Y61.793 E0.04186
G1 X138.457 Y62.997 E0.04337
G1 X138.456 Y158.054 E3.42181
G1 X138.279 Y158.918 E0.03175
G1 X137.837 Y159.616 E0.02973
G1 F5760
G1 X137.097 Y160.199 E-0.32632
G1 F5760
G1 X136.250 Y160.444 E-0.30549
G1 F5760
G1 X135.880 Y160.444 E-0.12819
G1 E-0.04000 F2100.00000
G1 X126.320 Y131.152 F7200.000
G1 E0.80000 F2100.00000
G1 F840
G1 X125.896 Y131.296 E0.01611
G1 X125.568 Y131.369 E0.01210
G1 X125.025 Y131.416 E0.01961
G1 X124.690 Y131.402 E0.01209
G1 X124.252 Y131.335 E0.01595
G1 X123.717 Y131.166 E0.02020
G1 X123.411 Y131.024 E0.01212
G1 X123.029 Y130.792 E0.01609
G1 X122.583 Y130.417 E0.02099
G1 X122.208 Y129.971 E0.02098
G1 X121.978 Y129.592 E0.01595
G1 X121.834 Y129.284 E0.01223
G1 X121.670 Y128.764 E0.01963
G1 X121.612 Y128.433 E0.01210
G1 X121.583 Y128.000 E0.01563
G1 X121.612 Y127.567 E0.01563
G1 X121.670 Y127.236 E0.01210
G1 X121.834 Y126.716 E0.01961
G1 X121.976 Y126.412 E0.01209
G1 X122.206 Y126.033 E0.01595
G1 X122.566 Y125.603 E0.02020
G1 X122.814 Y125.375 E0.01211
G1 X123.171 Y125.113 E0.01595
G1 X123.691 Y124.842 E0.02112
G1 X124.236 Y124.670 E0.02055
G1 X124.566 Y124.612 E0.01209
G1 X125.009 Y124.583 E0.01595
G1 X125.568 Y124.631 E0.02020
G1 X125.896 Y124.704 E0.01212
G1 X126.295 Y124.839 E0.01517
G1 X126.589 Y124.976 E0.01164
G1 X126.971 Y125.208 E0.01609
G1 X127.417 Y125.583 E0.02099
G1 X127.792 Y126.029 E0.02098
G1 X128.022 Y126.408 E0.01595
G1 X128.166 Y126.716 E0.01223
G1 X128.330 Y127.236 E0.01963
G1 X128.388 Y127.567 E0.01210
G1 X128.417 Y128.000 E0.01563
G1 X128.388 Y128.433 E0.01563
G1 X128.330 Y128.764 E0.01210
G1 X128.166 Y129.284 E0.01961
G1 X128.024 Y129.589 E0.01210
G1 X127.792 Y129.971 E0.01609
G1 X127.434 Y130.398 E0.02007
G1 X127.186 Y130.625 E0.01209
G1 X126.829 Y130.887 E0.01595
G1 X126.373 Y131.125 E0.01850
G1 X126.162 Y130.719 F7200.000
G1 F840
G1 X125.773 Y130.855 E0.01483
G1 X125.499 Y130.916 E0.01012
G1 X125.015 Y130.958 E0.01745
G1 X124.735 Y130.946 E0.01012
G1 X124.356 Y130.888 E0.01380
G1 X123.882 Y130.739 E0.01786
G1 X123.627 Y130.620 E0.01013
G1 X123.296 Y130.420 E0.01393
G1 X122.907 Y130.093 E0.01829
G1 X122.581 Y129.704 E0.01829
G1 X122.382 Y129.376 E0.01380
G1 X122.261 Y129.118 E0.01025
G1 X122.115 Y128.655 E0.01747
G1 X122.066 Y128.378 E0.01012
G1 X122.041 Y128.000 E0.01365
G1 X122.066 Y127.622 E0.01365
G1 X122.115 Y127.345 E0.01012
G1 X122.261 Y126.882 E0.01745
G1 X122.380 Y126.627 E0.01012
G1 X122.578 Y126.300 E0.01380
G1 X122.897 Y125.919 E0.01786
G1 X123.104 Y125.729 E0.01013
G1 X123.413 Y125.502 E0.01380
G1 X123.867 Y125.266 E0.01842
G1 X124.345 Y125.115 E0.01803
G1 X124.621 Y125.066 E0.01012
G1 X125.004 Y125.041 E0.01380
G1 X125.498 Y125.084 E0.01786
G1 X125.773 Y125.145 E0.01014
G1 X126.125 Y125.264 E0.01337
G1 X126.373 Y125.380 E0.00984
G1 X126.704 Y125.580 E0.01393
G1 X127.093 Y125.907 E0.01829
G1 X127.419 Y126.296 E0.01829
G1 X127.618 Y126.624 E0.01380
G1 X127.739 Y126.882 E0.01025
G1 X127.885 Y127.345 E0.01747
G1 X127.934 Y127.622 E0.01012
G1 X127.959 Y128.000 E0.01365
G1 X127.934 Y128.378 E0.01365
G1 X127.885 Y128.655 E0.01012
G1 X127.739 Y129.118 E0.01745
G1 X127.620 Y129.373 E0.01012
G1 X127.420 Y129.704 E0.01393
G1 X127.103 Y130.081 E0.01773
G1 X126.896 Y130.271 E0.01012
G1 X126.587 Y130.498 E0.01380
G1 X126.215 Y130.692 E0.01508
G1 X126.004 Y130.286 F7200.000
G1 F840
G1 X125.650 Y130.414 E0.01355
G1 X125.429 Y130.463 E0.00815
G1 X125.005 Y130.500 E0.01530
G1 X124.779 Y130.491 E0.00814
G1 X124.459 Y130.442 E0.01165
G1 X124.048 Y130.312 E0.01552
G1 X123.843 Y130.217 E0.00815
G1 X123.563 Y130.047 E0.01177
G1 X123.232 Y129.768 E0.01559
G1 X122.953 Y129.437 E0.01559
G1 X122.785 Y129.160 E0.01165
G1 X122.688 Y128.952 E0.00827
G1 X122.560 Y128.547 E0.01530
G1 X122.521 Y128.324 E0.00815
G1 X122.499 Y128.000 E0.01168
G1 X122.521 Y127.676 E0.01168
G1 X122.560 Y127.453 E0.00815
G1 X122.688 Y127.048 E0.01530
G1 X122.783 Y126.843 E0.00814
G1 X122.951 Y126.566 E0.01165
G1 X123.228 Y126.236 E0.01552
G1 X123.395 Y126.083 E0.00815
G1 X123.656 Y125.891 E0.01165
G1 X124.043 Y125.689 E0.01571
G1 X124.453 Y125.560 E0.01550
G1 X124.676 Y125.521 E0.00814
G1 X124.999 Y125.499 E0.01165
G1 X125.429 Y125.537 E0.01552
G1 X125.650 Y125.586 E0.00815
G1 X125.954 Y125.689 E0.01158
G1 X126.157 Y125.783 E0.00805
G1 X126.437 Y125.953 E0.01177
G1 X126.768 Y126.232 E0.01559
G1 X127.047 Y126.563 E0.01559
G1 X127.215 Y126.840 E0.01165
G1 X127.312 Y127.048 E0.00827
G1 X127.440 Y127.453 E0.01530
G1 X127.479 Y127.676 E0.00815
G1 X127.501 Y128.000 E0.01168
G1 X127.479 Y128.324 E0.01168
G1 X127.440 Y128.547 E0.00815
G1 X127.312 Y128.952 E0.01530
G1 X127.217 Y129.157 E0.00815
G1 X127.047 Y129.437 E0.01177
G1 X126.772 Y129.764 E0.01540
G1 X126.605 Y129.917 E0.00814
G1 X126.344 Y130.109 E0.01165
G1 X126.057 Y130.259 E0.01167
G1 X125.963 Y130.660 F7200.000
G1 F5760
G1 X125.650 Y130.414 E-0.15097
G1 F5760
G1 X125.429 Y130.463 E-0.07839
G1 F5760
G1 X125.005 Y130.500 E-0.14719
G1 F5760
G1 X124.779 Y130.491 E-0.07836
G1 F5760
G1 X124.459 Y130.442 E-0.11212
G1 F5760
G1 X124.048 Y130.312 E-0.14929
G1 F5760
G1 X123.934 Y130.259 E-0.04368
G1 E-0.04000 F2100.00000
G1 X125.000 Y66.419 F7200.000
G1 E0.80000 F2100.00000
G1 F840
G1 X124.419 Y66.368 E0.02099
G1 X123.985 Y66.262 E0.01609
G1 X123.669 Y66.147 E0.01210
G1 X123.175 Y65.889 E0.02007
G1 X122.814 Y65.625 E0.01609
G1 X122.585 Y65.415 E0.01118
G1 X122.375 Y65.186 E0.01118
G1 X122.111 Y64.825 E0.01609
G1 X121.853 Y64.331 E0.02007
G1 X121.738 Y64.015 E0.01210
G1 X121.632 Y63.581 E0.01609
G1 X121.583 Y63.013 E0.02053
G1 X121.612 Y62.567 E0.01609
G1 X121.670 Y62.236 E0.01210
G1 X121.838 Y61.704 E0.02007
G1 X122.035 Y61.303 E0.01609
G1 X122.216 Y61.020 E0.01210
G1 X122.583 Y60.583 E0.02053
G1 X123.029 Y60.208 E0.02099
G1 X123.411 Y59.976 E0.01609
G1 X123.716 Y59.834 E0.01210
G1 X124.236 Y59.670 E0.01961
G1 X124.566 Y59.612 E0.01209
G1 X125.009 Y59.583 E0.01595
G1 X125.568 Y59.631 E0.02020
G1 X125.896 Y59.704 E0.01212
G1 X126.295 Y59.839 E0.01517
G1 X126.589 Y59.976 E0.01164
G1 X126.971 Y60.208 E0.01609
G1 X127.417 Y60.583 E0.02099
G1 X127.792 Y61.029 E0.02099
G1 X128.024 Y61.411 E0.01609
G1 X128.166 Y61.716 E0.01210
G1 X128.330 Y62.236 E0.01961
G1 X128.388 Y62.567 E0.01210
G1 X128.417 Y63.013 E0.01609
G1 X128.368 Y63.581 E0.02052
G1 X128.263 Y64.011 E0.01595
G1 X128.147 Y64.330 E0.01223
G1 X127.889 Y64.825 E0.02009
G1 X127.625 Y65.186 E0.01609
G1 X127.415 Y65.415 E0.01118
G1 X127.186 Y65.625 E0.01118
G1 X126.825 Y65.889 E0.01609
G1 X126.320 Y66.152 E0.02053
G1 X125.896 Y66.296 E0.01609
G1 X125.568 Y66.369 E0.01210
G1 X125.060 Y66.413 E0.01837
G1 X125.020 Y65.958 F7200.000
G1 F840
G1 X124.494 Y65.915 E0.01900
G1 X124.118 Y65.824 E0.01393
G1 X123.854 Y65.727 E0.01012
G1 X123.417 Y65.500 E0.01773
G1 X123.104 Y65.271 E0.01393
G1 X122.909 Y65.091 E0.00957
G1 X122.729 Y64.896 E0.00957
G1 X122.500 Y64.583 E0.01393
G1 X122.273 Y64.146 E0.01773
G1 X122.176 Y63.882 E0.01012
G1 X122.085 Y63.506 E0.01393
G1 X122.041 Y63.008 E0.01801
G1 X122.066 Y62.622 E0.01393
G1 X122.115 Y62.345 E0.01012
G1 X122.263 Y61.875 E0.01773
G1 X122.434 Y61.528 E0.01393
G1 X122.585 Y61.290 E0.01012
G1 X122.907 Y60.907 E0.01801
G1 X123.296 Y60.580 E0.01829
G1 X123.627 Y60.380 E0.01393
G1 X123.882 Y60.261 E0.01012
G1 X124.345 Y60.115 E0.01745
G1 X124.621 Y60.066 E0.01012
G1 X125.004 Y60.041 E0.01380
G1 X125.498 Y60.084 E0.01786
G1 X125.773 Y60.145 E0.01013
G1 X126.125 Y60.264 E0.01337
G1 X126.373 Y60.380 E0.00985
G1 X126.704 Y60.580 E0.01393
G1 X127.093 Y60.907 E0.01829
G1 X127.420 Y61.296 E0.01829
G1 X127.620 Y61.627 E0.01393
G1 X127.739 Y61.882 E0.01012
G1 X127.885 Y62.345 E0.01745
G1 X127.934 Y62.622 E0.01012
G1 X127.959 Y63.008 E0.01393
G1 X127.916 Y63.506 E0.01801
G1 X127.825 Y63.878 E0.01380
G1 X127.727 Y64.146 E0.01025
G1 X127.500 Y64.583 E0.01775
G1 X127.271 Y64.896 E0.01393
G1 X127.091 Y65.091 E0.00957
G1 X126.896 Y65.271 E0.00957
G1 X126.583 Y65.500 E0.01393
G1 X126.140 Y65.731 E0.01801
G1 X125.773 Y65.855 E0.01393
G1 X125.499 Y65.916 E0.01012
G1 X125.080 Y65.953 E0.01513
G1 X125.040 Y65.497 F7200.000
G1 F840
G1 X124.568 Y65.463 E0.01701
G1 X124.251 Y65.385 E0.01177
G1 X124.038 Y65.308 E0.00815
G1 X123.659 Y65.111 E0.01540
G1 X123.395 Y64.917 E0.01177
G1 X123.232 Y64.768 E0.00795
G1 X123.083 Y64.605 E0.00795
G1 X122.889 Y64.341 E0.01177
G1 X122.692 Y63.962 E0.01540
G1 X122.615 Y63.749 E0.00815
G1 X122.537 Y63.432 E0.01177
G1 X122.499 Y63.003 E0.01550
G1 X122.521 Y62.676 E0.01177
G1 X122.560 Y62.453 E0.00815
G1 X122.689 Y62.046 E0.01540
G1 X122.833 Y61.752 E0.01177
G1 X122.955 Y61.561 E0.00815
G1 X123.232 Y61.232 E0.01550
G1 X123.563 Y60.953 E0.01559
G1 X123.843 Y60.783 E0.01177
G1 X124.048 Y60.688 E0.00815
G1 X124.453 Y60.560 E0.01530
G1 X124.676 Y60.521 E0.00814
G1 X124.999 Y60.499 E0.01165
G1 X125.429 Y60.537 E0.01552
G1 X125.650 Y60.586 E0.00815
G1 X125.954 Y60.689 E0.01158
G1 X126.157 Y60.783 E0.00805
G1 X126.437 Y60.953 E0.01177
G1 X126.768 Y61.232 E0.01559
G1 X127.047 Y61.563 E0.01559
G1 X127.217 Y61.843 E0.01177
G1 X127.312 Y62.048 E0.00815
G1 X127.440 Y62.453 E0.01530
G1 X127.479 Y62.676 E0.00815
G1 X127.501 Y63.003 E0.01177
G1 X127.463 Y63.431 E0.01549
G1 X127.386 Y63.746 E0.01165
G1 X127.308 Y63.962 E0.00827
G1 X127.111 Y64.341 E0.01540
G1 X126.917 Y64.605 E0.01177
G1 X126.768 Y64.768 E0.00795
G1 X126.605 Y64.917 E0.00795
G1 X126.341 Y65.111 E0.01177
G1 X125.960 Y65.309 E0.01550
G1 X125.650 Y65.414 E0.01177
G1 X125.429 Y65.463 E0.00815
G1 X125.100 Y65.492 E0.01190
G1 X124.839 Y65.843 F7200.000
G1 F5760
G1 X124.568 Y65.463 E-0.18425
G1 F5760
G1 X124.251 Y65.385 E-0.11329
G1 F5760
G1 X124.038 Y65.308 E-0.07839
G1 F5760
G1 X123.659 Y65.111 E-0.14814
G1 F5760
G1 X123.395 Y64.917 E-0.11329
G1 F5760
G1 X123.232 Y64.768 E-0.07649
G1 F5760
G1 X123.142 Y64.670 E-0.04615
G1 E-0.04000 F2100.00000
G1 X134.836 Y156.836 F7200.000
G1 E0.80000 F2100.00000
G1 F1680
G1 X115.164 Y156.836 E0.70813
G1 X115.164 Y63.025 E3.37692
G1 X115.203 Y62.143 E0.03180
G1 X115.315 Y61.292 E0.03088
G1 X115.500 Y60.455 E0.03088
G1 X115.762 Y59.624 E0.03134
G1 X115.909 Y59.248 E0.01453
G1 X116.276 Y58.459 E0.03134
G1 X116.705 Y57.716 E0.03088
G1 X117.198 Y57.013 E0.03088
G1 X117.749 Y56.356 E0.03088
G1 X118.356 Y55.749 E0.03088
G1 X119.023 Y55.189 E0.03134
G1 X119.348 Y54.951 E0.01454
G1 X120.073 Y54.489 E0.03093
G1 X120.844 Y54.087 E0.03131
G1 X121.636 Y53.758 E0.03087
G1 X122.455 Y53.500 E0.03088
G1 X123.292 Y53.315 E0.03088
G1 X124.155 Y53.201 E0.03134
G1 X124.558 Y53.175 E0.01454
G1 X125.418 Y53.174 E0.03093
G1 X126.284 Y53.249 E0.03131
G1 X127.129 Y53.398 E0.03087
G1 X127.957 Y53.620 E0.03088
G1 X128.764 Y53.914 E0.03088
G1 X129.541 Y54.276 E0.03088
G1 X130.284 Y54.705 E0.03088
G1 X130.987 Y55.198 E0.03088
G1 X131.644 Y55.749 E0.03088
G1 X132.251 Y56.356 E0.03088
G1 X132.802 Y57.013 E0.03088
G1 X133.302 Y57.726 E0.03134
G1 X133.511 Y58.071 E0.01454
G1 X133.908 Y58.833 E0.03093
G1 X134.242 Y59.637 E0.03131
G1 X134.500 Y60.455 E0.03087
G1 X134.685 Y61.292 E0.03088
G1 X134.797 Y62.143 E0.03088
G1 X134.836 Y63.025 E0.03180
G1 X134.836 Y156.776 E3.37476
G1 X135.293 Y157.293 F7200.000
G1 F1680
G1 X114.707 Y157.293 E0.74103
G1 X114.707 Y63.015 E3.39373
G1 X114.747 Y62.103 E0.03288
G1 X114.864 Y61.213 E0.03232
G1 X115.058 Y60.336 E0.03232
G1 X115.331 Y59.472 E0.03260
G1 X115.488 Y59.068 E0.01561
G1 X115.871 Y58.248 E0.03260
G1 X116.320 Y57.470 E0.03232
G1 X116.835 Y56.734 E0.03232
G1 X117.412 Y56.047 E0.03232
G1 X118.047 Y55.412 E0.03232
G1 X118.740 Y54.830 E0.03260
G1 X119.090 Y54.573 E0.01561
G1 X119.844 Y54.093 E0.03218
G1 X120.651 Y53.672 E0.03275
G1 X121.480 Y53.328 E0.03231
G1 X122.336 Y53.058 E0.03232
G1 X123.213 Y52.864 E0.03232
G1 X124.111 Y52.746 E0.03260
G1 X124.543 Y52.718 E0.01561
G1 X125.437 Y52.717 E0.03218
G1 X126.344 Y52.796 E0.03275
G1 X127.228 Y52.952 E0.03231
G1 X128.095 Y53.184 E0.03232
G1 X128.939 Y53.491 E0.03232
G1 X129.752 Y53.871 E0.03232
G1 X130.530 Y54.320 E0.03232
G1 X131.266 Y54.835 E0.03232
G1 X131.953 Y55.412 E0.03232
G1 X132.588 Y56.047 E0.03232
G1 X133.165 Y56.734 E0.03232
G1 X133.685 Y57.476 E0.03260
G1 X133.910 Y57.847 E0.01561
G1 X134.323 Y58.640 E0.03218
G1 X134.672 Y59.480 E0.03275
G1 X134.942 Y60.336 E0.03231
G1 X135.136 Y61.213 E0.03232
G1 X135.253 Y62.103 E0.03232
G1 X135.293 Y63.015 E0.03288
G1 X135.293 Y157.233 E3.39157
G1 X135.750 Y157.750 F7200.000
G1 F1260
G1 X114.250 Y157.750 E0.77394
G1 X114.250 Y63.005 E3.41054
G1 X114.291 Y62.063 E0.03395
G1 X114.414 Y61.133 E0.03376
G1 X114.617 Y60.218 E0.03376
G1 X114.899 Y59.321 E0.03386
G1 X115.067 Y58.889 E0.01669
G1 X115.465 Y58.036 E0.03386
G1 X115.934 Y57.224 E0.03376
G1 X116.472 Y56.456 E0.03376
G1 X117.074 Y55.738 E0.03376
G1 X117.738 Y55.074 E0.03376
G1 X118.458 Y54.470 E0.03386
G1 X118.832 Y54.196 E0.01669
G1 X119.615 Y53.697 E0.03343
G1 X120.457 Y53.257 E0.03419
G1 X121.323 Y52.899 E0.03375
G1 X122.218 Y52.617 E0.03376
G1 X123.133 Y52.414 E0.03376
G1 X124.066 Y52.291 E0.03386
G1 X124.528 Y52.260 E0.01669
G1 X125.457 Y52.260 E0.03343
G1 X126.403 Y52.342 E0.03419
G1 X127.327 Y52.505 E0.03375
G1 X128.233 Y52.748 E0.03376
G1 X129.114 Y53.069 E0.03376
G1 X129.964 Y53.465 E0.03376
G1 X130.776 Y53.934 E0.03376
G1 X131.544 Y54.472 E0.03376
G1 X132.262 Y55.074 E0.03376
G1 X132.926 Y55.738 E0.03376
G1 X133.528 Y56.456 E0.03376
G1 X134.068 Y57.226 E0.03386
G1 X134.308 Y57.623 E0.01669
G1 X134.737 Y58.446 E0.03343
G1 X135.102 Y59.323 E0.03419
G1 X135.383 Y60.218 E0.03375
G1 X135.586 Y61.133 E0.03376
G1 X135.709 Y62.063 E0.03376
G1 X135.750 Y63.005 E0.03395
G1 X135.750 Y157.690 E3.40838
G1 X135.404 Y157.550 F7200.000
G1 F5760
G1 X133.556 Y157.696 E-0.76000
G1 E-0.04000 F2100.00000
G1 X116.227 Y156.699 F7200.000
G1 E0.80000 F2100.00000
G1 F1680
G1 X115.507 Y155.979 E0.03670
G1 X115.507 Y155.332 E0.02334
G1 X116.668 Y156.493 E0.05922
G1 X117.316 Y156.493 E0.02334
G1 X115.507 Y154.684 E0.09223
G1 X115.507 Y154.037 E0.02334
G1 X117.963 Y156.493 E0.12524
G1 X118.611 Y156.493 E0.02334
G1 X115.507 Y153.389 E0.15825
