; generated by Slic3r 1.36.2-prusa3d-stable-win64 on 2017-09-04 at 21:53:12

; 

; external perimeters extrusion width = 0.45mm
; perimeters extrusion width = 0.45mm
; infill extrusion width = 0.50mm
; solid infill extrusion width = 0.50mm
; top infill extrusion width = 0.40mm
; first layer extrusion width = 0.50mm

M107
M115 U3.0.12 ; tell printer latest fw version
M83  ; extruder relative mode
M104 S255 ; set extruder temp
M140 S100 ; set bed temp
M190 S100 ; wait for bed temp
M109 S255 ; wait for extruder temp
G28 W ; home all without mesh bed level
G80 ; mesh bed leveling
G1 Y-3.0 F1000.0 ; go outside pritn area
G1 X60.0 E9.0  F1000.0 ; intro line
G1 X100.0 E12.5  F1000.0 ; intro line
; Filament gcode

G21 ; set units to millimeters
G90 ; use absolute coordinates
M83 ; use relative distances for extrusion
; Layer 0
G1 E-0.80000 F2100.00000
G1 Z0.200 F7200.000
G1 X137.805 Y159.667 F7200.000
G1 E0.80000 F2100.00000
M204 S1000
G1 F2100
G1 X137.097 Y160.199 E0.03189
G1 X136.250 Y160.444 E0.03175
G1 X113.783 Y160.448 E0.80873
G1 X112.968 Y160.230 E0.03038
G1 X112.274 Y159.749 E0.03038
G1 X111.784 Y159.062 E0.03038
G1 X111.556 Y158.250 E0.03038
G1 X111.543 Y62.996 E3.42887
G1 X111.656 Y61.262 E0.06255
G1 X111.861 Y60.090 E0.04282
G1 X112.161 Y58.968 E0.04183
G1 X112.563 Y57.861 E0.04240
G1 X113.066 Y56.782 E0.04283
G1 X113.651 Y55.769 E0.04212
G1 X114.320 Y54.813 E0.04201
G1 X115.074 Y53.914 E0.04222
G1 X115.946 Y53.044 E0.04436
G1 X117.239 Y52.007 E0.05965
G1 X118.225 Y51.373 E0.04221
G1 X119.292 Y50.814 E0.04336
G1 X120.351 Y50.372 E0.04130
G1 X121.511 Y50.003 E0.04384
G1 X122.644 Y49.751 E0.04178
G1 X123.824 Y49.594 E0.04283
G1 X124.992 Y49.543 E0.04211
G1 X126.162 Y49.593 E0.04212
G1 X127.369 Y49.754 E0.04383
G1 X128.530 Y50.014 E0.04283
G1 X130.086 Y50.542 E0.05917
G1 X131.197 Y51.055 E0.04403
G1 X132.215 Y51.641 E0.04230
G1 X133.190 Y52.322 E0.04279
G1 X134.080 Y53.068 E0.04183
G1 X134.911 Y53.897 E0.04226
G1 X135.677 Y54.809 E0.04287
G1 X136.353 Y55.774 E0.04240
G1 X136.953 Y56.819 E0.04336
G1 X137.450 Y57.894 E0.04265
G1 X137.974 Y59.431 E0.05845
G1 X138.248 Y60.641 E0.04465
G1 X138.403 Y61.793 E0.04186
G1 X138.457 Y62.997 E0.04337
G1 X138.456 Y158.054 E3.42181
G1 X138.279 Y158.918 E0.03175
G1 X137.837 Y159.616 E0.02973
G1 F5760
G1 X137.097 Y160.199 E-0.32632
G1 F5760
G1 X136.250 Y160.444 E-0.30549
G1 F5760
G1 X135.880 Y160.444 E-0.12819
G1 E-0.04000 F2100.00000
G1 X126.140 Y130.731 F7200.000
G1 E0.80000 F2100.00000
G1 F840
G1 X125.773 Y130.855 E0.01394
G1 X125.499 Y130.916 E0.01012
G1 X125.015 Y130.958 E0.01745
G1 X124.735 Y130.946 E0.01012
G1 X124.356 Y130.888 E0.01380
G1 X123.882 Y130.739 E0.01786
G1 X123.627 Y130.620 E0.01013
G1 X123.296 Y130.420 E0.01393
G1 X122.907 Y130.093 E0.01829
G1 X122.581 Y129.704 E0.01829
G1 X122.382 Y129.376 E0.01380
G1 X122.261 Y129.118 E0.01025
G1 X122.115 Y128.655 E0.01747
G1 X122.066 Y128.378 E0.01012
G1 X122.041 Y128.000 E0.01365
G1 X122.066 Y127.622 E0.01365
G1 X122.115 Y127.345 E0.01012
G1 X122.261 Y126.882 E0.01745
G1 X122.380 Y126.627 E0.01012
G1 X122.578 Y126.300 E0.01380
G1 X122.897 Y125.919 E0.01786
G1 X123.104 Y125.729 E0.01013
G1 X123.413 Y125.502 E0.01380
G1 X123.867 Y125.266 E0.01842
G1 X124.345 Y125.115 E0.01803
G1 X124.621 Y125.066 E0.01012
G1 X125.004 Y125.041 E0.01380
G1 X125.498 Y125.084 E0.01786
G1 X125.773 Y125.145 E0.01014
G1 X126.125 Y125.264 E0.01337
G1 X126.373 Y125.380 E0.00984
G1 X126.704 Y125.580 E0.01393
G1 X127.093 Y125.907 E0.01829
G1 X127.419 Y126.296 E0.01829
G1 X127.618 Y126.624 E0.01380
G1 X127.739 Y126.882 E0.01025
G1 X127.885 Y127.345 E0.01747
G1 X127.934 Y127.622 E0.01012
G1 X127.959 Y128.000 E0.01365
G1 X127.934 Y128.378 E0.01365
G1 X127.885 Y128.655 E0.01012
G1 X127.739 Y129.118 E0.01745
G1 X127.620 Y129.373 E0.01012
G1 X127.420 Y129.704 E0.01393
G1 X127.103 Y130.081 E0.01773
G1 X126.896 Y130.271 E0.01012
G1 X126.587 Y130.498 E0.01380
G1 X126.193 Y130.703 E0.01598
G1 X125.982 Y130.298 F7200.000
G1 F840
G1 X125.650 Y130.414 E0.01266
G1 X125.429 Y130.463 E0.00815
G1 X125.005 Y130.500 E0.01530
G1 X124.779 Y130.491 E0.00814
G1 X124.459 Y130.442 E0.01165
G1 X124.048 Y130.312 E0.01552
G1 X123.843 Y130.217 E0.00815
G1 X123.563 Y130.047 E0.01177
G1 X123.232 Y129.768 E0.01559
G1 X122.953 Y129.437 E0.01559
G1 X122.785 Y129.160 E0.01165
G1 X122.688 Y128.952 E0.00827
G1 X122.560 Y128.547 E0.01530
G1 X122.521 Y128.324 E0.00815
G1 X122.499 Y128.000 E0.01168
G1 X122.521 Y127.676 E0.01168
G1 X122.560 Y127.453 E0.00815
G1 X122.688 Y127.048 E0.01530
G1 X122.783 Y126.843 E0.00814
G1 X122.951 Y126.566 E0.01165
G1 X123.228 Y126.236 E0.01552
G1 X123.395 Y126.083 E0.00815
G1 X123.656 Y125.891 E0.01165
G1 X124.043 Y125.689 E0.01571
G1 X124.453 Y125.560 E0.01550
G1 X124.676 Y125.521 E0.00814
G1 X124.999 Y125.499 E0.01165
G1 X125.429 Y125.537 E0.01552
G1 X125.650 Y125.586 E0.00815
G1 X125.954 Y125.689 E0.01158
G1 X126.157 Y125.783 E0.00805
G1 X126.437 Y125.953 E0.01177
G1 X126.768 Y126.232 E0.01559
G1 X127.047 Y126.563 E0.01559
G1 X127.215 Y126.840 E0.01165
G1 X127.312 Y127.048 E0.00827
G1 X127.440 Y127.453 E0.01530
G1 X127.479 Y127.676 E0.00815
G1 X127.501 Y128.000 E0.01168
G1 X127.479 Y128.324 E0.01168
G1 X127.440 Y128.547 E0.00815
G1 X127.312 Y128.952 E0.01530
G1 X127.217 Y129.157 E0.00815
G1 X127.047 Y129.437 E0.01177
G1 X126.772 Y129.764 E0.01540
G1 X126.605 Y129.917 E0.00814
G1 X126.344 Y130.109 E0.01165
G1 X126.035 Y130.270 E0.01256
G1 X125.941 Y130.647 F7200.000
G1 F5760
G1 X125.650 Y130.414 E-0.14243
G1 F5760
G1 X125.429 Y130.463 E-0.07839
G1 F5760
G1 X125.005 Y130.500 E-0.14719
G1 F5760
G1 X124.779 Y130.491 E-0.07836
G1 F5760
G1 X124.459 Y130.442 E-0.11212
G1 F5760
G1 X124.048 Y130.312 E-0.14929
G1 F5760
G1 X123.912 Y130.249 E-0.05221
G1 E-0.04000 F2100.00000
G1 X125.000 Y65.960 F7200.000
G1 E0.80000 F2100.00000
G1 F840
G1 X124.494 Y65.915 E0.01829
G1 X124.118 Y65.824 E0.01393
G1 X123.854 Y65.727 E0.01012
G1 X123.417 Y65.500 E0.01773
G1 X123.104 Y65.271 E0.01393
G1 X122.909 Y65.091 E0.00957
G1 X122.729 Y64.896 E0.00957
G1 X122.500 Y64.583 E0.01393
G1 X122.273 Y64.146 E0.01773
G1 X122.176 Y63.882 E0.01012
G1 X122.085 Y63.506 E0.01393
G1 X122.041 Y63.008 E0.01801
G1 X122.066 Y62.622 E0.01393
G1 X122.115 Y62.345 E0.01012
G1 X122.263 Y61.875 E0.01773
G1 X122.434 Y61.528 E0.01393
G1 X122.585 Y61.290 E0.01012
G1 X122.907 Y60.907 E0.01801
G1 X123.296 Y60.580 E0.01829
G1 X123.627 Y60.380 E0.01393
G1 X123.882 Y60.261 E0.01012
G1 X124.345 Y60.115 E0.01745
G1 X124.621 Y60.066 E0.01012
G1 X125.004 Y60.041 E0.01380
G1 X125.498 Y60.084 E0.01786
G1 X125.773 Y60.145 E0.01013
G1 X126.125 Y60.264 E0.01337
G1 X126.373 Y60.380 E0.00985
G1 X126.704 Y60.580 E0.01393
G1 X127.093 Y60.907 E0.01829
G1 X127.420 Y61.296 E0.01829
G1 X127.620 Y61.627 E0.01393
G1 X127.739 Y61.882 E0.01012
G1 X127.885 Y62.345 E0.01745
G1 X127.934 Y62.622 E0.01012
G1 X127.959 Y63.008 E0.01393
G1 X127.916 Y63.506 E0.01801
G1 X127.825 Y63.878 E0.01380
G1 X127.727 Y64.146 E0.01025
G1 X127.500 Y64.583 E0.01775
G1 X127.271 Y64.896 E0.01393
G1 X127.091 Y65.091 E0.00957
G1 X126.896 Y65.271 E0.00957
G1 X126.583 Y65.500 E0.01393
G1 X126.140 Y65.731 E0.01801
G1 X125.773 Y65.855 E0.01393
G1 X125.499 Y65.916 E0.01012
G1 X125.060 Y65.955 E0.01585
G1 X125.020 Y65.499 F7200.000
G1 F840
G1 X124.568 Y65.463 E0.01630
G1 X124.251 Y65.385 E0.01177
G1 X124.038 Y65.308 E0.00815
G1 X123.659 Y65.111 E0.01540
G1 X123.395 Y64.917 E0.01177
G1 X123.232 Y64.768 E0.00795
G1 X123.083 Y64.605 E0.00795
G1 X122.889 Y64.341 E0.01177
G1 X122.692 Y63.962 E0.01540
G1 X122.615 Y63.749 E0.00815
G1 X122.537 Y63.432 E0.01177
G1 X122.499 Y63.003 E0.01550
G1 X122.521 Y62.676 E0.01177
G1 X122.560 Y62.453 E0.00815
G1 X122.689 Y62.046 E0.01540
G1 X122.833 Y61.752 E0.01177
G1 X122.955 Y61.561 E0.00815
G1 X123.232 Y61.232 E0.01550
G1 X123.563 Y60.953 E0.01559
G1 X123.843 Y60.783 E0.01177
G1 X124.048 Y60.688 E0.00815
G1 X124.453 Y60.560 E0.01530
G1 X124.676 Y60.521 E0.00814
G1 X124.999 Y60.499 E0.01165
G1 X125.429 Y60.537 E0.01552
G1 X125.650 Y60.586 E0.00815
G1 X125.954 Y60.689 E0.01158
G1 X126.157 Y60.783 E0.00805
G1 X126.437 Y60.953 E0.01177
G1 X126.768 Y61.232 E0.01559
G1 X127.047 Y61.563 E0.01559
G1 X127.217 Y61.843 E0.01177
G1 X127.312 Y62.048 E0.00815
G1 X127.440 Y62.453 E0.01530
G1 X127.479 Y62.676 E0.00815
G1 X127.501 Y63.003 E0.01177
G1 X127.463 Y63.431 E0.01549
G1 X127.386 Y63.746 E0.01165
G1 X127.308 Y63.962 E0.00827
G1 X127.111 Y64.341 E0.01540
G1 X126.917 Y64.605 E0.01177
G1 X126.768 Y64.768 E0.00795
G1 X126.605 Y64.917 E0.00795
G1 X126.341 Y65.111 E0.01177
G1 X125.960 Y65.309 E0.01550
G1 X125.650 Y65.414 E0.01177
G1 X125.429 Y65.463 E0.00815
G1 X125.080 Y65.494 E0.01262
G1 X124.817 Y65.844 F7200.000
G1 F5760
G1 X124.568 Y65.463 E-0.17740
G1 F5760
G1 X124.251 Y65.385 E-0.11329
G1 F5760
G1 X124.038 Y65.308 E-0.07839
G1 F5760
G1 X123.659 Y65.111 E-0.14814
G1 F5760
G1 X123.395 Y64.917 E-0.11329
G1 F5760
G1 X123.232 Y64.768 E-0.07649
G1 F5760
G1 X123.129 Y64.655 E-0.05301
G1 E-0.04000 F2100.00000
G1 X135.293 Y157.293 F7200.000
G1 E0.80000 F2100.00000
G1 F1680
G1 X114.707 Y157.293 E0.74103
G1 X114.707 Y63.015 E3.39373
G1 X114.747 Y62.103 E0.03288
G1 X114.864 Y61.213 E0.03232
G1 X115.058 Y60.336 E0.03232
G1 X115.331 Y59.472 E0.03260
G1 X115.488 Y59.068 E0.01561
G1 X115.871 Y58.248 E0.03260
G1 X116.320 Y57.470 E0.03232
G1 X116.835 Y56.734 E0.03232
G1 X117.412 Y56.047 E0.03232
G1 X118.047 Y55.412 E0.03232
G1 X118.740 Y54.830 E0.03260
G1 X119.090 Y54.573 E0.01561
G1 X119.844 Y54.093 E0.03218
G1 X120.651 Y53.672 E0.03275
G1 X121.480 Y53.328 E0.03231
G1 X122.336 Y53.058 E0.03232
G1 X123.213 Y52.864 E0.03232
G1 X124.111 Y52.746 E0.03260
G1 X124.543 Y52.718 E0.01561
G1 X125.437 Y52.717 E0.03218
G1 X126.344 Y52.796 E0.03275
G1 X127.228 Y52.952 E0.03231
G1 X128.095 Y53.184 E0.03232
G1 X128.939 Y53.491 E0.03232
G1 X129.752 Y53.871 E0.03232
G1 X130.530 Y54.320 E0.03232
G1 X131.266 Y54.835 E0.03232
G1 X131.953 Y55.412 E0.03232
G1 X132.588 Y56.047 E0.03232
G1 X133.165 Y56.734 E0.03232
G1 X133.685 Y57.476 E0.03260
G1 X133.910 Y57.847 E0.01561
G1 X134.323 Y58.640 E0.03218
G1 X134.672 Y59.480 E0.03275
G1 X134.942 Y60.336 E0.03231
G1 X135.136 Y61.213 E0.03232
G1 X135.253 Y62.103 E0.03232
G1 X135.293 Y63.015 E0.03288
G1 X135.293 Y157.233 E3.39157
G1 X135.750 Y157.750 F7200.000
G1 F1260
G1 X114.250 Y157.750 E0.77394
G1 X114.250 Y63.005 E3.41054
G1 X114.291 Y62.063 E0.03395
G1 X114.414 Y61.133 E0.03376
G1 X114.617 Y60.218 E0.03376
G1 X114.899 Y59.321 E0.03386
G1 X115.067 Y58.889 E0.01669
G1 X115.465 Y58.036 E0.03386
G1 X115.934 Y57.224 E0.03376
G1 X116.472 Y56.456 E0.03376
G1 X117.074 Y55.738 E0.03376
G1 X117.738 Y55.074 E0.03376
G1 X118.458 Y54.470 E0.03386
G1 X118.832 Y54.196 E0.01669
G1 X119.615 Y53.697 E0.03343
G1 X120.457 Y53.257 E0.03419
G1 X121.323 Y52.899 E0.03375
G1 X122.218 Y52.617 E0.03376
G1 X123.133 Y52.414 E0.03376
G1 X124.066 Y52.291 E0.03386
G1 X124.528 Y52.260 E0.01669
G1 X125.457 Y52.260 E0.03343
G1 X126.403 Y52.342 E0.03419
G1 X127.327 Y52.505 E0.03375
G1 X128.233 Y52.748 E0.03376
G1 X129.114 Y53.069 E0.03376
G1 X129.964 Y53.465 E0.03376
G1 X130.776 Y53.934 E0.03376
G1 X131.544 Y54.472 E0.03376
G1 X132.262 Y55.074 E0.03376
G1 X132.926 Y55.738 E0.03376
G1 X133.528 Y56.456 E0.03376
G1 X134.068 Y57.226 E0.03386
G1 X134.308 Y57.623 E0.01669
G1 X134.737 Y58.446 E0.03343
G1 X135.102 Y59.323 E0.03419
G1 X135.383 Y60.218 E0.03375
G1 X135.586 Y61.133 E0.03376
G1 X135.709 Y62.063 E0.03376
G1 X135.750 Y63.005 E0.03395
G1 X135.750 Y157.690 E3.40838
G1 X135.404 Y157.550 F7200.000
G1 F5760
G1 X133.556 Y157.696 E-0.76000
G1 E-0.04000 F2100.00000
G1 X115.772 Y157.156 F7200.000
G1 E0.80000 F2100.00000
G1 F1680
G1 X115.050 Y156.434 E0.03690
G1 X115.050 Y155.785 E0.02345
G1 X116.215 Y156.950 E0.05955
G1 X116.864 Y156.950 E0.02345
G1 X115.050 Y155.136 E0.09270
G1 X115.050 Y154.487 E0.02345
G1 X117.513 Y156.950 E0.12586
G1 X118.162 Y156.950 E0.02345
G1 X115.050 Y153.838 E0.15902
G1 X115.050 Y153.190 E0.02345
G1 X118.810 Y156.950 E0.19218
G1 X119.459 Y156.950 E0.02345
G1 X115.050 Y152.541 E0.22534
G1 X115.050 Y151.892 E0.02345
G1 X120.108 Y156.950 E0.25850
G1 X120.757 Y156.950 E0.02345
G1 X115.050 Y151.243 E0.29166
G1 X115.050 Y150.594 E0.02345
G1 X121.406 Y156.950 E0.32482
G1 X122.055 Y156.950 E0.02345
G1 X115.050 Y149.945 E0.35798
G1 X115.050 Y149.297 E0.02345
G1 X122.703 Y156.950 E0.39114
G1 X123.352 Y156.950 E0.02345
G1 X115.050 Y148.648 E0.42430
G1 X115.050 Y147.999 E0.02345
G1 X124.001 Y156.950 E0.45746
G1 X124.650 Y156.950 E0.02345
G1 X115.050 Y147.350 E0.49062
G1 X115.050 Y146.701 E0.02345
G1 X125.299 Y156.950 E0.52377
G1 X125.948 Y156.950 E0.02345
G1 X115.050 Y146.052 E0.55693
G1 X115.050 Y145.404 E0.02345
G1 X126.596 Y156.950 E0.59009
G1 X127.245 Y156.950 E0.02345
G1 X115.050 Y144.755 E0.62325
G1 X115.050 Y144.106 E0.02345
G1 X127.894 Y156.950 E0.65641
G1 X128.543 Y156.950 E0.02345
G1 X115.050 Y143.457 E0.68957
G1 X115.050 Y142.808 E0.02345
G1 X129.192 Y156.950 E0.72273
G1 X129.841 Y156.950 E0.02345
G1 X115.050 Y142.159 E0.75589
G1 X115.050 Y141.511 E0.02345
G1 X130.489 Y156.950 E0.78905
G1 X131.138 Y156.950 E0.02345
G1 X115.050 Y140.862 E0.82221
G1 X115.050 Y140.213 E0.02345
G1 X131.787 Y156.950 E0.85537
G1 X132.436 Y156.950 E0.02345
G1 X115.050 Y139.564 E0.88853
G1 X115.050 Y138.915 E0.02345
G1 X133.085 Y156.950 E0.92169
G1 X133.734 Y156.950 E0.02345
G1 X115.050 Y138.266 E0.95485
G1 X115.050 Y137.618 E0.02345
G1 X134.382 Y156.950 E0.98800
G1 X134.950 Y156.950 E0.02051
G1 X134.950 Y156.869 E0.00293
G1 X115.050 Y136.969 E1.01702
G1 X115.050 Y136.320 E0.02345
G1 X134.950 Y156.220 E1.01702
G1 X134.950 Y155.571 E0.02345
G1 X115.050 Y135.671 E1.01702
G1 X115.050 Y135.022 E0.02345
G1 X134.950 Y154.922 E1.01702
G1 X134.950 Y154.274 E0.02345
G1 X115.050 Y134.373 E1.01702
G1 X115.050 Y133.725 E0.02345
G1 X134.950 Y153.625 E1.01702
G1 X134.950 Y152.976 E0.02345
G1 X115.050 Y133.076 E1.01702
G1 X115.050 Y132.427 E0.02345
G1 X134.950 Y152.327 E1.01702
G1 X134.950 Y151.678 E0.02345
G1 X115.050 Y131.778 E1.01702
G1 X115.050 Y131.129 E0.02345
G1 X134.950 Y151.029 E1.01702
G1 X134.950 Y150.381 E0.02345
G1 X115.050 Y130.480 E1.01702
G1 X115.050 Y129.832 E0.02345
G1 X134.950 Y149.732 E1.01702
G1 X134.950 Y149.083 E0.02345
G1 X115.050 Y129.183 E1.01702
G1 X115.050 Y128.534 E0.02345
G1 X134.950 Y148.434 E1.01702
G1 X134.950 Y147.785 E0.02345
G1 X115.050 Y127.885 E1.01702
G1 X115.050 Y127.236 E0.02345
G1 X134.950 Y147.136 E1.01702
G1 X134.950 Y146.488 E0.02345
G1 X115.050 Y126.587 E1.01702
G1 X115.050 Y125.938 E0.02345
G1 X134.950 Y145.839 E1.01702
G1 X134.950 Y145.190 E0.02345
G1 X115.050 Y125.290 E1.01702
G1 X115.050 Y124.641 E0.02345
G1 X134.950 Y144.541 E1.01702
G1 X134.950 Y143.892 E0.02345
G1 X115.050 Y123.992 E1.01702
G1 X115.050 Y123.343 E0.02345
G1 X134.950 Y143.243 E1.01702
G1 X134.950 Y142.595 E0.02345
G1 X115.050 Y122.694 E1.01702
G1 X115.050 Y122.045 E0.02345
G1 X121.800 Y128.795 E0.34496
G1 X121.725 Y128.420 E0.01384
G1 X121.701 Y128.048 E0.01346
G1 X115.050 Y121.397 E0.33991
G1 X115.050 Y120.748 E0.02345
G1 X121.749 Y127.447 E0.34236
G1 X121.781 Y127.263 E0.00675
G1 X121.885 Y126.934 E0.01246
G1 X115.050 Y120.099 E0.34932
G1 X115.050 Y119.450 E0.02345
G1 X122.073 Y126.473 E0.35893
G1 X122.321 Y126.073 E0.01703
G1 X115.050 Y118.801 E0.37161
G1 X115.050 Y118.152 E0.02345
G1 X122.617 Y125.720 E0.38672
G1 X122.958 Y125.412 E0.01660
G1 X115.050 Y117.504 E0.40414
G1 X115.050 Y116.855 E0.02345
G1 X123.346 Y125.151 E0.42398
G1 X123.778 Y124.934 E0.01747
G1 X115.050 Y116.206 E0.44606
G1 X115.050 Y115.557 E0.02345
G1 X124.272 Y124.780 E0.47133
G1 X124.580 Y124.725 E0.01129
G1 X124.849 Y124.708 E0.00974
G1 X115.050 Y114.908 E0.50080
G1 X115.050 Y114.259 E0.02345
G1 X125.801 Y125.010 E0.54944
G1 F5760
G1 X124.249 Y123.459 E-0.76000
G1 E-0.04000 F2100.00000
G1 X123.890 Y130.885 F7200.000
G1 E0.80000 F2100.00000
G1 F1680
G1 X134.950 Y141.946 E0.56525
G1 X134.950 Y141.297 E0.02345
G1 X124.952 Y131.299 E0.51096
G1 X125.556 Y131.254 E0.02190
G1 X134.950 Y140.648 E0.48007
G1 X134.950 Y139.999 E0.02345
G1 X126.068 Y131.117 E0.45392
