; generated by Slic3r 1.36.2-prusa3d-stable-win64 on 2017-09-03 at 17:16:45

; 

; external perimeters extrusion width = 0.45mm
; perimeters extrusion width = 0.45mm
; infill extrusion width = 0.45mm
; solid infill extrusion width = 0.45mm
; top infill extrusion width = 0.45mm
; first layer extrusion width = 0.45mm

M115 U3.0.12 ; tell printer latest fw version
M83  ; extruder relative mode
M104 S255 ; set extruder temp
M140 S100 ; set bed temp
M190 S100 ; wait for bed temp
M109 S255 ; wait for extruder temp
G28 W ; home all without mesh bed level
G80 ; mesh bed leveling
G1 Y-3.0 F1000.0 ; go outside pritn area
G1 X60.0 E9.0  F1000.0 ; intro line
G1 X100.0 E12.5  F1000.0 ; intro line
; Filament gcode

G21 ; set units to millimeters
G90 ; use absolute coordinates
M83 ; use relative distances for extrusion
; Layer 0
G1 E-0.80000 F2100.00000
G1 Z0.200 F7200.000
G1 X110.702 Y93.933 F7200.000
G1 E0.80000 F2100.00000
M204 S1000
G1 F2100
G1 X111.548 Y93.786 E0.02797
G1 X138.404 Y93.786 E0.87483
G1 X139.432 Y93.982 E0.03409
G1 X140.314 Y94.537 E0.03396
G1 X140.934 Y95.376 E0.03396
G1 X141.206 Y96.386 E0.03409
G1 X141.209 Y113.566 E0.55961
G1 X141.106 Y114.173 E0.02007
G1 X140.871 Y114.747 E0.02021
G1 X140.515 Y115.256 E0.02021
G1 X140.061 Y115.672 E0.02007
G1 X139.298 Y116.067 E0.02797
G1 X138.452 Y116.214 E0.02797
G1 X111.542 Y116.214 E0.87658
G1 X110.903 Y116.126 E0.02101
G1 X110.300 Y115.896 E0.02101
G1 X109.766 Y115.534 E0.02101
G1 X109.328 Y115.061 E0.02101
G1 X108.938 Y114.314 E0.02744
G1 X108.787 Y113.481 E0.02757
G1 X108.787 Y96.517 E0.55260
G1 X108.879 Y95.883 E0.02088
G1 X109.110 Y95.289 E0.02075
G1 X109.471 Y94.760 E0.02088
G1 X109.939 Y94.328 E0.02075
G1 X110.648 Y93.961 E0.02602
G1 X110.832 Y94.321 F7200.000
G1 F2100
G1 X111.560 Y94.193 E0.02408
G1 X138.404 Y94.193 E0.87442
G1 X139.287 Y94.362 E0.02929
G1 X140.046 Y94.844 E0.02929
G1 X140.576 Y95.571 E0.02929
G1 X140.802 Y96.441 E0.02929
G1 X140.804 Y113.526 E0.55654
G1 X140.716 Y114.055 E0.01744
G1 X140.512 Y114.554 E0.01757
G1 X140.202 Y114.995 E0.01757
G1 X139.802 Y115.357 E0.01757
G1 X139.155 Y115.685 E0.02363
G1 X138.440 Y115.807 E0.02363
G1 X111.558 Y115.807 E0.87567
G1 X111.004 Y115.732 E0.01819
G1 X110.483 Y115.532 E0.01819
G1 X110.022 Y115.218 E0.01819
G1 X109.643 Y114.802 E0.01831
G1 X109.318 Y114.166 E0.02326
G1 X109.194 Y113.459 E0.02339
G1 X109.194 Y96.535 E0.55130
G1 X109.273 Y95.986 E0.01806
G1 X109.475 Y95.470 E0.01806
G1 X109.787 Y95.016 E0.01794
G1 X110.198 Y94.643 E0.01806
G1 X110.778 Y94.348 E0.02121
G1 F5760
G1 X111.560 Y94.193 E-0.27602
G1 F5760
G1 X112.957 Y94.193 E-0.48398
G1 E-0.04000 F2100.00000
G1 X119.336 Y99.561 F7200.000
G1 E0.80000 F2100.00000
G1 F1680
G1 X134.664 Y99.561 E0.49931
G1 X134.664 Y106.241 E0.21760
G1 X136.439 Y106.241 E0.05782
G1 X136.439 Y108.819 E0.08399
G1 X117.561 Y108.819 E0.61495
G1 X117.561 Y106.241 E0.08399
G1 X119.336 Y106.241 E0.05782
G1 X119.336 Y99.621 E0.21564
G1 X119.743 Y99.968 F7200.000
G1 F1680
G1 X134.257 Y99.968 E0.47279
G1 X134.257 Y106.648 E0.21760
G1 X136.032 Y106.648 E0.05782
G1 X136.032 Y108.412 E0.05747
G1 X117.968 Y108.412 E0.58843
G1 X117.968 Y106.648 E0.05747
G1 X119.743 Y106.648 E0.05782
G1 X119.743 Y100.028 E0.21564
G1 X120.150 Y100.375 F7200.000
G1 F1050
G1 X133.850 Y100.375 E0.44627
G1 X133.850 Y107.055 E0.21760
G1 X135.625 Y107.055 E0.05782
G1 X135.625 Y108.005 E0.03095
G1 X118.375 Y108.005 E0.56191
G1 X118.375 Y107.055 E0.03095
G1 X120.150 Y107.055 E0.05782
G1 X120.150 Y100.435 E0.21564
G1 X120.185 Y99.976 F7200.000
G1 F5760
G1 X122.344 Y100.425 E-0.76000
G1 E-0.04000 F2100.00000
G1 X112.639 Y97.639 F7200.000
G1 E0.80000 F2100.00000
G1 F1680
G1 X137.361 Y97.639 E0.80529
G1 X137.361 Y112.361 E0.47955
G1 X112.639 Y112.361 E0.80529
G1 X112.639 Y97.699 E0.47760
G1 X112.232 Y97.232 F7200.000
G1 F1680
G1 X137.768 Y97.232 E0.83181
G1 X137.768 Y112.768 E0.50607
G1 X112.232 Y112.768 E0.83181
G1 X112.232 Y97.292 E0.50412
G1 X111.825 Y96.825 F7200.000
G1 F1050
G1 X138.175 Y96.825 E0.85833
G1 X138.175 Y113.175 E0.53259
G1 X111.825 Y113.175 E0.85833
G1 X111.825 Y96.885 E0.53064
G1 X112.218 Y96.899 F7200.000
G1 F5760
G1 X114.019 Y96.880 E-0.76000
G1 E-0.04000 F2100.00000
G1 X117.439 Y108.509 F7200.000
G1 E0.80000 F2100.00000
G1 F1680
G1 X112.944 Y104.015 E0.20963
G1 X112.944 Y103.432 E0.01922
G1 X117.256 Y107.743 E0.20109
G1 X117.256 Y107.160 E0.01922
G1 X112.944 Y102.849 E0.20109
G1 X112.944 Y102.267 E0.01922
G1 X117.256 Y106.578 E0.20109
G1 X117.256 Y105.995 E0.01922
G1 X112.944 Y101.684 E0.20109
G1 X112.944 Y101.101 E0.01922
G1 X117.779 Y105.936 E0.22549
G1 X118.361 Y105.936 E0.01922
G1 X112.944 Y100.519 E0.25266
G1 X112.944 Y99.936 E0.01922
G1 X118.944 Y105.936 E0.27984
G1 X119.031 Y105.936 E0.00286
G1 X119.031 Y105.440 E0.01636
G1 X112.944 Y99.353 E0.28388
G1 X112.944 Y98.771 E0.01922
G1 X119.031 Y104.857 E0.28388
G1 X119.031 Y104.274 E0.01922
G1 X112.944 Y98.188 E0.28388
G1 X112.944 Y97.944 E0.00804
G1 X113.283 Y97.944 E0.01118
G1 X119.031 Y103.692 E0.26807
G1 X119.031 Y103.109 E0.01922
G1 X113.866 Y97.944 E0.24090
G1 X114.449 Y97.944 E0.01922
G1 X119.031 Y102.526 E0.21372
G1 X119.031 Y101.944 E0.01922
G1 X115.031 Y97.944 E0.18654
G1 X115.614 Y97.944 E0.01922
G1 X119.031 Y101.361 E0.15937
G1 X119.031 Y100.779 E0.01922
G1 X116.196 Y97.944 E0.13219
G1 X116.779 Y97.944 E0.01922
G1 X119.031 Y100.196 E0.10501
G1 X119.031 Y99.613 E0.01922
G1 X117.362 Y97.944 E0.07784
G1 X117.944 Y97.944 E0.01922
G1 X119.256 Y99.256 E0.06116
G1 X119.838 Y99.256 E0.01922
G1 X118.527 Y97.944 E0.06116
G1 X119.110 Y97.944 E0.01922
G1 X120.421 Y99.256 E0.06116
G1 X121.003 Y99.256 E0.01922
G1 X119.692 Y97.944 E0.06116
G1 X120.275 Y97.944 E0.01922
G1 X121.586 Y99.256 E0.06116
G1 X122.169 Y99.256 E0.01922
G1 X120.858 Y97.944 E0.06115
G1 X121.440 Y97.944 E0.01922
G1 X122.751 Y99.256 E0.06115
G1 X123.334 Y99.256 E0.01922
G1 X122.023 Y97.944 E0.06115
G1 X122.605 Y97.944 E0.01922
G1 X123.917 Y99.256 E0.06115
G1 X124.499 Y99.256 E0.01922
G1 X123.188 Y97.944 E0.06115
G1 X123.771 Y97.944 E0.01922
G1 X125.082 Y99.256 E0.06115
G1 X125.664 Y99.256 E0.01922
G1 X124.353 Y97.944 E0.06115
G1 X124.936 Y97.944 E0.01922
G1 X126.247 Y99.256 E0.06116
G1 X126.830 Y99.256 E0.01922
G1 X125.519 Y97.944 E0.06116
G1 X126.101 Y97.944 E0.01922
G1 X127.412 Y99.256 E0.06116
G1 X127.995 Y99.256 E0.01922
G1 X126.684 Y97.944 E0.06116
G1 X127.267 Y97.944 E0.01922
G1 X128.578 Y99.256 E0.06116
G1 X129.160 Y99.256 E0.01922
G1 X127.849 Y97.944 E0.06116
G1 X128.432 Y97.944 E0.01922
G1 X129.743 Y99.256 E0.06116
G1 X130.326 Y99.256 E0.01922
G1 X129.014 Y97.944 E0.06116
G1 X129.597 Y97.944 E0.01922
G1 X130.908 Y99.256 E0.06116
G1 X131.491 Y99.256 E0.01922
G1 X130.180 Y97.944 E0.06116
G1 X130.762 Y97.944 E0.01922
G1 X132.073 Y99.256 E0.06116
G1 X132.656 Y99.256 E0.01922
G1 X131.345 Y97.944 E0.06116
G1 X131.928 Y97.944 E0.01922
G1 X133.239 Y99.256 E0.06115
G1 X133.821 Y99.256 E0.01922
G1 X132.510 Y97.944 E0.06115
G1 X133.093 Y97.944 E0.01922
G1 X134.587 Y99.439 E0.06970
G1 F5760
G1 X133.093 Y97.944 E-0.73193
G1 F5760
G1 X133.012 Y97.944 E-0.02807
G1 E-0.04000 F2100.00000
G1 X137.239 Y98.595 F7200.000
G1 E0.80000 F2100.00000
G1 F1680
G1 X136.589 Y97.944 E0.03032
G1 X136.006 Y97.944 E0.01922
G1 X137.056 Y98.994 E0.04896
G1 X137.056 Y99.577 E0.01922
G1 X135.423 Y97.944 E0.07613
G1 X134.841 Y97.944 E0.01922
G1 X137.056 Y100.159 E0.10331
G1 X137.056 Y100.742 E0.01922
G1 X134.258 Y97.944 E0.13048
G1 X133.675 Y97.944 E0.01922
G1 X137.056 Y101.325 E0.15766
G1 X137.056 Y101.907 E0.01922
G1 X134.969 Y99.821 E0.09730
G1 X134.969 Y100.404 E0.01922
G1 X137.056 Y102.490 E0.09730
G1 X137.056 Y103.072 E0.01922
G1 X134.969 Y100.986 E0.09730
G1 X134.969 Y101.569 E0.01922
G1 X137.056 Y103.655 E0.09730
G1 X137.056 Y104.238 E0.01922
G1 X134.969 Y102.152 E0.09730
G1 X134.969 Y102.734 E0.01922
G1 X137.056 Y104.820 E0.09730
G1 X137.056 Y105.403 E0.01922
G1 X134.969 Y103.317 E0.09730
G1 X134.969 Y103.899 E0.01922
G1 X137.056 Y105.986 E0.09730
G1 X137.056 Y106.568 E0.01922
G1 X134.969 Y104.482 E0.09730
G1 X134.969 Y105.065 E0.01922
G1 X135.840 Y105.936 E0.04062
G1 X135.258 Y105.936 E0.01922
G1 X134.786 Y105.464 E0.02199
G1 F5760
G1 X135.258 Y105.936 E-0.23088
G1 F5760
G1 X135.840 Y105.936 E-0.20180
G1 F5760
G1 X135.172 Y105.267 E-0.32733
G1 E-0.04000 F2100.00000
G1 X137.239 Y107.334 F7200.000
G1 E0.80000 F2100.00000
G1 F1680
G1 X136.744 Y106.840 E0.02306
G1 X136.744 Y107.422 E0.01922
G1 X137.056 Y107.733 E0.01451
G1 X137.056 Y108.316 E0.01922
G1 X136.744 Y108.005 E0.01451
G1 X136.744 Y108.588 E0.01922
G1 X137.056 Y108.899 E0.01451
G1 X137.056 Y109.481 E0.01922
G1 X136.699 Y109.124 E0.01665
G1 X136.116 Y109.124 E0.01922
G1 X137.056 Y110.064 E0.04383
G1 X137.056 Y110.647 E0.01922
G1 X135.533 Y109.124 E0.07100
G1 X134.951 Y109.124 E0.01922
G1 X137.056 Y111.229 E0.09818
G1 X137.056 Y111.812 E0.01922
G1 X134.368 Y109.124 E0.12535
G1 X133.785 Y109.124 E0.01922
G1 X136.717 Y112.056 E0.13672
G1 X136.134 Y112.056 E0.01922
G1 X133.203 Y109.124 E0.13672
G1 X132.620 Y109.124 E0.01922
G1 X135.551 Y112.056 E0.13672
G1 X134.969 Y112.056 E0.01922
G1 X132.038 Y109.124 E0.13672
G1 X131.455 Y109.124 E0.01922
G1 X134.386 Y112.056 E0.13672
G1 X133.803 Y112.056 E0.01922
G1 X130.872 Y109.124 E0.13672
G1 X130.290 Y109.124 E0.01922
G1 X133.221 Y112.056 E0.13672
G1 X132.638 Y112.056 E0.01922
G1 X129.707 Y109.124 E0.13672
G1 X129.124 Y109.124 E0.01922
G1 X132.056 Y112.056 E0.13672
G1 X131.473 Y112.056 E0.01922
G1 X128.542 Y109.124 E0.13672
G1 X127.959 Y109.124 E0.01922
G1 X130.890 Y112.056 E0.13672
G1 X130.308 Y112.056 E0.01922
G1 X127.376 Y109.124 E0.13672
G1 X126.794 Y109.124 E0.01922
G1 X129.725 Y112.056 E0.13672
G1 X129.142 Y112.056 E0.01922
G1 X126.211 Y109.124 E0.13672
G1 X125.629 Y109.124 E0.01922
G1 X128.560 Y112.056 E0.13672
G1 X127.977 Y112.056 E0.01922
G1 X125.046 Y109.124 E0.13672
G1 X124.463 Y109.124 E0.01922
G1 X127.394 Y112.056 E0.13672
G1 X126.812 Y112.056 E0.01922
G1 X123.881 Y109.124 E0.13672
G1 X123.298 Y109.124 E0.01922
G1 X126.229 Y112.056 E0.13672
G1 X125.647 Y112.056 E0.01922
G1 X122.715 Y109.124 E0.13672
G1 X122.133 Y109.124 E0.01922
G1 X125.064 Y112.056 E0.13672
G1 X124.481 Y112.056 E0.01922
G1 X121.550 Y109.124 E0.13672
G1 X120.968 Y109.124 E0.01922
G1 X123.899 Y112.056 E0.13672
G1 X123.316 Y112.056 E0.01922
G1 X120.385 Y109.124 E0.13672
G1 X119.802 Y109.124 E0.01922
G1 X122.733 Y112.056 E0.13672
G1 X122.151 Y112.056 E0.01922
G1 X119.220 Y109.124 E0.13672
G1 X118.637 Y109.124 E0.01922
G1 X121.568 Y112.056 E0.13672
G1 X120.985 Y112.056 E0.01922
G1 X117.871 Y108.941 E0.14526
G1 F5760
G1 X119.423 Y110.493 E-0.76000
G1 E-0.04000 F2100.00000
G1 X120.586 Y112.239 F7200.000
G1 E0.80000 F2100.00000
G1 F1680
G1 X112.944 Y104.597 E0.35643
G1 X112.944 Y105.180 E0.01922
G1 X119.820 Y112.056 E0.32071
G1 X119.238 Y112.056 E0.01922
G1 X112.944 Y105.762 E0.29354
G1 X112.944 Y106.345 E0.01922
G1 X118.655 Y112.056 E0.26636
G1 X118.072 Y112.056 E0.01922
G1 X112.944 Y106.928 E0.23918
G1 X112.944 Y107.510 E0.01922
G1 X117.490 Y112.056 E0.21201
G1 X116.907 Y112.056 E0.01922
G1 X112.944 Y108.093 E0.18483
G1 X112.944 Y108.676 E0.01922
G1 X116.324 Y112.056 E0.15766
G1 X115.742 Y112.056 E0.01922
G1 X112.944 Y109.258 E0.13048
G1 X112.944 Y109.841 E0.01922
G1 X115.159 Y112.056 E0.10330
G1 X114.577 Y112.056 E0.01922
G1 X112.944 Y110.423 E0.07613
G1 X112.944 Y111.006 E0.01922
G1 X113.994 Y112.056 E0.04895
G1 X113.411 Y112.056 E0.01922
G1 X112.761 Y111.406 E0.03032
; Layer 1
G1 F5760
G1 X113.411 Y112.056 E-0.31839
G1 F5760
G1 X113.994 Y112.056 E-0.20180
G1 F5760
G1 X113.504 Y111.566 E-0.23981
G1 E-0.04000 F2100.00000
G1 Z0.300 F7200.000
M140 S140 ; set bed temperature
G1 X108.938 Y114.314 F7200.000
G1 E0.80000 F2100.00000
G1 F3000
G1 X108.787 Y113.481 E0.01481
G1 X108.787 Y96.517 E0.29684
G1 X108.879 Y95.883 E0.01122
G1 X109.110 Y95.289 E0.01114
G1 X109.471 Y94.760 E0.01122
G1 X109.939 Y94.328 E0.01114
G1 X110.702 Y93.933 E0.01503
G1 X111.548 Y93.786 E0.01503
G1 X138.404 Y93.786 E0.46993
G1 X139.432 Y93.982 E0.01831
G1 X140.314 Y94.537 E0.01824
G1 X140.934 Y95.376 E0.01824
G1 X141.206 Y96.386 E0.01831
G1 X141.209 Y113.566 E0.30060
G1 X141.106 Y114.173 E0.01078
G1 X140.871 Y114.747 E0.01086
G1 X140.515 Y115.256 E0.01086
G1 X140.061 Y115.672 E0.01078
G1 X139.298 Y116.067 E0.01503
G1 X138.452 Y116.214 E0.01503
G1 X111.542 Y116.214 E0.47088
G1 X110.903 Y116.126 E0.01129
G1 X110.300 Y115.896 E0.01129
G1 X109.766 Y115.534 E0.01129
G1 X109.328 Y115.061 E0.01129
G1 X108.966 Y114.367 E0.01369
G1 F5760
G1 X108.787 Y113.481 E-0.31306
G1 F5760
G1 X108.787 Y112.191 E-0.44695
G1 E-0.04000 F2100.00000
G1 X117.518 Y108.862 F7200.000
G1 E0.80000 F2100.00000
M204 S800
G1 F2400
G1 X117.518 Y106.198 E0.04662
G1 X119.293 Y106.198 E0.03106
G1 X119.293 Y99.518 E0.11689
G1 X134.707 Y99.518 E0.26972
G1 X134.707 Y106.198 E0.11689
G1 X136.482 Y106.198 E0.03106
G1 X136.482 Y108.862 E0.04662
G1 X117.578 Y108.862 E0.33078
M204 S1000
G1 X117.946 Y108.434 F7200.000
M204 S800
G1 F2400
G1 X117.946 Y106.626 E0.03162
G1 X119.721 Y106.626 E0.03106
G1 X119.721 Y99.946 E0.11689
G1 X134.279 Y99.946 E0.25472
G1 X134.279 Y106.626 E0.11689
G1 X136.054 Y106.626 E0.03106
G1 X136.054 Y108.434 E0.03162
G1 X118.006 Y108.434 E0.31579
M204 S1000
G1 X118.375 Y108.005 F7200.000
M204 S800
G1 F1500
G1 X118.375 Y107.055 E0.01662
G1 X120.150 Y107.055 E0.03106
G1 X120.150 Y100.375 E0.11689
G1 X133.850 Y100.375 E0.23972
G1 X133.850 Y107.055 E0.11689
G1 X135.625 Y107.055 E0.03106
G1 X135.625 Y108.005 E0.01662
G1 X118.435 Y108.005 E0.30079
M204 S1000
G1 X117.975 Y108.012 F7200.000
G1 F5760
G1 X118.375 Y107.055 E-0.32969
G1 F5760
G1 X119.617 Y107.055 E-0.43031
G1 E-0.04000 F2100.00000
G1 X112.682 Y112.318 F7200.000
G1 E0.80000 F2100.00000
M204 S800
G1 F2400
G1 X112.682 Y97.682 E0.25610
G1 X137.318 Y97.682 E0.43108
G1 X137.318 Y112.318 E0.25610
G1 X112.742 Y112.318 E0.43003
M204 S1000
G1 X112.254 Y112.746 F7200.000
M204 S800
G1 F2400
G1 X112.254 Y97.254 E0.27110
G1 X137.746 Y97.254 E0.44608
G1 X137.746 Y112.746 E0.27110
G1 X112.314 Y112.746 E0.44503
M204 S1000
G1 X111.825 Y113.175 F7200.000
M204 S800
G1 F1500
G1 X111.825 Y96.825 E0.28609
G1 X138.175 Y96.825 E0.46107
G1 X138.175 Y113.175 E0.28609
G1 X111.885 Y113.175 E0.46002
M204 S1000
G1 X111.958 Y112.798 F7200.000
G1 F5760
G1 X111.877 Y110.981 E-0.76000
G1 E-0.04000 F2100.00000
G1 X112.811 Y109.603 F7200.000
G1 E0.80000 F2100.00000
M204 S2000
G1 F2400
G1 X118.972 Y103.442 E0.15268
G1 X118.972 Y102.835 E0.01064
G1 X113.003 Y108.803 E0.14790
G1 X113.003 Y108.196 E0.01064
G1 X118.972 Y102.228 E0.14790
G1 X118.972 Y101.621 E0.01064
G1 X113.003 Y107.589 E0.14790
G1 X113.003 Y106.982 E0.01064
G1 X118.972 Y101.014 E0.14790
G1 X118.972 Y100.407 E0.01064
G1 X113.003 Y106.375 E0.14790
G1 X113.003 Y105.768 E0.01064
G1 X118.972 Y99.800 E0.14790
G1 X118.972 Y99.197 E0.01058
G1 X119.575 Y99.197 E0.01058
G1 X120.768 Y98.003 E0.02957
G1 X121.375 Y98.003 E0.01064
G1 X120.182 Y99.197 E0.02957
G1 X120.789 Y99.197 E0.01064
G1 X121.982 Y98.003 E0.02957
G1 X122.589 Y98.003 E0.01064
G1 X121.396 Y99.197 E0.02957
G1 X122.003 Y99.197 E0.01064
G1 X123.196 Y98.003 E0.02957
G1 X123.803 Y98.003 E0.01064
G1 X122.610 Y99.197 E0.02957
G1 X123.217 Y99.197 E0.01064
G1 X124.410 Y98.003 E0.02957
G1 X125.017 Y98.003 E0.01064
G1 X123.824 Y99.197 E0.02957
G1 X124.431 Y99.197 E0.01064
G1 X125.624 Y98.003 E0.02957
G1 X126.231 Y98.003 E0.01064
G1 X125.038 Y99.197 E0.02957
G1 X125.645 Y99.197 E0.01064
G1 X126.838 Y98.003 E0.02957
G1 X127.445 Y98.003 E0.01064
G1 X126.252 Y99.197 E0.02957
G1 X126.858 Y99.197 E0.01064
G1 X128.051 Y98.003 E0.02957
G1 X128.658 Y98.003 E0.01064
G1 X127.465 Y99.197 E0.02957
G1 X128.072 Y99.197 E0.01064
G1 X129.265 Y98.003 E0.02957
G1 X129.872 Y98.003 E0.01064
G1 X128.679 Y99.197 E0.02957
G1 X129.286 Y99.197 E0.01064
G1 X130.479 Y98.003 E0.02957
G1 X131.086 Y98.003 E0.01064
G1 X129.893 Y99.197 E0.02957
G1 X130.500 Y99.197 E0.01064
G1 X131.693 Y98.003 E0.02957
G1 X132.300 Y98.003 E0.01064
G1 X131.107 Y99.197 E0.02957
G1 X131.714 Y99.197 E0.01064
G1 X132.907 Y98.003 E0.02957
G1 X133.514 Y98.003 E0.01064
