; generated by Slic3r 1.37.1-prusa3d-win64 on 2017-12-08 at 12:51:05

; 

; external perimeters extrusion width = 0.55mm
; perimeters extrusion width = 0.55mm
; infill extrusion width = 0.55mm
; solid infill extrusion width = 0.50mm
; top infill extrusion width = 0.48mm
; first layer extrusion width = 0.50mm

M107
M115 U3.0.12 ; tell printer latest fw version
M83  ; extruder relative mode
M104 S150
M140 S55 ; set bed temp
G28 W ; home all without mesh bed level
G1 X125 Z80 F1000
M190 S55 ; wait for bed temp
M104 S210 ; set extruder temp
G80 ; mesh bed leveling
M109 S210 ; wait for extruder temp
G1 Y-3.0 F1000 ; go outside print area
G1 X60.0 E9.0 ; intro line
G1 X100.0 E12.5 ; intro line
; Filament gcode

G21 ; set units to millimeters
G90 ; use absolute coordinates
M83 ; use relative distances for extrusion
; Layer 0
G1 E-0.80000 F2100.00000
G1 Z0.200 F9000.000
G1 X98.635 Y69.275 F9000.000
G1 E0.80000 F2100.00000
M204 S1000
G1 F2100
G1 X99.085 Y68.171 E0.04531
G1 X99.653 Y67.324 E0.03877
G1 X100.369 Y66.597 E0.03877
G1 X112.614 Y56.676 E0.59897
G1 X113.442 Y56.079 E0.03877
G1 X114.394 Y55.559 E0.04126
G1 X115.416 Y55.162 E0.04164
G1 X116.490 Y54.898 E0.04204
G1 X117.582 Y54.777 E0.04176
G1 X142.780 Y54.768 E0.95769
G1 X144.223 Y54.894 E0.05504
G1 X145.650 Y55.272 E0.05613
G1 X146.989 Y55.893 E0.05610
G1 X148.188 Y56.728 E0.05549
G1 X149.229 Y57.762 E0.05579
G1 X150.071 Y58.950 E0.05533
G1 X150.703 Y60.283 E0.05609
G1 X151.085 Y61.662 E0.05438
G1 X151.231 Y63.202 E0.05880
G1 X151.231 Y75.837 E0.48022
G1 X151.145 Y76.892 E0.04022
G1 X150.776 Y78.277 E0.05447
G1 X150.099 Y79.607 E0.05671
G1 X149.169 Y80.746 E0.05590
G1 X147.994 Y81.682 E0.05709
G1 X147.191 Y82.119 E0.03476
G1 X146.303 Y82.458 E0.03612
G1 X139.156 Y84.570 E0.28324
G1 X137.788 Y84.760 E0.05250
G1 X103.524 Y84.748 E1.30222
G1 X102.262 Y84.514 E0.04880
G1 X101.094 Y83.994 E0.04858
G1 X100.075 Y83.213 E0.04880
G1 X99.267 Y82.215 E0.04880
G1 X98.911 Y81.555 E0.02849
G1 X98.650 Y80.853 E0.02849
G1 X98.486 Y80.121 E0.02849
G1 X98.425 Y79.374 E0.02849
G1 X98.434 Y70.450 E0.33916
G1 X98.624 Y69.334 E0.04303
G1 F7200
G1 X99.085 Y68.171 E-0.34660
G1 F7200
G1 X99.653 Y67.324 E-0.28263
G1 F7200
G1 X99.984 Y66.987 E-0.13077
G1 E-0.04000 F2100.00000
G1 X110.615 Y66.427 F9000.000
G1 E0.80000 F2100.00000
G1 F2100
G1 X110.630 Y62.904 E0.13391
G1 X110.714 Y62.070 E0.03184
G1 X110.891 Y61.255 E0.03171
G1 X111.128 Y60.547 E0.02836
G1 X111.472 Y59.797 E0.03134
G1 X111.837 Y59.181 E0.02723
G1 X112.265 Y58.596 E0.02756
G1 X112.785 Y58.022 E0.02942
G1 X113.342 Y57.522 E0.02846
G1 X113.918 Y57.099 E0.02716
G1 X114.510 Y56.746 E0.02618
G1 X115.279 Y56.392 E0.03217
G1 X116.129 Y56.117 E0.03397
G1 X116.997 Y55.947 E0.03362
G1 X117.880 Y55.884 E0.03363
G1 X142.839 Y55.883 E0.94863
G1 X143.555 Y55.925 E0.02725
G1 X144.228 Y56.029 E0.02586
G1 X144.857 Y56.185 E0.02463
G1 X145.463 Y56.393 E0.02437
G1 X146.048 Y56.653 E0.02435
G1 X146.609 Y56.964 E0.02434
G1 X147.140 Y57.322 E0.02435
G1 X147.638 Y57.725 E0.02434
G1 X148.098 Y58.169 E0.02434
G1 X148.531 Y58.668 E0.02511
G1 X148.907 Y59.188 E0.02437
G1 X149.236 Y59.738 E0.02435
G1 X149.515 Y60.314 E0.02435
G1 X149.743 Y60.913 E0.02434
G1 X149.918 Y61.529 E0.02434
G1 X150.040 Y62.161 E0.02445
G1 X150.117 Y63.162 E0.03816
G1 X150.083 Y76.441 E0.50469
G1 X149.978 Y77.068 E0.02419
G1 X149.810 Y77.679 E0.02407
G1 X149.132 Y79.055 E0.05831
G1 X148.720 Y79.593 E0.02574
G1 X148.228 Y80.104 E0.02699
G1 X147.675 Y80.553 E0.02706
G1 X147.086 Y80.927 E0.02651
G1 X145.946 Y81.400 E0.04692
G1 X144.704 Y81.627 E0.04796
G1 X141.412 Y81.643 E0.12512
G1 X140.908 Y82.296 E0.03137
G1 X140.087 Y82.972 E0.04041
G1 X139.450 Y83.322 E0.02762
G1 X138.205 Y83.645 E0.04889
G1 X103.422 Y83.645 E1.32198
G1 X102.455 Y83.453 E0.03747
G1 X101.949 Y83.241 E0.02086
G1 X101.458 Y82.954 E0.02159
G1 X100.524 Y82.088 E0.04840
G1 X100.105 Y81.530 E0.02653
G1 X99.715 Y80.672 E0.03580
G1 X99.540 Y79.764 E0.03516
G1 X99.540 Y70.311 E0.35926
G1 X99.703 Y69.444 E0.03354
G1 X100.067 Y68.610 E0.03457
G1 X100.530 Y67.982 E0.02965
G1 X101.456 Y67.123 E0.04803
G1 X101.917 Y66.851 E0.02034
G1 X102.429 Y66.634 E0.02112
G1 X103.018 Y66.476 E0.02319
G1 X110.555 Y66.427 E0.28645
G1 X111.071 Y66.882 F9000.000
G1 F2100
G1 X111.085 Y62.938 E0.14989
G1 X111.164 Y62.154 E0.02993
G1 X111.335 Y61.365 E0.03071
G1 X111.558 Y60.705 E0.02646
G1 X111.871 Y60.020 E0.02861
G1 X112.224 Y59.424 E0.02633
G1 X112.627 Y58.877 E0.02583
G1 X113.099 Y58.354 E0.02676
G1 X113.639 Y57.870 E0.02757
G1 X114.162 Y57.486 E0.02467
G1 X114.712 Y57.156 E0.02436
G1 X115.457 Y56.813 E0.03117
G1 X116.255 Y56.556 E0.03188
G1 X117.070 Y56.399 E0.03152
G1 X117.903 Y56.340 E0.03177
G1 X142.832 Y56.340 E0.94746
G1 X143.517 Y56.381 E0.02606
G1 X144.147 Y56.479 E0.02423
G1 X144.736 Y56.626 E0.02307
G1 X145.304 Y56.822 E0.02285
G1 X145.853 Y57.067 E0.02283
G1 X146.378 Y57.358 E0.02282
G1 X146.875 Y57.695 E0.02283
G1 X147.342 Y58.073 E0.02283
G1 X147.773 Y58.491 E0.02281
G1 X148.179 Y58.960 E0.02357
G1 X148.530 Y59.447 E0.02283
G1 X148.838 Y59.963 E0.02283
G1 X149.099 Y60.504 E0.02283
G1 X149.312 Y61.065 E0.02282
G1 X149.475 Y61.644 E0.02283
G1 X149.588 Y62.234 E0.02284
G1 X149.660 Y63.170 E0.03567
G1 X149.630 Y76.384 E0.50224
G1 X149.534 Y76.959 E0.02214
G1 X149.375 Y77.537 E0.02278
G1 X148.755 Y78.795 E0.05330
G1 X148.365 Y79.304 E0.02438
G1 X147.909 Y79.776 E0.02494
G1 X147.399 Y80.189 E0.02496
G1 X146.859 Y80.529 E0.02424
G1 X145.795 Y80.968 E0.04375
G1 X144.644 Y81.173 E0.04443
G1 X141.184 Y81.187 E0.13151
G1 X140.595 Y81.962 E0.03700
G1 X139.844 Y82.585 E0.03707
G1 X139.303 Y82.889 E0.02357
G1 X138.175 Y83.188 E0.04439
G1 X103.444 Y83.188 E1.31997
G1 X102.610 Y83.022 E0.03232
G1 X102.140 Y82.825 E0.01938
G1 X101.713 Y82.573 E0.01885
G1 X100.852 Y81.769 E0.04476
G1 X100.486 Y81.277 E0.02330
G1 X100.158 Y80.557 E0.03008
G1 X99.997 Y79.741 E0.03161
G1 X99.997 Y70.334 E0.35754
G1 X100.146 Y69.557 E0.03005
G1 X100.474 Y68.820 E0.03067
G1 X100.857 Y68.302 E0.02449
G1 X101.711 Y67.504 E0.04441
G1 X102.136 Y67.253 E0.01877
G1 X102.590 Y67.062 E0.01874
G1 X103.106 Y66.926 E0.02028
G1 X111.011 Y66.882 E0.30041
G1 F7200
G1 X111.063 Y64.140 E-0.76000
G1 E-0.04000 F2100.00000
G1 X140.864 Y80.731 F9000.000
G1 E0.80000 F2100.00000
G1 F2100
G1 X140.745 Y81.009 E0.01149
G1 X140.281 Y81.629 E0.02945
G1 X139.597 Y82.200 E0.03384
G1 X139.153 Y82.456 E0.01950
G1 X138.144 Y82.731 E0.03977
G1 X103.467 Y82.731 E1.31793
G1 X102.764 Y82.591 E0.02723
G1 X102.358 Y82.423 E0.01671
G1 X101.967 Y82.193 E0.01723
G1 X101.182 Y81.452 E0.04104
G1 X100.870 Y81.027 E0.02002
G1 X100.586 Y80.395 E0.02634
G1 X100.454 Y79.719 E0.02616
G1 X100.454 Y70.357 E0.35583
G1 X100.589 Y69.673 E0.02649
G1 X100.879 Y69.031 E0.02676
G1 X101.186 Y68.621 E0.01947
G1 X101.967 Y67.883 E0.04084
G1 X102.328 Y67.668 E0.01598
G1 X102.752 Y67.490 E0.01747
G1 X103.193 Y67.375 E0.01731
G1 X111.526 Y67.337 E0.31672
G1 X111.541 Y62.971 E0.16591
G1 X111.613 Y62.238 E0.02801
G1 X111.779 Y61.474 E0.02970
G1 X111.987 Y60.863 E0.02455
G1 X112.271 Y60.242 E0.02594
G1 X112.600 Y59.685 E0.02459
G1 X112.974 Y59.174 E0.02406
G1 X113.430 Y58.670 E0.02584
G1 X113.935 Y58.218 E0.02575
G1 X114.423 Y57.861 E0.02299
G1 X114.935 Y57.555 E0.02268
G1 X115.635 Y57.235 E0.02923
G1 X116.381 Y56.996 E0.02980
G1 X117.142 Y56.850 E0.02942
G1 X117.911 Y56.797 E0.02931
G1 X142.825 Y56.797 E0.94690
G1 X143.478 Y56.836 E0.02486
G1 X144.066 Y56.928 E0.02260
G1 X144.614 Y57.066 E0.02150
G1 X145.145 Y57.250 E0.02132
G1 X145.656 Y57.480 E0.02132
G1 X146.146 Y57.753 E0.02131
G1 X146.610 Y58.067 E0.02132
G1 X147.045 Y58.421 E0.02131
G1 X147.448 Y58.812 E0.02131
G1 X147.814 Y59.236 E0.02131
G1 X148.143 Y59.690 E0.02132
G1 X148.431 Y60.172 E0.02132
G1 X148.675 Y60.676 E0.02132
G1 X148.875 Y61.200 E0.02131
G1 X149.028 Y61.740 E0.02131
G1 X149.137 Y62.307 E0.02195
G1 X149.203 Y63.177 E0.03318
G1 X149.176 Y76.328 E0.49979
G1 X149.085 Y76.872 E0.02097
G1 X148.941 Y77.394 E0.02060
G1 X148.378 Y78.536 E0.04837
G1 X148.027 Y78.997 E0.02204
G1 X147.610 Y79.430 E0.02284
G1 X147.143 Y79.810 E0.02287
G1 X146.632 Y80.132 E0.02294
G1 X145.646 Y80.535 E0.04051
G1 X144.586 Y80.720 E0.04090
G1 X140.924 Y80.731 E0.13918
G1 X140.533 Y80.274 F9000.000
G1 F2100
G1 X140.355 Y80.767 E0.01992
G1 X139.931 Y81.333 E0.02687
G1 X139.348 Y81.817 E0.02882
G1 X138.998 Y82.025 E0.01545
G1 X138.111 Y82.274 E0.03501
G1 X103.489 Y82.274 E1.31585
G1 X102.918 Y82.160 E0.02213
G1 X102.549 Y82.007 E0.01521
G1 X102.224 Y81.814 E0.01436
G1 X101.513 Y81.136 E0.03733
G1 X101.254 Y80.778 E0.01679
G1 X101.029 Y80.278 E0.02085
G1 X100.911 Y79.695 E0.02259
G1 X100.911 Y70.380 E0.35403
G1 X101.031 Y69.792 E0.02282
G1 X101.283 Y69.246 E0.02286
G1 X101.515 Y68.938 E0.01464
G1 X102.224 Y68.262 E0.03723
G1 X102.548 Y68.069 E0.01434
G1 X102.911 Y67.918 E0.01495
G1 X103.278 Y67.825 E0.01439
G1 X111.982 Y67.792 E0.33081
G1 X111.997 Y63.004 E0.18197
G1 X112.063 Y62.322 E0.02606
G1 X112.223 Y61.585 E0.02867
G1 X112.415 Y61.021 E0.02262
G1 X112.671 Y60.463 E0.02332
G1 X112.976 Y59.945 E0.02286
G1 X113.322 Y59.471 E0.02230
G1 X113.744 Y59.002 E0.02398
G1 X114.231 Y58.566 E0.02483
G1 X114.683 Y58.237 E0.02127
G1 X115.158 Y57.955 E0.02099
G1 X115.812 Y57.656 E0.02732
G1 X116.482 Y57.442 E0.02673
G1 X117.188 Y57.305 E0.02733
G1 X117.919 Y57.254 E0.02787
G1 X142.818 Y57.254 E0.94633
G1 X143.439 Y57.292 E0.02364
G1 X143.984 Y57.378 E0.02094
G1 X144.492 Y57.507 E0.01994
G1 X144.984 Y57.678 E0.01980
G1 X145.459 Y57.892 E0.01980
G1 X145.914 Y58.146 E0.01979
G1 X146.345 Y58.439 E0.01980
G1 X146.748 Y58.769 E0.01980
G1 X147.121 Y59.132 E0.01979
G1 X147.462 Y59.526 E0.01979
G1 X147.766 Y59.949 E0.01981
G1 X148.033 Y60.397 E0.01980
G1 X148.259 Y60.866 E0.01980
G1 X148.444 Y61.353 E0.01979
G1 X148.586 Y61.854 E0.01979
G1 X148.686 Y62.379 E0.02032
G1 X148.746 Y63.185 E0.03072
G1 X148.722 Y76.272 E0.49738
G1 X148.641 Y76.762 E0.01888
G1 X148.506 Y77.252 E0.01931
G1 X148.001 Y78.277 E0.04342
G1 X147.671 Y78.710 E0.02068
G1 X147.291 Y79.102 E0.02076
G1 X146.867 Y79.445 E0.02076
G1 X146.407 Y79.734 E0.02062
G1 X145.498 Y80.102 E0.03727
G1 X144.529 Y80.266 E0.03736
G1 X140.593 Y80.274 E0.14959
G1 X140.196 Y79.817 F9000.000
G1 F2100
G1 X139.965 Y80.526 E0.02834
G1 X139.583 Y81.036 E0.02421
G1 X139.070 Y81.453 E0.02512
G1 X138.839 Y81.596 E0.01033
G1 X138.078 Y81.817 E0.03011
G1 X103.512 Y81.817 E1.31373
G1 X103.072 Y81.729 E0.01702
G1 X102.740 Y81.592 E0.01367
G1 X102.483 Y81.437 E0.01140
G1 X101.847 Y80.823 E0.03361
G1 X101.641 Y80.534 E0.01350
G1 X101.458 Y80.118 E0.01728
G1 X101.368 Y79.673 E0.01724
G1 X101.368 Y70.403 E0.35232
G1 X101.458 Y69.956 E0.01734
G1 X101.666 Y69.497 E0.01915
G1 X101.847 Y69.253 E0.01154
G1 X102.483 Y68.639 E0.03359
G1 X102.739 Y68.484 E0.01138
G1 X103.069 Y68.347 E0.01358
G1 X103.360 Y68.275 E0.01138
G1 X112.007 Y68.249 E0.32864
G1 X112.258 Y68.151 E0.01026
G1 X112.396 Y67.987 E0.00812
G1 X112.439 Y67.827 E0.00630
G1 X112.454 Y63.016 E0.18285
G1 X112.513 Y62.404 E0.02335
G1 X112.660 Y61.719 E0.02666
G1 X112.836 Y61.200 E0.02082
G1 X113.071 Y60.684 E0.02155
G1 X113.352 Y60.205 E0.02110
G1 X113.684 Y59.750 E0.02139
G1 X114.074 Y59.318 E0.02215
G1 X114.526 Y58.916 E0.02299
G1 X114.943 Y58.613 E0.01957
G1 X115.380 Y58.354 E0.01931
G1 X115.988 Y58.078 E0.02539
G1 X116.607 Y57.882 E0.02467
G1 X117.259 Y57.757 E0.02526
G1 X117.927 Y57.711 E0.02542
G1 X142.811 Y57.711 E0.94577
G1 X143.400 Y57.748 E0.02241
G1 X143.901 Y57.828 E0.01927
G1 X144.369 Y57.947 E0.01838
G1 X144.823 Y58.106 E0.01828
G1 X145.262 Y58.304 E0.01829
G1 X145.681 Y58.540 E0.01828
G1 X146.079 Y58.811 E0.01829
G1 X146.451 Y59.116 E0.01828
G1 X146.795 Y59.452 E0.01827
G1 X147.108 Y59.816 E0.01828
G1 X147.389 Y60.207 E0.01829
G1 X147.635 Y60.621 E0.01828
G1 X147.843 Y61.055 E0.01828
G1 X148.013 Y61.505 E0.01828
G1 X148.143 Y61.968 E0.01828
G1 X148.234 Y62.451 E0.01869
G1 X148.288 Y63.193 E0.02828
G1 X148.268 Y76.216 E0.49497
G1 X148.192 Y76.676 E0.01769
G1 X148.071 Y77.108 E0.01708
G1 X147.623 Y78.018 E0.03856
G1 X147.332 Y78.403 E0.01833
G1 X146.992 Y78.757 E0.01865
G1 X146.612 Y79.066 E0.01862
G1 X146.182 Y79.336 E0.01928
G1 X145.352 Y79.668 E0.03397
G1 X144.474 Y79.812 E0.03383
G1 X140.256 Y79.817 E0.16031
G1 X139.911 Y79.476 F9000.000
G1 F2100
G1 X139.814 Y79.557 E0.00478
G1 X139.750 Y79.701 E0.00601
G1 X139.571 Y80.291 E0.02340
G1 X139.271 Y80.701 E0.01932
G1 X138.795 Y81.088 E0.02332
G1 X138.628 Y81.189 E0.00740
G1 X138.045 Y81.360 E0.02309
G1 X103.534 Y81.360 E1.31163
G1 X103.227 Y81.299 E0.01192
G1 X102.933 Y81.177 E0.01209
G1 X102.746 Y81.062 E0.00834
G1 X102.183 Y80.512 E0.02991
G1 X102.030 Y80.293 E0.01014
G1 X101.887 Y79.961 E0.01376
G1 X101.825 Y79.650 E0.01202
G1 X101.825 Y70.425 E0.35061
G1 X101.887 Y70.116 E0.01198
G1 X102.052 Y69.744 E0.01549
G1 X102.181 Y69.565 E0.00839
G1 X102.745 Y69.014 E0.02997
G1 X102.932 Y68.899 E0.00833
G1 X103.227 Y68.777 E0.01213
G1 X103.439 Y68.726 E0.00830
G1 X112.050 Y68.706 E0.32727
G1 X112.321 Y68.637 E0.01063
G1 X112.571 Y68.490 E0.01102
G1 X112.771 Y68.251 E0.01186
G1 X112.843 Y68.097 E0.00644
G1 X112.896 Y67.879 E0.00851
G1 X112.911 Y63.048 E0.18363
G1 X112.962 Y62.486 E0.02144
G1 X113.097 Y61.853 E0.02461
G1 X113.265 Y61.358 E0.01985
G1 X113.482 Y60.885 E0.01977
G1 X113.740 Y60.447 E0.01932
G1 X114.045 Y60.031 E0.01963
G1 X114.404 Y59.635 E0.02032
G1 X114.820 Y59.265 E0.02114
G1 X115.201 Y58.990 E0.01786
G1 X115.601 Y58.755 E0.01763
G1 X116.163 Y58.501 E0.02345
G1 X116.731 Y58.322 E0.02261
G1 X117.330 Y58.209 E0.02320
G1 X117.934 Y58.168 E0.02300
G1 X142.804 Y58.168 E0.94522
G1 X143.360 Y58.203 E0.02116
G1 X143.817 Y58.277 E0.01759
G1 X144.246 Y58.387 E0.01683
G1 X144.662 Y58.534 E0.01677
G1 X145.063 Y58.716 E0.01677
G1 X145.448 Y58.933 E0.01676
G1 X145.812 Y59.182 E0.01677
G1 X146.152 Y59.462 E0.01677
G1 X146.467 Y59.771 E0.01676
G1 X146.754 Y60.106 E0.01676
G1 X147.011 Y60.465 E0.01678
G1 X147.236 Y60.845 E0.01677
G1 X147.426 Y61.243 E0.01677
G1 X147.581 Y61.656 E0.01676
G1 X147.700 Y62.080 E0.01676
G1 X147.782 Y62.522 E0.01707
G1 X147.831 Y63.201 E0.02586
G1 X147.813 Y76.162 E0.49261
G1 X147.748 Y76.565 E0.01554
G1 X147.637 Y76.965 E0.01577
G1 X147.245 Y77.760 E0.03367
G1 X146.976 Y78.116 E0.01696
G1 X146.674 Y78.428 E0.01653
G1 X146.336 Y78.701 E0.01650
G1 X145.958 Y78.937 E0.01691
G1 X145.208 Y79.234 E0.03065
G1 X144.421 Y79.358 E0.03029
G1 X140.220 Y79.360 E0.15968
G1 X140.010 Y79.394 E0.00808
G1 X139.957 Y79.438 E0.00262
G1 X139.670 Y79.058 F9000.000
G1 F2100
G1 X139.426 Y79.307 E0.01324
G1 X139.318 Y79.548 E0.01005
G1 X139.174 Y80.062 E0.02029
G1 X138.957 Y80.367 E0.01423
G1 X138.521 Y80.722 E0.02139
G1 X138.421 Y80.781 E0.00440
G1 X138.011 Y80.903 E0.01623
G1 X103.557 Y80.903 E1.30950
G1 X103.381 Y80.868 E0.00682
G1 X103.127 Y80.763 E0.01044
G1 X103.013 Y80.690 E0.00514
G1 X102.518 Y80.202 E0.02642
G1 X102.440 Y80.091 E0.00515
G1 X102.317 Y79.803 E0.01192
G1 X102.282 Y79.628 E0.00676
G1 X102.282 Y70.448 E0.34891
G1 X102.317 Y70.273 E0.00676
G1 X102.440 Y69.985 E0.01192
G1 X102.518 Y69.874 E0.00515
G1 X103.013 Y69.386 E0.02641
G1 X103.127 Y69.313 E0.00514
G1 X103.383 Y69.207 E0.01053
G1 X103.514 Y69.178 E0.00511
G1 X112.108 Y69.163 E0.32663
G1 X112.498 Y69.064 E0.01529
G1 X112.844 Y68.859 E0.01531
G1 X113.034 Y68.670 E0.01017
G1 X113.173 Y68.471 E0.00923
G1 X113.277 Y68.249 E0.00931
G1 X113.353 Y67.935 E0.01229
G1 X113.368 Y63.059 E0.18530
G1 X113.413 Y62.567 E0.01879
G1 X113.535 Y61.986 E0.02254
G1 X113.694 Y61.516 E0.01887
G1 X113.882 Y61.106 E0.01714
G1 X114.115 Y60.708 E0.01754
G1 X114.406 Y60.311 E0.01870
G1 X114.733 Y59.952 E0.01845
G1 X115.114 Y59.616 E0.01929
G1 X115.459 Y59.368 E0.01616
G1 X115.821 Y59.155 E0.01595
G1 X116.338 Y58.923 E0.02154
G1 X116.830 Y58.768 E0.01960
G1 X117.375 Y58.664 E0.02111
G1 X117.942 Y58.626 E0.02158
G1 X142.797 Y58.626 E0.94465
G1 X143.319 Y58.658 E0.01990
G1 X143.732 Y58.726 E0.01588
G1 X144.121 Y58.827 E0.01528
G1 X144.499 Y58.961 E0.01525
G1 X144.864 Y59.128 E0.01525
G1 X145.213 Y59.326 E0.01525
G1 X145.544 Y59.553 E0.01526
G1 X145.854 Y59.808 E0.01525
G1 X146.140 Y60.090 E0.01524
