; generated by Slic3r 1.37.1-prusa3d-win64 on 2017-10-20 at 12:24:19

; 

; external perimeters extrusion width = 0.45mm
; perimeters extrusion width = 0.47mm
; infill extrusion width = 0.45mm
; solid infill extrusion width = 0.45mm
; top infill extrusion width = 0.40mm
; first layer extrusion width = 0.45mm

M107
M115 U3.0.12 ; tell printer latest fw version
M83  ; extruder relative mode
M104 S150
M140 S55 ; set bed temp
G28 W ; home all without mesh bed level
G0 Z80 F1000 ; go above the bed to keep PINDA cool
M190 S55 ; wait for bed temp
M104 S215 ; set extruder temp
G80 ; mesh bed leveling homes the head
G0 Z80 F1000 ; go higher to allow switch lock
M109 S215 ; wait for extruder temp
M0 Click when done retracting
G0 Z0 Y-3.0 F1000 ; go outside print area
G1 X60.0 E9.0 ; intro line
G1 X100.0 E12.5 ; intro line
; Filament gcode

G21 ; set units to millimeters
G90 ; use absolute coordinates
M83 ; use relative distances for extrusion
; Layer 0
G1 E-0.80000 F2100.00000
G1 Z0.250 F7200.000
G1 X105.240 Y84.399 F7200.000
G1 E0.80000 F2100.00000
M204 S1000
G1 F2100
G1 X105.656 Y82.866 E0.06545
G1 X106.110 Y81.840 E0.04621
G1 X106.714 Y80.845 E0.04794
G1 X107.439 Y79.942 E0.04774
G1 X108.277 Y79.139 E0.04780
G1 X109.216 Y78.450 E0.04796
G1 X110.234 Y77.890 E0.04790
G1 X111.316 Y77.468 E0.04782
G1 X112.415 Y77.196 E0.04663
G1 X113.980 Y77.054 E0.06475
G1 X136.004 Y77.054 E0.90728
G1 X137.542 Y77.188 E0.06359
G1 X139.038 Y77.588 E0.06380
G1 X140.443 Y78.243 E0.06388
G1 X141.716 Y79.133 E0.06398
G1 X142.809 Y80.225 E0.06366
G1 X143.699 Y81.494 E0.06383
G1 X144.356 Y82.898 E0.06387
G1 X144.758 Y84.387 E0.06354
G1 X144.896 Y85.938 E0.06415
G1 X144.896 Y121.337 E1.45828
G1 X144.805 Y122.357 E0.04219
G1 X144.525 Y123.380 E0.04371
G1 X144.000 Y124.446 E0.04895
G1 X143.361 Y125.290 E0.04360
G1 X137.422 Y131.238 E0.34628
G1 X136.258 Y132.134 E0.06052
G1 X135.027 Y132.679 E0.05543
G1 X134.251 Y132.864 E0.03287
G1 X133.307 Y132.946 E0.03903
G1 X116.713 Y132.946 E0.68361
G1 X115.569 Y132.831 E0.04737
G1 X114.594 Y132.546 E0.04185
G1 X113.676 Y132.094 E0.04215
G1 X112.747 Y131.399 E0.04781
G1 X106.660 Y125.313 E0.35462
G1 X106.168 Y124.701 E0.03231
G1 X105.751 Y124.006 E0.03341
G1 X105.392 Y123.143 E0.03848
G1 X105.195 Y122.356 E0.03343
G1 X105.104 Y121.330 E0.04243
G1 X105.104 Y85.923 E1.45861
G1 X105.235 Y84.459 E0.06056
G1 F5760
G1 X105.656 Y82.866 E-0.57078
G1 F5760
G1 X105.877 Y82.366 E-0.18922
G1 E-0.04000 F2100.00000
G1 X137.352 Y104.869 F7200.000
G1 E0.80000 F2100.00000
G1 F1680
G1 X138.635 Y105.468 E0.05832
G1 X139.236 Y105.850 E0.02935
G1 X139.587 Y106.129 E0.01846
G1 X140.094 Y106.631 E0.02939
G1 X140.527 Y107.185 E0.02895
G1 X140.885 Y107.789 E0.02895
G1 X141.163 Y108.435 E0.02895
G1 X141.355 Y109.111 E0.02895
G1 X141.462 Y109.815 E0.02935
G1 X141.482 Y110.296 E0.01981
G1 X141.482 Y121.299 E0.45331
G1 X141.472 Y121.527 E0.00937
G1 X141.420 Y121.869 E0.01428
G1 X141.292 Y122.271 E0.01736
G1 X141.093 Y122.655 E0.01782
G1 X140.829 Y122.998 E0.01783
G1 X135.050 Y128.782 E0.33682
G1 X134.781 Y129.018 E0.01473
G1 X134.512 Y129.198 E0.01336
G1 X134.221 Y129.341 E0.01336
G1 X133.913 Y129.446 E0.01336
G1 X133.595 Y129.509 E0.01336
G1 X133.238 Y129.532 E0.01474
G1 X116.749 Y129.532 E0.67927
G1 X116.534 Y129.523 E0.00888
G1 X116.230 Y129.479 E0.01264
G1 X115.817 Y129.356 E0.01776
G1 X115.389 Y129.138 E0.01978
G1 X115.033 Y128.861 E0.01860
G1 X109.178 Y123.006 E0.34109
G1 X108.961 Y122.735 E0.01428
G1 X108.757 Y122.381 E0.01688
G1 X108.635 Y122.067 E0.01385
G1 X108.555 Y121.741 E0.01382
G1 X108.528 Y121.538 E0.00846
G1 X108.518 Y110.306 E0.46269
G1 X108.565 Y109.563 E0.03070
G1 X108.642 Y109.121 E0.01846
G1 X108.837 Y108.435 E0.02939
G1 X109.115 Y107.789 E0.02895
G1 X109.473 Y107.185 E0.02895
G1 X109.912 Y106.623 E0.02935
G1 X110.224 Y106.301 E0.01846
G1 X110.772 Y105.845 E0.02939
G1 X111.365 Y105.468 E0.02895
G1 X112.648 Y104.869 E0.05832
G1 X112.648 Y102.751 E0.08723
G1 X109.094 Y99.178 E0.20760
G1 X108.908 Y98.924 E0.01296
G1 X108.752 Y98.640 E0.01336
G1 X108.635 Y98.337 E0.01336
G1 X108.555 Y98.011 E0.01382
G1 X108.518 Y97.570 E0.01826
G1 X108.524 Y85.711 E0.48852
G1 X108.566 Y85.235 E0.01971
G1 X108.649 Y84.764 E0.01970
G1 X108.772 Y84.302 E0.01970
G1 X108.932 Y83.863 E0.01924
G1 X109.254 Y83.210 E0.02999
G1 X109.652 Y82.614 E0.02953
G1 X110.125 Y82.075 E0.02953
G1 X110.664 Y81.602 E0.02953
G1 X111.260 Y81.204 E0.02953
G1 X111.903 Y80.887 E0.02953
G1 X112.582 Y80.657 E0.02953
G1 X113.285 Y80.517 E0.02953
G1 X114.033 Y80.468 E0.03090
G1 X136.238 Y80.474 E0.91473
G1 X136.716 Y80.516 E0.01976
G1 X137.186 Y80.599 E0.01970
G1 X137.648 Y80.722 E0.01970
G1 X138.098 Y80.886 E0.01970
G1 X138.531 Y81.088 E0.01970
G1 X138.945 Y81.327 E0.01970
G1 X139.337 Y81.601 E0.01970
G1 X139.703 Y81.909 E0.01970
G1 X140.041 Y82.247 E0.01970
G1 X140.349 Y82.613 E0.01970
G1 X140.623 Y83.005 E0.01970
G1 X140.862 Y83.419 E0.01970
G1 X141.064 Y83.852 E0.01970
G1 X141.228 Y84.302 E0.01970
G1 X141.351 Y84.764 E0.01970
G1 X141.433 Y85.224 E0.01924
G1 X141.482 Y85.983 E0.03136
G1 X141.482 Y97.560 E0.47691
G1 X141.461 Y97.908 E0.01438
G1 X141.346 Y98.397 E0.02068
G1 X141.228 Y98.681 E0.01266
G1 X141.076 Y98.948 E0.01266
G1 X140.898 Y99.187 E0.01228
G1 X137.352 Y102.751 E0.20711
G1 X137.352 Y104.809 E0.08476
G1 X137.749 Y104.617 F7200.000
G1 F1680
G1 X138.826 Y105.120 E0.04898
G1 X139.467 Y105.527 E0.03127
G1 X139.850 Y105.833 E0.02021
G1 X140.391 Y106.367 E0.03132
G1 X140.855 Y106.961 E0.03105
G1 X141.239 Y107.609 E0.03105
G1 X141.537 Y108.302 E0.03105
G1 X141.743 Y109.026 E0.03105
G1 X141.857 Y109.777 E0.03127
G1 X141.879 Y110.287 E0.02103
G1 X141.867 Y121.566 E0.46463
G1 X141.808 Y121.951 E0.01606
G1 X141.659 Y122.423 E0.02039
G1 X141.427 Y122.868 E0.02067
G1 X141.122 Y123.266 E0.02067
G1 X135.321 Y129.071 E0.33807
G1 X135.023 Y129.333 E0.01634
G1 X134.710 Y129.542 E0.01550
G1 X134.373 Y129.708 E0.01551
G1 X134.016 Y129.829 E0.01550
G1 X133.647 Y129.903 E0.01550
G1 X133.251 Y129.929 E0.01634
G1 X116.741 Y129.929 E0.68014
G1 X116.497 Y129.919 E0.01006
G1 X116.145 Y129.867 E0.01467
G1 X115.677 Y129.728 E0.02013
G1 X115.354 Y129.578 E0.01466
G1 X115.165 Y129.466 E0.00903
G1 X114.770 Y129.158 E0.02063
G1 X108.883 Y123.271 E0.34300
G1 X108.639 Y122.967 E0.01607
G1 X108.395 Y122.544 E0.02008
G1 X108.256 Y122.187 E0.01581
G1 X108.165 Y121.815 E0.01578
G1 X108.133 Y121.572 E0.01006
G1 X108.121 Y110.294 E0.46464
G1 X108.171 Y109.516 E0.03209
G1 X108.255 Y109.033 E0.02021
G1 X108.463 Y108.302 E0.03132
G1 X108.761 Y107.609 E0.03105
G1 X109.145 Y106.961 E0.03105
G1 X109.612 Y106.363 E0.03127
G1 X109.954 Y106.010 E0.02021
G1 X110.538 Y105.524 E0.03132
G1 X111.174 Y105.120 E0.03105
G1 X112.251 Y104.617 E0.04898
G1 X112.251 Y102.915 E0.07010
G1 X108.792 Y99.436 E0.20209
G1 X108.573 Y99.138 E0.01526
G1 X108.392 Y98.808 E0.01550
G1 X108.256 Y98.457 E0.01550
G1 X108.165 Y98.085 E0.01579
G1 X108.133 Y97.842 E0.01006
G1 X108.128 Y85.694 E0.50047
G1 X108.172 Y85.183 E0.02113
G1 X108.261 Y84.678 E0.02112
G1 X108.394 Y84.182 E0.02112
G1 X108.567 Y83.707 E0.02085
G1 X108.910 Y83.011 E0.03195
G1 X109.337 Y82.372 E0.03167
G1 X109.844 Y81.794 E0.03167
G1 X110.422 Y81.287 E0.03167
G1 X111.061 Y80.860 E0.03167
G1 X111.751 Y80.520 E0.03167
G1 X112.479 Y80.273 E0.03167
G1 X113.233 Y80.123 E0.03167
G1 X114.020 Y80.071 E0.03251
G1 X136.255 Y80.077 E0.91598
G1 X136.767 Y80.122 E0.02118
G1 X137.272 Y80.211 E0.02112
G1 X137.768 Y80.344 E0.02113
G1 X138.249 Y80.519 E0.02112
G1 X138.714 Y80.736 E0.02112
G1 X139.158 Y80.992 E0.02112
G1 X139.578 Y81.287 E0.02112
G1 X139.971 Y81.616 E0.02113
G1 X140.334 Y81.979 E0.02113
G1 X140.663 Y82.372 E0.02112
G1 X140.958 Y82.792 E0.02113
G1 X141.214 Y83.236 E0.02113
G1 X141.431 Y83.701 E0.02112
G1 X141.606 Y84.182 E0.02112
G1 X141.739 Y84.678 E0.02113
G1 X141.827 Y85.176 E0.02085
G1 X141.879 Y85.970 E0.03279
G1 X141.879 Y97.572 E0.47795
G1 X141.855 Y97.953 E0.01573
G1 X141.818 Y98.176 E0.00930
G1 X141.722 Y98.526 E0.01495
G1 X141.585 Y98.855 E0.01469
G1 X141.409 Y99.165 E0.01469
G1 X141.199 Y99.447 E0.01446
G1 X137.749 Y102.915 E0.20154
G1 X137.749 Y104.557 E0.06763
G1 X138.145 Y104.364 F7200.000
G1 F1260
G1 X139.017 Y104.772 E0.03964
G1 X139.697 Y105.204 E0.03319
G1 X140.114 Y105.536 E0.02196
G1 X140.688 Y106.103 E0.03324
G1 X141.183 Y106.737 E0.03314
G1 X141.593 Y107.429 E0.03314
G1 X141.911 Y108.168 E0.03314
G1 X142.132 Y108.942 E0.03314
G1 X142.252 Y109.739 E0.03319
G1 X142.275 Y110.279 E0.02226
G1 X142.262 Y121.605 E0.46658
G1 X142.197 Y122.033 E0.01785
G1 X142.026 Y122.575 E0.02341
G1 X141.762 Y123.081 E0.02352
G1 X141.414 Y123.534 E0.02352
G1 X135.593 Y129.361 E0.33932
G1 X135.265 Y129.648 E0.01795
G1 X134.909 Y129.886 E0.01765
G1 X134.525 Y130.075 E0.01765
G1 X134.119 Y130.213 E0.01765
G1 X133.699 Y130.297 E0.01765
G1 X133.264 Y130.325 E0.01795
G1 X116.733 Y130.325 E0.68101
G1 X116.460 Y130.314 E0.01125
G1 X116.059 Y130.255 E0.01669
G1 X115.536 Y130.100 E0.02250
G1 X115.168 Y129.929 E0.01669
G1 X114.941 Y129.794 E0.01089
G1 X114.507 Y129.456 E0.02266
G1 X108.587 Y123.536 E0.34490
G1 X108.316 Y123.198 E0.01785
G1 X108.033 Y122.708 E0.02329
G1 X107.877 Y122.306 E0.01777
G1 X107.775 Y121.888 E0.01775
G1 X107.738 Y121.607 E0.01167
G1 X107.725 Y110.281 E0.46659
G1 X107.777 Y109.470 E0.03349
G1 X107.868 Y108.944 E0.02196
G1 X108.089 Y108.168 E0.03324
G1 X108.407 Y107.429 E0.03314
G1 X108.817 Y106.737 E0.03314
G1 X109.313 Y106.102 E0.03319
G1 X109.684 Y105.719 E0.02196
G1 X110.304 Y105.203 E0.03324
G1 X110.983 Y104.772 E0.03314
G1 X111.855 Y104.364 E0.03964
G1 X111.855 Y103.078 E0.05297
G1 X108.490 Y99.695 E0.19658
G1 X108.238 Y99.351 E0.01756
G1 X108.032 Y98.975 E0.01765
G1 X107.877 Y98.576 E0.01765
G1 X107.775 Y98.158 E0.01775
G1 X107.738 Y97.877 E0.01167
G1 X107.725 Y97.587 E0.01197
G1 X107.731 Y85.676 E0.49066
G1 X107.779 Y85.131 E0.02255
G1 X107.874 Y84.592 E0.02255
G1 X108.016 Y84.063 E0.02255
G1 X108.202 Y83.551 E0.02245
G1 X108.566 Y82.813 E0.03391
G1 X109.022 Y82.130 E0.03381
G1 X109.563 Y81.513 E0.03381
G1 X110.180 Y80.972 E0.03381
G1 X110.863 Y80.516 E0.03381
G1 X111.599 Y80.153 E0.03381
G1 X112.376 Y79.889 E0.03381
G1 X113.181 Y79.729 E0.03381
G1 X114.007 Y79.675 E0.03411
G1 X136.272 Y79.681 E0.91723
G1 X136.819 Y79.729 E0.02260
G1 X137.358 Y79.824 E0.02255
G1 X137.887 Y79.966 E0.02255
G1 X138.401 Y80.153 E0.02255
G1 X138.897 Y80.384 E0.02255
G1 X139.371 Y80.658 E0.02255
G1 X139.820 Y80.972 E0.02255
G1 X140.239 Y81.324 E0.02255
G1 X140.626 Y81.711 E0.02255
G1 X140.978 Y82.130 E0.02255
G1 X141.292 Y82.579 E0.02255
G1 X141.566 Y83.053 E0.02255
G1 X141.797 Y83.549 E0.02255
G1 X141.984 Y84.063 E0.02255
G1 X142.126 Y84.592 E0.02255
G1 X142.221 Y85.129 E0.02245
G1 X142.275 Y85.957 E0.03422
G1 X142.275 Y97.585 E0.47899
G1 X142.249 Y97.998 E0.01708
G1 X142.205 Y98.261 E0.01098
G1 X142.097 Y98.655 E0.01681
G1 X141.942 Y99.030 E0.01672
G1 X141.741 Y99.383 E0.01672
G1 X141.500 Y99.706 E0.01663
G1 X138.145 Y103.078 E0.19596
G1 X138.145 Y104.304 E0.05050
G1 X137.953 Y104.715 F7200.000
G1 X137.233 Y104.577 F7200.000
G1 F1680
G1 X113.460 Y80.803 E1.38808
G1 X113.987 Y80.769 E0.02181
G1 X137.055 Y103.837 E1.34688
G1 X137.055 Y103.275 E0.02319
G1 X114.545 Y80.765 E1.31429
G1 X115.107 Y80.765 E0.02320
G1 X137.055 Y102.713 E1.28148
G1 X137.055 Y102.629 E0.00350
G1 X137.293 Y102.390 E0.01392
G1 X115.669 Y80.765 E1.26257
G1 X116.231 Y80.766 E0.02320
G1 X137.573 Y102.108 E1.24612
G1 X137.853 Y101.826 E0.01640
G1 X116.793 Y80.766 E1.22967
G1 X117.355 Y80.766 E0.02320
G1 X138.133 Y101.545 E1.21322
G1 X138.414 Y101.263 E0.01640
G1 X117.916 Y80.766 E1.19677
G1 X118.478 Y80.766 E0.02320
G1 X138.694 Y100.982 E1.18031
G1 X138.974 Y100.700 E0.01640
G1 X119.040 Y80.766 E1.16386
G1 X119.602 Y80.766 E0.02320
G1 X139.254 Y100.418 E1.14741
G1 X139.534 Y100.137 E0.01640
G1 X120.164 Y80.767 E1.13096
G1 X120.726 Y80.767 E0.02320
G1 X139.814 Y99.855 E1.11451
G1 X140.095 Y99.574 E0.01640
G1 X121.288 Y80.767 E1.09806
G1 X121.850 Y80.767 E0.02320
G1 X140.375 Y99.292 E1.08161
G1 X140.655 Y99.010 E0.01640
G1 X122.412 Y80.767 E1.06516
G1 X122.974 Y80.767 E0.02320
G1 X140.887 Y98.681 E1.04589
G1 X141.065 Y98.297 E0.01746
G1 X123.535 Y80.768 E1.02350
G1 X124.097 Y80.768 E0.02320
G1 X141.157 Y97.828 E0.99608
G1 X141.185 Y97.546 E0.01171
G1 X141.185 Y97.294 E0.01040
G1 X124.659 Y80.768 E0.96489
G1 X125.221 Y80.768 E0.02320
G1 X141.185 Y96.732 E0.93208
G1 X141.185 Y96.170 E0.02319
G1 X125.783 Y80.768 E0.89927
G1 X126.345 Y80.768 E0.02320
G1 X141.185 Y95.608 E0.86647
G1 X141.185 Y95.047 E0.02319
G1 X126.907 Y80.769 E0.83366
G1 X127.469 Y80.769 E0.02320
G1 X141.185 Y94.485 E0.80085
G1 X141.185 Y93.923 E0.02319
G1 X128.031 Y80.769 E0.76804
G1 X128.593 Y80.769 E0.02320
G1 X141.185 Y93.361 E0.73523
G1 X141.185 Y92.800 E0.02319
G1 X129.155 Y80.769 E0.70243
G1 X129.716 Y80.769 E0.02320
G1 X141.185 Y92.238 E0.66962
G1 X141.185 Y91.676 E0.02319
G1 X130.278 Y80.769 E0.63681
G1 X130.840 Y80.770 E0.02320
G1 X141.185 Y91.114 E0.60400
G1 X141.185 Y90.553 E0.02319
G1 X131.402 Y80.770 E0.57120
G1 X131.964 Y80.770 E0.02320
G1 X141.185 Y89.991 E0.53839
G1 X141.185 Y89.429 E0.02319
G1 X132.526 Y80.770 E0.50558
G1 X133.088 Y80.770 E0.02320
G1 X141.185 Y88.867 E0.47277
G1 X141.185 Y88.306 E0.02319
G1 X133.650 Y80.770 E0.43996
G1 X134.212 Y80.771 E0.02320
G1 X141.185 Y87.744 E0.40716
G1 X141.185 Y87.182 E0.02319
G1 X134.774 Y80.771 E0.37435
G1 X135.335 Y80.771 E0.02320
G1 X141.185 Y86.620 E0.34154
G1 X141.185 Y86.059 E0.02319
G1 X135.897 Y80.771 E0.30873
G1 X136.225 Y80.771 E0.01352
G1 X136.482 Y80.794 E0.01065
G1 X141.150 Y85.462 E0.27259
G1 X141.137 Y85.259 E0.00840
G1 X141.055 Y84.805 E0.01906
G1 X137.145 Y80.895 E0.22827
G1 X137.559 Y81.006 E0.01768
G1 X137.966 Y81.154 E0.01789
G1 X141.094 Y84.283 E0.18265
G1 F5760
G1 X139.543 Y82.731 E-0.76000
G1 E-0.04000 F2100.00000
G1 X140.632 Y83.259 F7200.000
G1 E0.80000 F2100.00000
G1 F1680
G1 X138.691 Y81.318 E0.11335
G1 F5760
G1 X140.243 Y82.869 E-0.76000
G1 E-0.04000 F2100.00000
G1 X137.924 Y105.267 F7200.000
G1 E0.80000 F2100.00000
G1 F1680
G1 X140.989 Y108.333 E0.17898
G1 X141.240 Y109.146 F7200.000
G1 F1680
G1 X112.976 Y80.881 E1.65028
G1 X112.659 Y80.944 E0.01335
G1 X112.523 Y80.990 E0.00591
G1 X141.128 Y109.595 E1.67013
G1 X141.165 Y109.844 E0.01039
G1 X141.181 Y110.210 E0.01513
G1 X112.104 Y81.133 E1.69773
G1 X111.719 Y81.309 E0.01749
G1 X141.185 Y110.776 E1.72045
G1 X141.185 Y111.337 E0.02319
G1 X111.349 Y81.502 E1.74201
G1 X111.013 Y81.727 E0.01672
G1 X141.185 Y111.899 E1.76167
G1 X141.185 Y112.461 E0.02319
G1 X110.695 Y81.971 E1.78023
G1 X110.396 Y82.233 E0.01643
G1 X141.185 Y113.023 E1.79771
G1 X141.185 Y113.584 E0.02319
G1 X110.126 Y82.525 E1.81346
G1 X109.889 Y82.795 E0.01484
G1 X109.867 Y82.828 E0.00162
G1 X141.185 Y114.146 E1.82858
G1 X141.185 Y114.708 E0.02319
G1 X109.642 Y83.165 E1.84171
G1 X109.512 Y83.359 E0.00965
G1 X109.434 Y83.518 E0.00733
G1 X141.185 Y115.270 E1.85387
G1 X141.185 Y115.831 E0.02319
G1 X109.248 Y83.894 E1.86471
G1 X109.090 Y84.298 E0.01790
G1 X141.185 Y116.393 E1.87393
G1 X141.185 Y116.955 E0.02319
G1 X108.964 Y84.734 E1.88127
G1 X108.873 Y85.204 E0.01978
G1 X141.185 Y117.517 E1.88662
G1 X141.185 Y118.078 E0.02319
G1 X108.822 Y85.715 E1.88959
G1 X108.821 Y86.276 E0.02315
G1 X141.185 Y118.640 E1.88965
G1 X141.185 Y119.202 E0.02319
G1 X108.821 Y86.837 E1.88967
G1 X108.820 Y87.399 E0.02318
G1 X141.185 Y119.764 E1.88968
G1 X141.185 Y120.325 E0.02319
G1 X108.820 Y87.960 E1.88970
G1 X108.820 Y88.522 E0.02318
G1 X141.185 Y120.887 E1.88972
G1 X141.179 Y121.442 E0.02292
G1 X108.819 Y89.083 E1.88935
G1 X108.819 Y89.645 E0.02318
G1 X141.092 Y121.918 E1.88435
G1 X141.017 Y122.157 E0.01034
G1 X140.932 Y122.319 E0.00757
G1 X108.819 Y90.206 E1.87500
G1 X108.818 Y90.767 E0.02318
G1 X140.713 Y122.662 E1.86221
G1 X140.605 Y122.802 E0.00728
G1 X140.448 Y122.959 E0.00918
G1 X108.818 Y91.329 E1.84678
G1 X108.818 Y91.890 E0.02318
G1 X140.167 Y123.240 E1.83040
G1 X139.887 Y123.521 E0.01640
G1 X108.818 Y92.452 E1.81403
G1 X108.817 Y93.013 E0.02318
G1 X139.606 Y123.802 E1.79765
G1 X139.325 Y124.083 E0.01640
G1 X108.817 Y93.575 E1.78128
