; generated by Slic3r 1.37.1-prusa3d-win64 on 2017-10-20 at 13:34:45

; 

; external perimeters extrusion width = 0.45mm
; perimeters extrusion width = 0.47mm
; infill extrusion width = 0.45mm
; solid infill extrusion width = 0.45mm
; top infill extrusion width = 0.40mm
; first layer extrusion width = 0.45mm

M107
M115 U3.0.12 ; tell printer latest fw version
M83  ; extruder relative mode
M104 S150
M140 S60 ; set bed temp
G28 W ; home all without mesh bed level
G0 Z80 F1000 ; go above the bed to keep PINDA cool
M190 S60 ; wait for bed temp
M104 S225 ; set extruder temp
G80 ; mesh bed leveling homes the head
G0 Z80 F1000 ; go higher to allow switch lock
M109 S225 ; wait for extruder temp
M0 Click when done retracting
G0 Z0 Y-3.0 F1000 ; go outside print area
G1 X60.0 E9.0 ; intro line
G1 X100.0 E12.5 ; intro line
; Filament gcode

G21 ; set units to millimeters
G90 ; use absolute coordinates
M83 ; use relative distances for extrusion
; Layer 0
G1 E-0.80000 F2100.00000
G1 Z0.250 F7200.000
G1 X105.302 Y84.082 F7200.000
G1 E0.80000 F2100.00000
M204 S1000
G1 F2100
G1 X105.761 Y82.596 E0.06408
G1 X106.288 Y81.516 E0.04951
G1 X106.909 Y80.578 E0.04633
G1 X107.477 Y79.902 E0.03638
G1 X108.315 Y79.107 E0.04757
G1 X109.224 Y78.444 E0.04635
G1 X110.240 Y77.887 E0.04773
G1 X111.317 Y77.468 E0.04762
G1 X112.433 Y77.193 E0.04737
G1 X113.982 Y77.054 E0.06404
G1 X136.004 Y77.054 E0.90722
G1 X137.542 Y77.188 E0.06361
G1 X139.034 Y77.587 E0.06364
G1 X140.440 Y78.241 E0.06388
G1 X141.710 Y79.128 E0.06382
G1 X142.811 Y80.227 E0.06408
G1 X143.702 Y81.498 E0.06393
G1 X144.357 Y82.899 E0.06370
G1 X144.758 Y84.390 E0.06361
G1 X144.896 Y85.938 E0.06402
G1 X144.896 Y121.541 E1.46668
G1 X144.799 Y122.586 E0.04326
G1 X144.467 Y123.729 E0.04902
G1 X143.981 Y124.677 E0.04390
G1 X143.353 Y125.498 E0.04257
G1 X137.496 Y131.359 E0.34134
G1 X136.395 Y132.170 E0.05634
G1 X135.048 Y132.731 E0.06014
G1 X134.262 Y132.893 E0.03306
G1 X133.501 Y132.946 E0.03141
G1 X116.505 Y132.946 E0.70014
G1 X115.464 Y132.849 E0.04311
G1 X114.321 Y132.517 E0.04901
G1 X113.371 Y132.030 E0.04400
G1 X112.546 Y131.399 E0.04277
G1 X106.653 Y125.506 E0.34332
G1 X106.147 Y124.871 E0.03346
G1 X105.680 Y124.063 E0.03844
G1 X105.381 Y123.307 E0.03350
G1 X105.192 Y122.538 E0.03262
G1 X105.104 Y121.529 E0.04171
G1 X105.104 Y85.916 E1.46713
G1 X105.296 Y84.142 E0.07349
G1 F5760
G1 X105.761 Y82.596 E-0.55921
G1 F5760
G1 X106.015 Y82.075 E-0.20079
G1 E-0.04000 F2100.00000
G1 X112.144 Y105.051 F7200.000
G1 E0.80000 F2100.00000
G1 F1680
G1 X112.534 Y104.525 E0.02698
G1 X112.649 Y103.994 E0.02238
G1 X112.643 Y103.187 E0.03326
G1 X112.559 Y102.846 E0.01444
G1 X112.371 Y102.485 E0.01679
G1 X109.095 Y99.179 E0.19175
G1 X108.908 Y98.924 E0.01300
G1 X108.752 Y98.640 E0.01336
G1 X108.635 Y98.337 E0.01336
G1 X108.555 Y98.011 E0.01382
G1 X108.528 Y97.808 E0.00846
G1 X108.524 Y85.711 E0.49833
G1 X108.566 Y85.235 E0.01971
G1 X108.649 Y84.764 E0.01970
G1 X108.772 Y84.302 E0.01970
G1 X108.932 Y83.863 E0.01924
G1 X109.254 Y83.210 E0.02999
G1 X109.652 Y82.614 E0.02953
G1 X110.125 Y82.075 E0.02953
G1 X110.664 Y81.602 E0.02953
G1 X111.260 Y81.204 E0.02953
G1 X111.903 Y80.887 E0.02953
G1 X112.582 Y80.657 E0.02953
G1 X113.285 Y80.517 E0.02953
G1 X114.033 Y80.468 E0.03090
G1 X136.238 Y80.474 E0.91473
G1 X136.716 Y80.516 E0.01976
G1 X137.186 Y80.599 E0.01970
G1 X137.648 Y80.722 E0.01970
G1 X138.098 Y80.886 E0.01970
G1 X138.531 Y81.088 E0.01970
G1 X138.945 Y81.327 E0.01970
G1 X139.337 Y81.601 E0.01970
G1 X139.703 Y81.909 E0.01970
G1 X140.041 Y82.247 E0.01970
G1 X140.349 Y82.613 E0.01970
G1 X140.623 Y83.005 E0.01970
G1 X140.862 Y83.419 E0.01970
G1 X141.064 Y83.852 E0.01970
G1 X141.228 Y84.302 E0.01970
G1 X141.351 Y84.764 E0.01970
G1 X141.433 Y85.224 E0.01924
G1 X141.482 Y85.983 E0.03136
G1 X141.472 Y97.797 E0.48666
G1 X141.421 Y98.128 E0.01382
G1 X141.331 Y98.440 E0.01336
G1 X141.200 Y98.737 E0.01337
G1 X141.026 Y99.023 E0.01380
G1 X140.913 Y99.170 E0.00763
G1 X137.702 Y102.401 E0.18766
G1 X137.447 Y102.801 E0.01955
G1 X137.351 Y103.284 E0.02029
G1 X137.362 Y104.143 E0.03540
G1 X137.505 Y104.579 E0.01888
G1 X137.768 Y104.949 E0.01868
G1 X138.075 Y105.186 E0.01599
G1 X138.865 Y105.602 E0.03679
G1 X139.436 Y106.004 E0.02876
G1 X139.951 Y106.476 E0.02879
G1 X140.402 Y107.010 E0.02879
G1 X140.787 Y107.605 E0.02918
G1 X140.988 Y108.003 E0.01836
G1 X141.243 Y108.675 E0.02963
G1 X141.355 Y109.106 E0.01836
G1 X141.462 Y109.818 E0.02963
G1 X141.482 Y110.295 E0.01970
G1 X141.472 Y121.727 E0.47092
G1 X141.420 Y122.069 E0.01428
G1 X141.292 Y122.471 E0.01736
G1 X141.093 Y122.855 E0.01782
G1 X140.829 Y123.198 E0.01783
G1 X135.250 Y128.782 E0.32517
G1 X134.981 Y129.018 E0.01473
G1 X134.712 Y129.198 E0.01336
G1 X134.421 Y129.341 E0.01336
G1 X134.113 Y129.446 E0.01336
G1 X133.795 Y129.509 E0.01336
G1 X133.438 Y129.532 E0.01474
G1 X116.551 Y129.532 E0.69570
G1 X116.312 Y129.522 E0.00983
G1 X115.897 Y129.449 E0.01736
G1 X115.569 Y129.338 E0.01428
G1 X115.383 Y129.251 E0.00846
G1 X115.195 Y129.143 E0.00892
G1 X114.852 Y128.879 E0.01782
G1 X109.178 Y123.206 E0.33054
G1 X108.961 Y122.935 E0.01428
G1 X108.851 Y122.762 E0.00846
G1 X108.756 Y122.580 E0.00846
G1 X108.631 Y122.257 E0.01428
G1 X108.542 Y121.857 E0.01688
G1 X108.518 Y121.488 E0.01523
G1 X108.518 Y110.295 E0.46110
G1 X108.538 Y109.819 E0.01965
G1 X108.645 Y109.106 E0.02968
G1 X108.757 Y108.676 E0.01831
G1 X109.008 Y108.013 E0.02923
G1 X109.336 Y107.396 E0.02879
G1 X109.740 Y106.826 E0.02879
G1 X110.214 Y106.312 E0.02879
G1 X110.757 Y105.855 E0.02923
G1 X111.131 Y105.603 E0.01858
G1 X112.091 Y105.080 E0.04504
G1 X111.877 Y104.745 F7200.000
G1 F1680
G1 X112.164 Y104.358 E0.01986
G1 X112.252 Y103.953 E0.01705
G1 X112.247 Y103.236 E0.02955
G1 X112.186 Y102.987 E0.01056
G1 X112.047 Y102.721 E0.01234
G1 X108.793 Y99.437 E0.19048
G1 X108.573 Y99.138 E0.01528
G1 X108.392 Y98.808 E0.01550
G1 X108.256 Y98.457 E0.01550
G1 X108.165 Y98.085 E0.01579
G1 X108.133 Y97.842 E0.01006
G1 X108.128 Y85.694 E0.50047
G1 X108.172 Y85.183 E0.02113
G1 X108.261 Y84.678 E0.02112
G1 X108.394 Y84.182 E0.02112
G1 X108.567 Y83.707 E0.02085
G1 X108.910 Y83.011 E0.03195
G1 X109.337 Y82.372 E0.03167
G1 X109.844 Y81.794 E0.03167
G1 X110.422 Y81.287 E0.03167
G1 X111.061 Y80.860 E0.03167
G1 X111.751 Y80.520 E0.03167
G1 X112.479 Y80.273 E0.03167
G1 X113.233 Y80.123 E0.03167
G1 X114.020 Y80.071 E0.03251
G1 X136.255 Y80.077 E0.91598
G1 X136.767 Y80.122 E0.02118
G1 X137.272 Y80.211 E0.02112
G1 X137.768 Y80.344 E0.02113
G1 X138.249 Y80.519 E0.02112
G1 X138.714 Y80.736 E0.02112
G1 X139.158 Y80.992 E0.02112
G1 X139.578 Y81.287 E0.02112
G1 X139.971 Y81.616 E0.02113
G1 X140.334 Y81.979 E0.02113
G1 X140.663 Y82.372 E0.02112
G1 X140.958 Y82.792 E0.02113
G1 X141.214 Y83.236 E0.02113
G1 X141.431 Y83.701 E0.02112
G1 X141.606 Y84.182 E0.02112
G1 X141.739 Y84.678 E0.02113
G1 X141.827 Y85.176 E0.02085
G1 X141.879 Y85.970 E0.03279
G1 X141.867 Y97.836 E0.48880
G1 X141.809 Y98.214 E0.01578
G1 X141.704 Y98.576 E0.01550
G1 X141.552 Y98.920 E0.01551
G1 X141.354 Y99.247 E0.01576
G1 X141.212 Y99.432 E0.00957
G1 X138.013 Y102.650 E0.18695
G1 X137.821 Y102.952 E0.01472
G1 X137.748 Y103.321 E0.01552
G1 X137.757 Y104.077 E0.03116
G1 X137.863 Y104.398 E0.01391
G1 X138.057 Y104.671 E0.01379
G1 X138.290 Y104.851 E0.01214
G1 X139.073 Y105.263 E0.03644
G1 X139.685 Y105.695 E0.03086
G1 X140.238 Y106.201 E0.03087
G1 X140.721 Y106.773 E0.03087
G1 X141.131 Y107.407 E0.03109
G1 X141.351 Y107.843 E0.02010
G1 X141.621 Y108.555 E0.03137
G1 X141.744 Y109.027 E0.02010
G1 X141.857 Y109.780 E0.03137
G1 X141.879 Y110.287 E0.02092
G1 X141.867 Y121.766 E0.47287
G1 X141.808 Y122.151 E0.01607
G1 X141.659 Y122.623 E0.02039
G1 X141.427 Y123.068 E0.02067
G1 X141.122 Y123.466 E0.02067
G1 X135.521 Y129.071 E0.32642
G1 X135.223 Y129.333 E0.01634
G1 X134.910 Y129.542 E0.01550
G1 X134.573 Y129.708 E0.01551
G1 X134.216 Y129.829 E0.01550
G1 X133.847 Y129.903 E0.01550
G1 X133.451 Y129.929 E0.01634
G1 X116.542 Y129.929 E0.69659
G1 X116.278 Y129.917 E0.01090
G1 X115.790 Y129.831 E0.02039
G1 X115.421 Y129.706 E0.01607
G1 X115.199 Y129.603 E0.01006
G1 X114.982 Y129.477 E0.01034
G1 X114.584 Y129.172 E0.02067
G1 X108.883 Y123.471 E0.33215
G1 X108.639 Y123.167 E0.01607
G1 X108.508 Y122.961 E0.01006
G1 X108.395 Y122.744 E0.01006
G1 X108.253 Y122.380 E0.01606
G1 X108.148 Y121.905 E0.02008
G1 X108.121 Y121.501 E0.01665
G1 X108.121 Y110.287 E0.46198
G1 X108.143 Y109.781 E0.02086
G1 X108.256 Y109.027 E0.03142
G1 X108.379 Y108.556 E0.02005
G1 X108.646 Y107.849 E0.03115
G1 X108.998 Y107.187 E0.03087
G1 X109.432 Y106.576 E0.03087
G1 X109.939 Y106.025 E0.03087
G1 X110.518 Y105.538 E0.03115
G1 X110.925 Y105.264 E0.02021
G1 X111.825 Y104.774 E0.04220
G1 F5760
G1 X112.164 Y104.358 E-0.18604
G1 F5760
G1 X112.252 Y103.953 E-0.14335
G1 F5760
G1 X112.247 Y103.236 E-0.24841
G1 F5760
G1 X112.186 Y102.987 E-0.08879
G1 F5760
G1 X112.061 Y102.748 E-0.09341
G1 E-0.04000 F2100.00000
G1 X111.812 Y103.128 F7200.000
G1 E0.80000 F2100.00000
G1 F1260
G1 X111.723 Y102.957 E0.00790
G1 X108.490 Y99.695 E0.18922
G1 X108.238 Y99.351 E0.01756
G1 X108.032 Y98.975 E0.01765
G1 X107.877 Y98.576 E0.01765
G1 X107.775 Y98.158 E0.01775
G1 X107.738 Y97.877 E0.01167
G1 X107.725 Y97.587 E0.01197
G1 X107.731 Y85.676 E0.49066
G1 X107.779 Y85.131 E0.02255
G1 X107.874 Y84.592 E0.02255
G1 X108.016 Y84.063 E0.02255
G1 X108.202 Y83.551 E0.02245
G1 X108.566 Y82.813 E0.03391
G1 X109.022 Y82.130 E0.03381
G1 X109.563 Y81.513 E0.03381
G1 X110.180 Y80.972 E0.03381
G1 X110.863 Y80.516 E0.03381
G1 X111.599 Y80.153 E0.03381
G1 X112.376 Y79.889 E0.03381
G1 X113.181 Y79.729 E0.03381
G1 X114.007 Y79.675 E0.03411
G1 X136.272 Y79.681 E0.91723
G1 X136.819 Y79.729 E0.02261
G1 X137.358 Y79.824 E0.02255
G1 X137.887 Y79.966 E0.02255
G1 X138.401 Y80.153 E0.02255
G1 X138.897 Y80.384 E0.02255
G1 X139.371 Y80.658 E0.02255
G1 X139.820 Y80.972 E0.02255
G1 X140.239 Y81.324 E0.02255
G1 X140.626 Y81.711 E0.02255
G1 X140.978 Y82.130 E0.02255
G1 X141.292 Y82.579 E0.02255
G1 X141.566 Y83.053 E0.02255
G1 X141.797 Y83.549 E0.02255
G1 X141.984 Y84.063 E0.02255
G1 X142.126 Y84.592 E0.02255
G1 X142.221 Y85.129 E0.02245
G1 X142.275 Y85.957 E0.03422
G1 X142.275 Y97.587 E0.47908
G1 X142.262 Y97.875 E0.01187
G1 X142.197 Y98.300 E0.01775
G1 X142.077 Y98.712 E0.01765
G1 X141.905 Y99.104 E0.01765
G1 X141.681 Y99.471 E0.01772
G1 X141.511 Y99.693 E0.01151
G1 X138.325 Y102.899 E0.18623
G1 X138.196 Y103.102 E0.00989
G1 X138.145 Y103.358 E0.01075
G1 X138.153 Y104.011 E0.02693
G1 X138.221 Y104.217 E0.00893
G1 X138.345 Y104.393 E0.00889
G1 X138.505 Y104.516 E0.00830
G1 X139.280 Y104.925 E0.03609
G1 X139.934 Y105.386 E0.03295
G1 X140.524 Y105.926 E0.03296
G1 X141.040 Y106.537 E0.03296
G1 X141.476 Y107.210 E0.03301
G1 X141.715 Y107.683 E0.02184
G1 X141.999 Y108.434 E0.03310
G1 X142.133 Y108.947 E0.02184
G1 X142.252 Y109.742 E0.03310
G1 X142.275 Y110.279 E0.02213
G1 X142.275 Y121.517 E0.46296
G1 X142.262 Y121.805 E0.01187
G1 X142.197 Y122.233 E0.01785
G1 X142.123 Y122.506 E0.01167
G1 X141.905 Y123.034 E0.02352
G1 X141.762 Y123.281 E0.01177
G1 X141.414 Y123.734 E0.02352
G1 X135.793 Y129.361 E0.32766
G1 X135.465 Y129.648 E0.01795
G1 X135.109 Y129.886 E0.01765
G1 X134.725 Y130.075 E0.01765
G1 X134.319 Y130.213 E0.01765
G1 X133.899 Y130.297 E0.01765
G1 X133.464 Y130.325 E0.01795
G1 X116.533 Y130.325 E0.69748
G1 X116.243 Y130.312 E0.01197
G1 X115.683 Y130.214 E0.02341
G1 X115.273 Y130.074 E0.01785
G1 X114.769 Y129.812 E0.02341
G1 X114.316 Y129.464 E0.02352
G1 X108.587 Y123.736 E0.33375
G1 X108.316 Y123.398 E0.01785
G1 X108.033 Y122.908 E0.02331
G1 X107.876 Y122.504 E0.01785
G1 X107.754 Y121.952 E0.02329
G1 X107.725 Y121.514 E0.01808
G1 X107.725 Y110.279 E0.46286
G1 X107.748 Y109.743 E0.02208
G1 X107.867 Y108.947 E0.03316
G1 X108.001 Y108.435 E0.02178
G1 X108.284 Y107.685 E0.03306
G1 X108.660 Y106.979 E0.03296
G1 X109.123 Y106.326 E0.03296
G1 X109.665 Y105.737 E0.03296
G1 X110.279 Y105.221 E0.03306
G1 X110.719 Y104.925 E0.02184
G1 X111.611 Y104.439 E0.04184
G1 X111.795 Y104.190 E0.01274
G1 X111.855 Y103.912 E0.01172
G1 X111.851 Y103.285 E0.02583
G1 X111.826 Y103.186 E0.00421
G1 X111.937 Y102.982 F7200.000
G1 F5760
G1 X111.723 Y102.957 E-0.08674
G1 F5760
G1 X110.355 Y101.577 E-0.67326
G1 E-0.04000 F2100.00000
G1 X108.693 Y98.076 F7200.000
G1 E0.80000 F2100.00000
G1 F1680
G1 X137.114 Y126.496 E1.66402
G1 X137.395 Y126.215 E0.01649
G1 X108.822 Y97.642 E1.67296
G1 X108.815 Y97.072 E0.02361
G1 X137.677 Y125.933 E1.68984
G1 X137.958 Y125.651 E0.01649
G1 X108.815 Y96.508 E1.70631
G1 X108.816 Y95.945 E0.02331
G1 X138.240 Y125.369 E1.72278
G1 X138.521 Y125.088 E0.01649
G1 X108.816 Y95.382 E1.73924
G1 X108.816 Y94.819 E0.02331
G1 X138.803 Y124.806 E1.75571
G1 X139.084 Y124.524 E0.01649
G1 X108.817 Y94.256 E1.77218
G1 X108.817 Y93.693 E0.02331
G1 X139.366 Y124.242 E1.78865
G1 X139.647 Y123.960 E0.01649
G1 X108.817 Y93.130 E1.80511
G1 X108.818 Y92.567 E0.02331
G1 X139.929 Y123.679 E1.82158
G1 X140.210 Y123.397 E0.01649
G1 X108.818 Y92.004 E1.83805
G1 X108.818 Y91.441 E0.02331
G1 X140.492 Y123.115 E1.85451
G1 X140.605 Y123.002 E0.00664
G1 X140.751 Y122.811 E0.00994
G1 X108.818 Y90.878 E1.86969
G1 X108.819 Y90.315 E0.02331
G1 X140.963 Y122.460 E1.88207
G1 X141.017 Y122.357 E0.00480
G1 X141.115 Y122.048 E0.01342
G1 X108.819 Y89.752 E1.89092
G1 X108.819 Y89.189 E0.02331
G1 X141.182 Y121.552 E1.89487
G1 X141.185 Y120.992 E0.02322
G1 X108.820 Y88.626 E1.89501
G1 X108.820 Y88.063 E0.02331
G1 X141.185 Y120.428 E1.89499
G1 X141.185 Y119.865 E0.02332
G1 X108.820 Y87.500 E1.89497
G1 X108.820 Y86.937 E0.02331
G1 X141.185 Y119.302 E1.89496
G1 X141.185 Y118.738 E0.02332
G1 X108.821 Y86.374 E1.89494
G1 X108.821 Y85.811 E0.02331
G1 X141.185 Y118.175 E1.89492
G1 X141.185 Y117.612 E0.02332
G1 X108.861 Y85.273 E1.89301
G1 X108.944 Y84.808 E0.01959
G1 X141.185 Y117.048 E1.88769
G1 X141.185 Y116.485 E0.02332
G1 X109.065 Y84.365 E1.88061
G1 X109.218 Y83.955 E0.01814
G1 X141.185 Y115.922 E1.87167
G1 X141.185 Y115.358 E0.02332
G1 X109.404 Y83.578 E1.86078
G1 X109.512 Y83.359 E0.01009
G1 X109.607 Y83.217 E0.00707
G1 X141.185 Y114.795 E1.84891
G1 X141.185 Y114.232 E0.02332
G1 X109.833 Y82.879 E1.83570
G1 X110.086 Y82.570 E0.01657
G1 X141.185 Y113.668 E1.82083
G1 X141.185 Y113.105 E0.02332
G1 X110.352 Y82.272 E1.80531
G1 X110.652 Y82.008 E0.01653
G1 X141.185 Y112.542 E1.78774
G1 X141.185 Y111.978 E0.02332
G1 X110.965 Y81.759 E1.76938
G1 X111.303 Y81.533 E0.01681
G1 X141.185 Y111.415 E1.74961
G1 X141.185 Y110.852 E0.02332
G1 X111.668 Y81.334 E1.72825
G1 X112.048 Y81.152 E0.01748
G1 X141.184 Y110.288 E1.70594
G1 X141.166 Y109.846 E0.01831
G1 X141.141 Y109.681 E0.00692
G1 X112.469 Y81.009 E1.67876
G1 X112.659 Y80.944 E0.00831
G1 X112.916 Y80.893 E0.01087
G1 X141.019 Y108.996 E1.64543
G1 X140.959 Y108.766 E0.00986
G1 X140.720 Y108.133 E0.02798
G1 X113.394 Y80.807 E1.59994
G1 X113.923 Y80.773 E0.02193
G1 X137.061 Y103.912 E1.35478
G1 X137.055 Y103.341 E0.02361
G1 X114.478 Y80.765 E1.32185
G1 X115.042 Y80.765 E0.02333
G1 X137.133 Y102.857 E1.29346
G1 X137.167 Y102.689 E0.00709
G1 X137.307 Y102.468 E0.01085
G1 X115.605 Y80.765 E1.27067
G1 X116.169 Y80.766 E0.02333
G1 X137.543 Y102.140 E1.25146
G1 X137.824 Y101.857 E0.01649
G1 X116.732 Y80.766 E1.23491
G1 X117.296 Y80.766 E0.02333
G1 X138.104 Y101.575 E1.21836
G1 X138.385 Y101.292 E0.01649
G1 X117.859 Y80.766 E1.20181
G1 X118.423 Y80.766 E0.02333
G1 X138.666 Y101.010 E1.18526
G1 X138.947 Y100.727 E0.01649
G1 X118.986 Y80.766 E1.16871
G1 X119.550 Y80.766 E0.02333
G1 X139.228 Y100.445 E1.15216
G1 X139.508 Y100.162 E0.01649
G1 X120.113 Y80.767 E1.13561
G1 X120.676 Y80.767 E0.02333
G1 X139.789 Y99.880 E1.11906
G1 X140.070 Y99.597 E0.01649
G1 X121.240 Y80.767 E1.10251
G1 X121.803 Y80.767 E0.02333
G1 X140.351 Y99.315 E1.08596
G1 X140.632 Y99.032 E0.01649
G1 X122.367 Y80.767 E1.06941
G1 X122.930 Y80.767 E0.02333
G1 X140.870 Y98.707 E1.05038
G1 X141.054 Y98.327 E0.01746
G1 X123.494 Y80.768 E1.02813
G1 X124.057 Y80.768 E0.02333
G1 X141.160 Y97.871 E1.00138
G1 X141.185 Y97.332 E0.02232
G1 X124.621 Y80.768 E0.96984
G1 X125.184 Y80.768 E0.02333
