; generated by Slic3r 1.37.1-prusa3d-win64 on 2017-10-20 at 10:55:40

; 

; external perimeters extrusion width = 0.45mm
; perimeters extrusion width = 0.45mm
; infill extrusion width = 0.45mm
; solid infill extrusion width = 0.45mm
; top infill extrusion width = 0.40mm
; first layer extrusion width = 0.42mm

M107
M115 U3.0.12 ; tell printer latest fw version
M83  ; extruder relative mode
M104 S150
M140 S55 ; set bed temp
G28 W ; home all without mesh bed level
G0 Z80 F1000 ; go above the bed to keep PINDA cool
M190 S55 ; wait for bed temp
M104 S215 ; set extruder temp
G80 ; mesh bed leveling homes the head
G0 Z80 F1000 ; go higher to allow switch lock
M109 S215 ; wait for extruder temp
M0 Click when done retracting
G0 Z0 Y-3.0 F1000 ; go outside print area
G1 X60.0 E9.0 ; intro line
G1 X100.0 E12.5 ; intro line
; Filament gcode

G21 ; set units to millimeters
G90 ; use absolute coordinates
M83 ; use relative distances for extrusion
; Layer 0
G1 E-0.80000 F2100.00000
G1 Z0.200 F7200.000
G1 X104.169 Y86.095 F7200.000
G1 E0.80000 F2100.00000
M204 S1000
G1 F2100
G1 X104.771 Y84.926 E0.04122
G1 X105.546 Y83.911 E0.04005
G1 X111.728 Y77.718 E0.27438
G1 X112.931 Y76.750 E0.04840
G1 X113.683 Y76.325 E0.02708
G1 X114.489 Y75.988 E0.02740
G1 X115.664 Y75.682 E0.03807
G1 X116.665 Y75.578 E0.03153
G1 X133.075 Y75.573 E0.51455
G1 X134.532 Y75.719 E0.04591
G1 X135.746 Y76.075 E0.03964
G1 X136.883 Y76.634 E0.03976
G1 X138.036 Y77.494 E0.04510
G1 X144.650 Y84.135 E0.29388
G1 X145.564 Y85.513 E0.05184
G1 X145.931 Y86.352 E0.02871
G1 X146.193 Y87.244 E0.02914
G1 X146.377 Y88.867 E0.05121
G1 X146.377 Y124.084 E1.10422
G1 X146.211 Y125.898 E0.05712
G1 X145.915 Y127.109 E0.03907
G1 X145.605 Y127.976 E0.02888
G1 X144.995 Y129.224 E0.04353
G1 X144.270 Y130.317 E0.04113
G1 X143.618 Y131.095 E0.03183
G1 X142.634 Y132.029 E0.04256
G1 X141.580 Y132.799 E0.04090
G1 X140.384 Y133.455 E0.04278
G1 X139.119 Y133.947 E0.04256
G1 X137.767 Y134.275 E0.04361
G1 X136.015 Y134.427 E0.05515
G1 X113.605 Y134.419 E0.70265
G1 X111.770 Y134.185 E0.05799
G1 X110.073 Y133.655 E0.05577
G1 X108.820 Y133.042 E0.04372
G1 X107.689 Y132.287 E0.04265
G1 X106.668 Y131.394 E0.04252
G1 X105.776 Y130.377 E0.04241
G1 X105.015 Y129.242 E0.04283
G1 X104.414 Y128.024 E0.04261
G1 X103.977 Y126.737 E0.04262
G1 X103.709 Y125.387 E0.04315
G1 X103.623 Y124.061 E0.04166
G1 X103.623 Y88.852 E1.10397
G1 X103.744 Y87.552 E0.04094
G1 X104.152 Y86.152 E0.04571
G1 F5760
G1 X104.771 Y84.926 E-0.47570
G1 F5760
G1 X105.269 Y84.274 E-0.28430
G1 E-0.04000 F2100.00000
G1 X107.413 Y88.913 F7200.000
G1 E0.80000 F2100.00000
G1 F1680
G1 X108.347 Y88.913 E0.02928
G1 X108.530 Y88.105 E0.02598
G1 X108.657 Y87.779 E0.01098
G1 X108.876 Y87.399 E0.01375
G1 X109.088 Y87.135 E0.01062
G1 X115.189 Y81.033 E0.27054
G1 X115.598 Y80.729 E0.01599
G1 X115.987 Y80.538 E0.01360
G1 X116.403 Y80.414 E0.01360
G1 X116.898 Y80.363 E0.01561
G1 X133.096 Y80.363 E0.50787
G1 X133.498 Y80.396 E0.01264
G1 X133.918 Y80.503 E0.01360
G1 X134.397 Y80.725 E0.01656
G1 X134.811 Y81.033 E0.01619
G1 X140.979 Y87.210 E0.27368
G1 X141.183 Y87.488 E0.01081
G1 X141.346 Y87.785 E0.01062
G1 X141.470 Y88.105 E0.01078
G1 X141.653 Y88.913 E0.02598
G1 X142.587 Y88.913 E0.02928
G1 X142.587 Y97.087 E0.25629
G1 X141.588 Y97.087 E0.03134
G1 X141.582 Y99.977 E0.09061
G1 X141.503 Y100.696 E0.02270
G1 X141.330 Y101.406 E0.02291
G1 X141.065 Y102.087 E0.02291
G1 X140.714 Y102.728 E0.02291
G1 X140.285 Y103.312 E0.02271
G1 X139.952 Y103.677 E0.01548
G1 X139.590 Y104.009 E0.01541
G1 X139.004 Y104.439 E0.02278
G1 X138.363 Y104.790 E0.02292
G1 X137.682 Y105.055 E0.02291
G1 X137.457 Y105.111 E0.00727
G1 X137.457 Y107.207 E0.06573
G1 X140.852 Y110.602 E0.15054
G1 X141.177 Y111.006 E0.01627
G1 X141.349 Y111.320 E0.01122
G1 X141.501 Y111.738 E0.01395
G1 X141.578 Y112.177 E0.01396
G1 X141.594 Y112.913 E0.02309
G1 X142.587 Y112.913 E0.03115
G1 X142.587 Y121.087 E0.25629
G1 X141.588 Y121.087 E0.03134
G1 X141.582 Y124.301 E0.10076
G1 X141.504 Y125.014 E0.02250
G1 X141.396 Y125.502 E0.01569
G1 X141.166 Y126.180 E0.02245
G1 X140.956 Y126.630 E0.01555
G1 X140.709 Y127.058 E0.01549
G1 X140.281 Y127.642 E0.02272
G1 X139.780 Y128.166 E0.02272
G1 X139.397 Y128.487 E0.01569
G1 X138.800 Y128.886 E0.02252
G1 X138.361 Y129.114 E0.01549
G1 X137.905 Y129.303 E0.01549
G1 X137.210 Y129.506 E0.02272
G1 X136.496 Y129.616 E0.02265
G1 X136.013 Y129.637 E0.01515
G1 X113.987 Y129.637 E0.69060
G1 X113.507 Y129.616 E0.01508
G1 X112.790 Y129.506 E0.02272
G1 X112.089 Y129.301 E0.02292
G1 X111.420 Y129.007 E0.02292
G1 X110.795 Y128.628 E0.02292
G1 X110.225 Y128.170 E0.02292
G1 X109.719 Y127.642 E0.02292
G1 X109.287 Y127.053 E0.02292
G1 X108.935 Y126.412 E0.02292
G1 X108.673 Y125.736 E0.02272
G1 X108.543 Y125.253 E0.01569
G1 X108.434 Y124.543 E0.02252
G1 X108.413 Y124.063 E0.01508
G1 X108.413 Y121.087 E0.09330
G1 X107.413 Y121.087 E0.03135
G1 X107.413 Y112.913 E0.25629
G1 X108.406 Y112.913 E0.03115
G1 X108.422 Y112.177 E0.02309
G1 X108.499 Y111.738 E0.01396
G1 X108.651 Y111.320 E0.01395
G1 X108.823 Y111.006 E0.01122
G1 X109.148 Y110.602 E0.01627
G1 X112.543 Y107.207 E0.15054
G1 X112.543 Y105.111 E0.06573
G1 X112.318 Y105.055 E0.00727
G1 X111.637 Y104.790 E0.02291
G1 X110.996 Y104.439 E0.02291
G1 X110.412 Y104.010 E0.02271
G1 X110.048 Y103.677 E0.01548
G1 X109.715 Y103.312 E0.01548
G1 X109.286 Y102.728 E0.02271
G1 X108.935 Y102.087 E0.02291
G1 X108.670 Y101.406 E0.02291
G1 X108.497 Y100.696 E0.02291
G1 X108.418 Y99.977 E0.02270
G1 X108.412 Y97.087 E0.09061
G1 X107.413 Y97.087 E0.03134
G1 X107.413 Y88.973 E0.25441
G1 X107.790 Y89.290 F7200.000
G1 F1260
G1 X109.190 Y89.290 E0.04390
G1 X109.190 Y88.810 E0.01505
G1 X108.757 Y88.810 E0.01359
G1 X108.891 Y88.215 E0.01911
G1 X108.997 Y87.942 E0.00920
G1 X109.188 Y87.612 E0.01194
G1 X109.369 Y87.387 E0.00907
G1 X115.436 Y81.319 E0.26904
G1 X115.795 Y81.052 E0.01403
G1 X116.125 Y80.891 E0.01152
G1 X116.477 Y80.786 E0.01152
G1 X116.918 Y80.740 E0.01389
G1 X133.080 Y80.740 E0.50677
G1 X133.435 Y80.769 E0.01117
G1 X133.791 Y80.860 E0.01152
G1 X134.203 Y81.051 E0.01423
G1 X134.564 Y81.319 E0.01410
G1 X140.692 Y87.456 E0.27191
G1 X140.864 Y87.691 E0.00913
G1 X141.003 Y87.944 E0.00907
G1 X141.109 Y88.215 E0.00912
G1 X141.243 Y88.810 E0.01911
G1 X140.810 Y88.810 E0.01359
G1 X140.810 Y89.290 E0.01505
G1 X142.210 Y89.290 E0.04390
G1 X142.210 Y96.710 E0.23265
G1 X140.810 Y96.710 E0.04390
G1 X140.810 Y97.190 E0.01505
G1 X141.210 Y97.190 E0.01255
G1 X141.205 Y99.956 E0.08673
G1 X141.131 Y100.631 E0.02129
G1 X140.969 Y101.293 E0.02136
G1 X140.723 Y101.928 E0.02136
G1 X140.395 Y102.525 E0.02136
G1 X139.993 Y103.073 E0.02129
G1 X139.685 Y103.410 E0.01432
G1 X139.350 Y103.717 E0.01425
G1 X138.801 Y104.120 E0.02136
G1 X138.203 Y104.448 E0.02137
G1 X137.568 Y104.695 E0.02136
G1 X137.080 Y104.815 E0.01577
G1 X137.080 Y107.363 E0.07990
G1 X140.571 Y110.854 E0.15479
G1 X140.862 Y111.217 E0.01459
G1 X141.004 Y111.476 E0.00928
G1 X141.135 Y111.836 E0.01201
G1 X141.202 Y112.214 E0.01201
G1 X141.214 Y112.810 E0.01870
G1 X140.810 Y112.810 E0.01268
G1 X140.810 Y113.290 E0.01505
G1 X142.210 Y113.290 E0.04390
G1 X142.210 Y120.710 E0.23265
G1 X140.810 Y120.710 E0.04390
G1 X140.810 Y121.190 E0.01505
G1 X141.210 Y121.190 E0.01255
G1 X141.205 Y124.280 E0.09688
G1 X141.132 Y124.953 E0.02122
G1 X141.032 Y125.401 E0.01440
G1 X140.815 Y126.040 E0.02116
G1 X140.622 Y126.456 E0.01439
G1 X140.393 Y126.851 E0.01432
G1 X139.991 Y127.399 E0.02130
G1 X139.522 Y127.890 E0.02130
G1 X139.170 Y128.185 E0.01440
G1 X138.607 Y128.561 E0.02123
G1 X138.202 Y128.772 E0.01432
G1 X137.780 Y128.947 E0.01432
G1 X137.128 Y129.137 E0.02130
G1 X136.459 Y129.240 E0.02123
G1 X136.005 Y129.260 E0.01425
G1 X113.995 Y129.260 E0.69008
G1 X113.544 Y129.240 E0.01418
G1 X112.872 Y129.137 E0.02130
G1 X112.218 Y128.946 E0.02137
G1 X111.594 Y128.672 E0.02137
G1 X111.011 Y128.318 E0.02137
G1 X110.480 Y127.892 E0.02137
G1 X110.009 Y127.399 E0.02137
G1 X109.606 Y126.850 E0.02137
G1 X109.278 Y126.252 E0.02137
G1 X109.032 Y125.619 E0.02130
G1 X108.913 Y125.175 E0.01440
G1 X108.810 Y124.506 E0.02123
G1 X108.790 Y124.055 E0.01418
G1 X108.790 Y121.190 E0.08982
G1 X109.190 Y121.190 E0.01254
G1 X109.190 Y120.710 E0.01505
G1 X107.790 Y120.710 E0.04390
G1 X107.790 Y113.290 E0.23265
G1 X109.190 Y113.290 E0.04390
G1 X109.190 Y112.810 E0.01505
G1 X108.786 Y112.810 E0.01268
G1 X108.798 Y112.214 E0.01870
G1 X108.865 Y111.836 E0.01201
G1 X108.996 Y111.476 E0.01201
G1 X109.138 Y111.217 E0.00928
G1 X109.429 Y110.854 E0.01459
G1 X112.920 Y107.363 E0.15479
G1 X112.920 Y104.815 E0.07990
G1 X112.432 Y104.695 E0.01577
G1 X111.797 Y104.448 E0.02136
G1 X111.199 Y104.120 E0.02136
G1 X110.652 Y103.718 E0.02129
G1 X110.315 Y103.410 E0.01432
G1 X110.007 Y103.073 E0.01432
G1 X109.605 Y102.525 E0.02129
G1 X109.277 Y101.928 E0.02136
G1 X109.031 Y101.293 E0.02136
G1 X108.869 Y100.631 E0.02136
G1 X108.795 Y99.956 E0.02129
G1 X108.790 Y97.190 E0.08673
G1 X109.190 Y97.190 E0.01255
G1 X109.190 Y96.710 E0.01505
G1 X107.790 Y96.710 E0.04390
G1 X107.790 Y89.350 E0.23077
G1 X107.765 Y88.891 F7200.000
G1 F5760
G1 X109.190 Y89.290 E-0.48534
G1 F5760
G1 X109.190 Y88.810 E-0.16625
G1 F5760
G1 X108.877 Y88.810 E-0.10841
G1 E-0.04000 F2100.00000
G1 X139.281 Y106.448 F7200.000
G1 E0.80000 F2100.00000
G1 F1680
G1 X142.112 Y109.279 E0.12554
G1 X142.367 Y109.557 E0.01182
G1 X142.587 Y109.840 E0.01124
G1 X142.880 Y110.309 E0.01733
G1 X143.110 Y110.805 E0.01714
G1 X143.278 Y111.329 E0.01727
G1 X143.352 Y111.682 E0.01131
G1 X143.397 Y112.044 E0.01143
G1 X143.413 Y112.420 E0.01181
G1 X143.405 Y124.373 E0.37477
G1 X143.349 Y125.018 E0.02028
G1 X143.237 Y125.654 E0.02027
G1 X143.069 Y126.279 E0.02028
G1 X142.848 Y126.887 E0.02028
G1 X142.573 Y127.477 E0.02044
G1 X142.423 Y127.751 E0.00978
G1 X142.069 Y128.306 E0.02064
G1 X141.683 Y128.810 E0.01991
G1 X141.237 Y129.296 E0.02068
G1 X141.013 Y129.511 E0.00974
G1 X140.507 Y129.935 E0.02068
G1 X140.257 Y130.118 E0.00974
G1 X139.706 Y130.469 E0.02048
G1 X139.130 Y130.769 E0.02037
G1 X138.842 Y130.896 E0.00985
G1 X138.226 Y131.120 E0.02057
G1 X137.925 Y131.208 E0.00985
G1 X137.284 Y131.350 E0.02057
G1 X136.652 Y131.434 E0.01998
G1 X135.987 Y131.463 E0.02088
G1 X114.013 Y131.463 E0.68899
G1 X113.354 Y131.434 E0.02068
G1 X112.713 Y131.350 E0.02028
G1 X112.075 Y131.208 E0.02048
G1 X111.777 Y131.121 E0.00974
G1 X111.157 Y130.896 E0.02068
G1 X110.873 Y130.771 E0.00974
G1 X110.294 Y130.469 E0.02048
G1 X109.746 Y130.120 E0.02037
G1 X109.492 Y129.935 E0.00985
G1 X108.988 Y129.512 E0.02064
G1 X108.758 Y129.292 E0.00998
G1 X108.539 Y129.063 E0.00994
G1 X108.119 Y128.562 E0.02048
G1 X107.747 Y128.030 E0.02037
G1 X107.428 Y127.478 E0.01998
G1 X107.152 Y126.887 E0.02048
G1 X106.929 Y126.273 E0.02048
G1 X106.842 Y125.975 E0.00974
G1 X106.700 Y125.337 E0.02048
G1 X106.616 Y124.696 E0.02028
G1 X106.587 Y124.037 E0.02068
G1 X106.587 Y112.421 E0.36421
G1 X106.604 Y112.030 E0.01227
G1 X106.694 Y111.447 E0.01850
G1 X106.790 Y111.088 E0.01167
G1 X107.002 Y110.544 E0.01830
G1 X107.282 Y110.032 E0.01830
G1 X107.496 Y109.728 E0.01167
G1 X107.893 Y109.274 E0.01890
G1 X110.730 Y106.437 E0.12580
G1 X109.851 Y105.869 E0.03284
G1 X109.343 Y105.493 E0.01981
G1 X108.864 Y105.071 E0.02002
G1 X108.650 Y104.857 E0.00947
G1 X108.232 Y104.381 E0.01988
G1 X107.857 Y103.875 E0.01975
G1 X107.525 Y103.334 E0.01991
G1 X107.383 Y103.067 E0.00947
G1 X107.119 Y102.483 E0.02011
G1 X107.012 Y102.200 E0.00947
G1 X106.827 Y101.596 E0.01981
G1 X106.694 Y100.978 E0.01982
G1 X106.614 Y100.355 E0.01971
G1 X106.587 Y99.714 E0.02011
G1 X106.587 Y88.891 E0.33933
G1 X106.604 Y88.500 E0.01227
G1 X106.694 Y87.918 E0.01848
G1 X106.792 Y87.552 E0.01189
G1 X106.924 Y87.190 E0.01207
G1 X107.086 Y86.841 E0.01207
G1 X107.279 Y86.508 E0.01207
G1 X107.499 Y86.192 E0.01207
G1 X107.747 Y85.897 E0.01207
G1 X113.800 Y79.838 E0.26853
G1 X114.072 Y79.587 E0.01162
G1 X114.515 Y79.257 E0.01733
G1 X114.991 Y78.986 E0.01714
G1 X115.502 Y78.775 E0.01733
G1 X115.845 Y78.673 E0.01124
G1 X116.202 Y78.598 E0.01143
G1 X116.564 Y78.553 E0.01143
G1 X116.940 Y78.537 E0.01181
G1 X133.252 Y78.541 E0.51143
G1 X133.617 Y78.571 E0.01150
G1 X133.977 Y78.631 E0.01143
G1 X134.331 Y78.721 E0.01143
G1 X134.676 Y78.839 E0.01143
G1 X135.009 Y78.986 E0.01143
G1 X135.330 Y79.159 E0.01143
G1 X135.630 Y79.356 E0.01124
G1 X136.064 Y79.708 E0.01753
G1 X142.111 Y85.749 E0.26800
G1 X142.376 Y86.037 E0.01227
G1 X142.721 Y86.508 E0.01830
G1 X143.001 Y87.019 E0.01827
G1 X143.144 Y87.363 E0.01169
G1 X143.309 Y87.930 E0.01850
G1 X143.374 Y88.296 E0.01167
G1 X143.413 Y88.898 E0.01890
G1 X143.413 Y99.714 E0.33913
G1 X143.386 Y100.355 E0.02011
G1 X143.306 Y100.981 E0.01981
G1 X143.248 Y101.281 E0.00958
G1 X143.088 Y101.896 E0.01991
G1 X142.877 Y102.493 E0.01988
G1 X142.758 Y102.772 E0.00951
G1 X142.469 Y103.345 E0.02011
G1 X142.317 Y103.605 E0.00947
G1 X141.963 Y104.129 E0.01981
G1 X141.566 Y104.621 E0.01982
G1 X141.127 Y105.080 E0.01991
G1 X140.905 Y105.284 E0.00947
G1 X140.412 Y105.683 E0.01988
G1 X139.330 Y106.415 E0.04095
G1 X139.870 Y106.505 F7200.000
G1 F1260
G1 X142.384 Y109.018 E0.11146
G1 X142.655 Y109.313 E0.01255
G1 X142.897 Y109.623 E0.01234
G1 X143.212 Y110.129 E0.01868
G1 X143.462 Y110.667 E0.01861
G1 X143.643 Y111.233 E0.01862
G1 X143.725 Y111.620 E0.01241
G1 X143.773 Y112.013 E0.01241
G1 X143.790 Y112.413 E0.01255
G1 X143.782 Y124.390 E0.37553
G1 X143.723 Y125.067 E0.02131
G1 X143.605 Y125.736 E0.02131
G1 X143.429 Y126.392 E0.02131
G1 X143.197 Y127.031 E0.02131
G1 X142.909 Y127.648 E0.02134
G1 X142.747 Y127.943 E0.01055
G1 X142.380 Y128.519 E0.02141
G1 X141.969 Y129.056 E0.02120
G1 X141.507 Y129.560 E0.02145
G1 X141.264 Y129.792 E0.01051
G1 X140.740 Y130.232 E0.02145
G1 X140.470 Y130.430 E0.01051
G1 X139.895 Y130.796 E0.02138
G1 X139.293 Y131.110 E0.02127
G1 X138.983 Y131.246 E0.01062
G1 X138.344 Y131.479 E0.02134
G1 X138.018 Y131.574 E0.01062
G1 X137.354 Y131.721 E0.02134
G1 X136.681 Y131.810 E0.02127
G1 X135.995 Y131.840 E0.02152
G1 X114.005 Y131.840 E0.68951
G1 X113.321 Y131.810 E0.02145
G1 X112.647 Y131.721 E0.02131
G1 X111.982 Y131.574 E0.02138
G1 X111.660 Y131.480 E0.01051
G1 X111.017 Y131.246 E0.02145
G1 X110.710 Y131.111 E0.01051
G1 X110.105 Y130.796 E0.02138
G1 X109.533 Y130.432 E0.02127
G1 X109.260 Y130.232 E0.01062
G1 X108.736 Y129.793 E0.02141
G1 X108.492 Y129.558 E0.01062
G1 X108.258 Y129.314 E0.01058
G1 X107.820 Y128.792 E0.02138
G1 X107.431 Y128.236 E0.02127
G1 X107.091 Y127.649 E0.02127
G1 X106.803 Y127.031 E0.02138
G1 X106.570 Y126.390 E0.02138
G1 X106.476 Y126.068 E0.01051
G1 X106.329 Y125.403 E0.02138
G1 X106.240 Y124.729 E0.02131
G1 X106.210 Y124.045 E0.02145
G1 X106.210 Y112.413 E0.36473
G1 X106.228 Y111.993 E0.01317
G1 X106.324 Y111.370 E0.01979
G1 X106.431 Y110.970 E0.01296
G1 X106.659 Y110.384 E0.01972
G1 X106.962 Y109.833 E0.01972
G1 X107.199 Y109.494 E0.01296
G1 X107.618 Y109.017 E0.01993
G1 X110.134 Y106.501 E0.11156
G1 X109.636 Y106.179 E0.01858
G1 X109.106 Y105.786 E0.02068
G1 X108.606 Y105.346 E0.02090
G1 X108.375 Y105.115 E0.01022
G1 X107.938 Y104.618 E0.02075
G1 X107.545 Y104.086 E0.02075
G1 X107.197 Y103.521 E0.02079
G1 X107.044 Y103.233 E0.01022
G1 X106.770 Y102.627 E0.02086
G1 X106.655 Y102.322 E0.01022
G1 X106.462 Y101.691 E0.02068
G1 X106.322 Y101.042 E0.02083
G1 X106.238 Y100.387 E0.02072
G1 X106.210 Y99.722 E0.02086
G1 X106.210 Y88.883 E0.33984
G1 X106.228 Y88.463 E0.01317
G1 X106.324 Y87.840 E0.01977
G1 X106.432 Y87.438 E0.01305
G1 X106.575 Y87.045 E0.01310
G1 X106.751 Y86.667 E0.01310
G1 X106.960 Y86.305 E0.01310
G1 X107.200 Y85.963 E0.01310
G1 X107.469 Y85.642 E0.01310
G1 X113.538 Y79.566 E0.26929
G1 X113.831 Y79.296 E0.01248
G1 X114.309 Y78.940 E0.01868
G1 X114.825 Y78.647 E0.01861
G1 X115.375 Y78.419 E0.01868
G1 X115.753 Y78.307 E0.01234
G1 X116.140 Y78.226 E0.01241
G1 X116.533 Y78.177 E0.01241
G1 X116.933 Y78.160 E0.01255
G1 X133.267 Y78.164 E0.51216
G1 X133.664 Y78.197 E0.01248
G1 X134.055 Y78.262 E0.01241
G1 X134.438 Y78.359 E0.01241
G1 X134.813 Y78.488 E0.01241
G1 X135.175 Y78.647 E0.01241
G1 X135.523 Y78.835 E0.01241
G1 X135.853 Y79.051 E0.01234
