; generated by Slic3r 1.37.1-prusa3d-win64 on 2017-09-24 at 02:14:02

; 

; external perimeters extrusion width = 0.43mm
; perimeters extrusion width = 0.45mm
; infill extrusion width = 0.47mm
; solid infill extrusion width = 0.43mm
; top infill extrusion width = 0.42mm
; first layer extrusion width = 0.50mm

M107
M115 U3.0.12 ; tell printer latest fw version
M83  ; extruder relative mode
M104 S150
M140 S115 ; set bed temp
G28 W ; home all without mesh bed level
G0 Z80 F1000 ; go above the bed to keep PINDA cool
M190 S115 ; wait for bed temp
M104 S290 ; set extruder temp
G80 ; mesh bed leveling homes the head
G0 Z80 F1000 ; go higher to allow switch lock
M109 S290 ; wait for extruder temp
M0 Click when done retracting
G0 Z0 Y-3.0 F1000 ; go outside print area
G1 X60.0 E9.0 ; intro line
G1 X100.0 E12.5 ; intro line
; Filament gcode
G21 ; set units to millimeters
G90 ; use absolute coordinates
M83 ; use relative distances for extrusion
; Layer 0
G1 E-0.80000 F2100.00000
G1 Z0.200 F7200.000
G1 X107.415 Y92.844 F7200.000
G1 E0.80000 F2100.00000
M204 S1000
G1 F2100
G1 X109.006 Y91.718 E0.07777
G1 X110.794 Y90.910 E0.07831
G1 X112.686 Y90.471 E0.07749
G1 X113.930 Y90.389 E0.04977
G1 X136.056 Y90.389 E0.88296
G1 X137.676 Y90.525 E0.06487
G1 X139.154 Y90.893 E0.06081
G1 X140.635 Y91.521 E0.06417
G1 X142.013 Y92.386 E0.06494
G1 X143.256 Y93.471 E0.06586
G1 X144.350 Y94.778 E0.06800
G1 X145.150 Y96.076 E0.06088
G1 X145.824 Y97.619 E0.06717
G1 X146.282 Y99.297 E0.06943
G1 X146.478 Y100.778 E0.05961
G1 X146.457 Y107.378 E0.26336
G1 X146.179 Y108.959 E0.06406
G1 X145.726 Y110.327 E0.05755
G1 X145.085 Y111.626 E0.05778
G1 X144.173 Y112.947 E0.06405
G1 X143.420 Y113.780 E0.04482
G1 X142.421 Y114.654 E0.05295
G1 X141.355 Y115.373 E0.05134
G1 X140.192 Y115.964 E0.05203
G1 X119.034 Y123.896 E0.90173
G1 X117.893 Y124.133 E0.04654
G1 X116.889 Y124.223 E0.04022
G1 X115.742 Y124.195 E0.04577
G1 X114.620 Y124.029 E0.04527
G1 X113.641 Y123.768 E0.04042
G1 X112.578 Y123.350 E0.04563
G1 X111.575 Y122.806 E0.04553
G1 X110.752 Y122.230 E0.04009
G1 X109.899 Y121.475 E0.04544
G1 X109.142 Y120.620 E0.04555
G1 X108.566 Y119.797 E0.04011
G1 X108.021 Y118.790 E0.04569
G1 X103.831 Y107.714 E0.47256
G1 X103.571 Y106.740 E0.04025
G1 X103.493 Y105.896 E0.03382
G1 X103.498 Y101.271 E0.18456
G1 X103.710 Y99.337 E0.07767
G1 X104.044 Y98.014 E0.05443
G1 X104.542 Y96.708 E0.05578
G1 X105.190 Y95.476 E0.05557
G1 X105.983 Y94.334 E0.05546
G1 X107.373 Y92.887 E0.08009
G1 F5760
G1 X109.006 Y91.718 E-0.69541
G1 F5760
G1 X109.176 Y91.641 E-0.06459
G1 E-0.04000 F2100.00000
G1 X108.243 Y93.835 F7200.000
G1 E0.80000 F2100.00000
G1 F2100
G1 X108.941 Y93.306 E0.03495
G1 X109.660 Y92.860 E0.03377
G1 X110.320 Y92.526 E0.02951
G1 X111.089 Y92.219 E0.03304
G1 X111.862 Y91.990 E0.03220
G1 X112.649 Y91.833 E0.03202
G1 X113.446 Y91.749 E0.03199
G1 X136.220 Y91.738 E0.90882
G1 X136.957 Y91.782 E0.02946
G1 X137.703 Y91.894 E0.03008
G1 X138.435 Y92.068 E0.03003
G1 X139.146 Y92.304 E0.02991
G1 X139.841 Y92.602 E0.03018
G1 X140.502 Y92.952 E0.02986
G1 X141.159 Y93.375 E0.03119
G1 X141.776 Y93.850 E0.03103
G1 X142.366 Y94.388 E0.03188
G1 X142.953 Y95.025 E0.03457
G1 X143.755 Y96.119 E0.05412
G1 X144.152 Y96.805 E0.03166
G1 X144.488 Y97.500 E0.03078
G1 X144.778 Y98.234 E0.03151
G1 X145.014 Y98.994 E0.03176
G1 X145.271 Y100.224 E0.05011
G1 X145.387 Y101.486 E0.05060
G1 X145.392 Y106.424 E0.19706
G1 X145.306 Y107.635 E0.04842
G1 X145.166 Y108.406 E0.03129
G1 X144.967 Y109.148 E0.03066
G1 X144.715 Y109.854 E0.02991
G1 X144.398 Y110.555 E0.03072
G1 X144.017 Y111.241 E0.03130
G1 X143.538 Y111.949 E0.03412
G1 X142.778 Y112.843 E0.04682
G1 X141.921 Y113.628 E0.04637
G1 X141.192 Y114.162 E0.03605
G1 X140.361 Y114.649 E0.03843
G1 X139.440 Y115.067 E0.04036
G1 X118.879 Y122.781 E0.87640
G1 X117.901 Y123.005 E0.04003
G1 X117.270 Y123.083 E0.02535
G1 X116.644 Y123.115 E0.02504
G1 X115.609 Y123.061 E0.04135
G1 X114.577 Y122.877 E0.04184
G1 X113.479 Y122.525 E0.04598
G1 X112.494 Y122.055 E0.04356
G1 X111.584 Y121.463 E0.04335
G1 X110.788 Y120.785 E0.04172
G1 X110.180 Y120.130 E0.03565
G1 X109.641 Y119.407 E0.03601
G1 X109.233 Y118.723 E0.03177
G1 X108.896 Y118.012 E0.03142
G1 X104.825 Y107.191 E0.46136
G1 X104.659 Y106.518 E0.02767
G1 X104.612 Y101.526 E0.19921
G1 X104.698 Y100.453 E0.04296
G1 X104.896 Y99.352 E0.04463
G1 X105.100 Y98.602 E0.03105
G1 X105.360 Y97.863 E0.03127
G1 X105.945 Y96.624 E0.05465
G1 X106.365 Y95.935 E0.03219
G1 X106.838 Y95.280 E0.03225
G1 X107.586 Y94.438 E0.04496
G1 X108.199 Y93.876 E0.03317
G1 X108.507 Y94.213 F7200.000
G1 F2100
G1 X109.207 Y93.677 E0.03518
G1 X109.892 Y93.254 E0.03212
G1 X110.499 Y92.946 E0.02717
G1 X111.229 Y92.654 E0.03136
G1 X111.982 Y92.431 E0.03136
G1 X112.708 Y92.286 E0.02954
G1 X113.459 Y92.206 E0.03013
G1 X136.200 Y92.195 E0.90752
G1 X136.900 Y92.236 E0.02799
G1 X137.607 Y92.341 E0.02850
G1 X138.300 Y92.505 E0.02845
G1 X138.993 Y92.735 E0.02912
G1 X139.652 Y93.018 E0.02862
G1 X140.279 Y93.351 E0.02835
G1 X140.889 Y93.744 E0.02893
G1 X141.475 Y94.194 E0.02949
G1 X142.051 Y94.719 E0.03111
G1 X142.592 Y95.305 E0.03185
G1 X143.379 Y96.379 E0.05310
G1 X143.752 Y97.026 E0.02983
G1 X144.072 Y97.691 E0.02943
G1 X144.349 Y98.394 E0.03017
G1 X144.569 Y99.099 E0.02945
G1 X144.821 Y100.304 E0.04914
G1 X144.930 Y101.517 E0.04861
G1 X144.935 Y106.416 E0.19551
G1 X144.851 Y107.589 E0.04693
G1 X144.722 Y108.297 E0.02871
G1 X144.533 Y109.004 E0.02919
G1 X144.294 Y109.675 E0.02843
G1 X143.994 Y110.342 E0.02919
G1 X143.622 Y111.010 E0.03052
G1 X143.181 Y111.663 E0.03143
G1 X142.439 Y112.536 E0.04574
G1 X141.640 Y113.267 E0.04320
G1 X140.950 Y113.773 E0.03416
G1 X140.141 Y114.249 E0.03747
G1 X139.259 Y114.647 E0.03861
G1 X118.761 Y122.339 E0.87370
G1 X117.832 Y122.553 E0.03805
G1 X117.239 Y122.627 E0.02386
G1 X116.633 Y122.658 E0.02422
G1 X115.648 Y122.605 E0.03935
G1 X114.673 Y122.429 E0.03954
G1 X113.662 Y122.105 E0.04238
G1 X112.730 Y121.663 E0.04116
G1 X111.869 Y121.105 E0.04095
G1 X111.095 Y120.445 E0.04059
G1 X110.539 Y119.847 E0.03259
G1 X110.027 Y119.161 E0.03414
G1 X109.641 Y118.517 E0.02997
G1 X109.313 Y117.825 E0.03059
G1 X105.258 Y107.043 E0.45967
G1 X105.109 Y106.435 E0.02497
G1 X105.070 Y101.533 E0.19565
G1 X105.150 Y100.523 E0.04042
G1 X105.344 Y99.444 E0.04376
G1 X105.539 Y98.731 E0.02950
G1 X105.787 Y98.026 E0.02983
G1 X106.353 Y96.831 E0.05275
G1 X106.750 Y96.181 E0.03040
G1 X107.188 Y95.575 E0.02984
G1 X107.920 Y94.750 E0.04402
G1 X108.463 Y94.254 E0.02935
G1 X108.771 Y94.591 F7200.000
G1 F2100
G1 X109.473 Y94.049 E0.03542
G1 X110.123 Y93.648 E0.03047
G1 X110.679 Y93.367 E0.02487
G1 X111.369 Y93.089 E0.02967
G1 X112.102 Y92.872 E0.03050
G1 X112.768 Y92.740 E0.02709
G1 X113.472 Y92.664 E0.02826
G1 X136.180 Y92.651 E0.90623
G1 X136.844 Y92.690 E0.02652
G1 X137.511 Y92.788 E0.02692
G1 X138.167 Y92.943 E0.02688
G1 X138.822 Y93.159 E0.02752
G1 X139.463 Y93.434 E0.02782
G1 X140.055 Y93.750 E0.02681
G1 X140.633 Y94.123 E0.02742
G1 X141.188 Y94.550 E0.02797
G1 X141.735 Y95.050 E0.02956
G1 X142.248 Y95.606 E0.03018
G1 X142.989 Y96.618 E0.05009
G1 X143.344 Y97.233 E0.02833
G1 X143.650 Y97.866 E0.02807
G1 X143.915 Y98.538 E0.02883
G1 X144.130 Y99.224 E0.02868
G1 X144.367 Y100.359 E0.04625
G1 X144.473 Y101.528 E0.04685
G1 X144.478 Y106.409 E0.19477
G1 X144.399 Y107.520 E0.04447
G1 X144.278 Y108.189 E0.02712
G1 X144.099 Y108.860 E0.02769
G1 X143.867 Y109.513 E0.02767
G1 X143.581 Y110.145 E0.02767
G1 X143.228 Y110.779 E0.02897
G1 X142.810 Y111.396 E0.02974
G1 X142.101 Y112.228 E0.04365
G1 X141.342 Y112.921 E0.04099
G1 X140.690 Y113.398 E0.03222
G1 X139.921 Y113.848 E0.03558
G1 X139.078 Y114.227 E0.03686
G1 X118.643 Y121.897 E0.87104
G1 X117.763 Y122.101 E0.03605
G1 X117.190 Y122.173 E0.02304
G1 X116.622 Y122.201 E0.02270
G1 X115.688 Y122.150 E0.03735
G1 X114.770 Y121.983 E0.03722
G1 X113.817 Y121.675 E0.03998
G1 X112.941 Y121.257 E0.03874
G1 X112.131 Y120.730 E0.03855
G1 X111.402 Y120.107 E0.03827
G1 X110.882 Y119.546 E0.03052
G1 X110.401 Y118.898 E0.03221
G1 X110.039 Y118.293 E0.02814
G1 X109.730 Y117.638 E0.02889
G1 X105.691 Y106.895 E0.45800
G1 X105.560 Y106.354 E0.02225
G1 X105.527 Y101.539 E0.19212
G1 X105.601 Y100.593 E0.03790
G1 X105.792 Y99.535 E0.04289
G1 X105.977 Y98.860 E0.02793
G1 X106.214 Y98.189 E0.02839
G1 X106.761 Y97.038 E0.05084
G1 X107.126 Y96.441 E0.02794
G1 X107.538 Y95.870 E0.02811
G1 X108.254 Y95.062 E0.04306
G1 X108.726 Y94.632 E0.02552
G1 X109.034 Y94.970 F7200.000
G1 F2100
G1 X109.155 Y94.860 E0.00652
G1 X109.739 Y94.421 E0.02916
G1 X110.354 Y94.043 E0.02882
G1 X110.876 Y93.779 E0.02333
G1 X111.529 Y93.517 E0.02806
G1 X112.221 Y93.314 E0.02878
G1 X112.846 Y93.190 E0.02544
G1 X113.508 Y93.119 E0.02657
G1 X136.161 Y93.108 E0.90399
G1 X136.807 Y93.145 E0.02584
G1 X137.434 Y93.238 E0.02530
G1 X138.051 Y93.385 E0.02531
G1 X138.669 Y93.589 E0.02594
G1 X139.273 Y93.850 E0.02624
G1 X139.831 Y94.148 E0.02528
G1 X140.376 Y94.501 E0.02591
G1 X140.901 Y94.906 E0.02645
G1 X141.419 Y95.380 E0.02802
G1 X141.902 Y95.906 E0.02851
G1 X142.600 Y96.858 E0.04710
G1 X142.937 Y97.440 E0.02681
G1 X143.235 Y98.057 E0.02738
G1 X143.487 Y98.698 E0.02746
G1 X143.690 Y99.349 E0.02724
G1 X143.917 Y100.439 E0.04441
G1 X144.016 Y101.539 E0.04407
G1 X144.021 Y106.401 E0.19404
G1 X143.947 Y107.451 E0.04201
G1 X143.829 Y108.098 E0.02625
G1 X143.660 Y108.732 E0.02619
G1 X143.440 Y109.350 E0.02617
G1 X143.169 Y109.947 E0.02616
G1 X142.834 Y110.547 E0.02743
G1 X142.439 Y111.129 E0.02805
G1 X141.763 Y111.920 E0.04155
G1 X141.044 Y112.574 E0.03878
G1 X140.430 Y113.021 E0.03029
G1 X139.701 Y113.447 E0.03370
G1 X138.898 Y113.807 E0.03513
G1 X118.525 Y121.455 E0.86841
G1 X117.694 Y121.649 E0.03406
G1 X117.159 Y121.717 E0.02152
G1 X116.612 Y121.744 E0.02186
G1 X115.728 Y121.694 E0.03533
G1 X114.868 Y121.536 E0.03489
G1 X113.973 Y121.245 E0.03757
G1 X113.152 Y120.852 E0.03631
G1 X112.394 Y120.356 E0.03616
G1 X111.710 Y119.769 E0.03595
G1 X111.227 Y119.245 E0.02845
G1 X110.775 Y118.636 E0.03029
G1 X110.438 Y118.069 E0.02630
G1 X110.148 Y117.452 E0.02721
G1 X106.124 Y106.748 E0.45634
G1 X106.010 Y106.273 E0.01949
G1 X105.984 Y101.547 E0.18863
G1 X106.053 Y100.662 E0.03542
G1 X106.235 Y99.646 E0.04118
G1 X106.416 Y98.989 E0.02717
G1 X106.641 Y98.353 E0.02694
G1 X107.157 Y97.267 E0.04799
G1 X107.512 Y96.687 E0.02711
G1 X107.902 Y96.147 E0.02660
G1 X108.587 Y95.375 E0.04118
G1 X108.989 Y95.010 E0.02168
G1 X108.920 Y95.689 F7200.000
G1 F2100
G1 X109.453 Y95.206 E0.02871
G1 X110.004 Y94.793 E0.02746
G1 X110.585 Y94.438 E0.02718
G1 X111.073 Y94.192 E0.02180
G1 X111.688 Y93.946 E0.02645
G1 X112.339 Y93.755 E0.02706
G1 X112.924 Y93.641 E0.02379
G1 X113.544 Y93.575 E0.02489
G1 X136.141 Y93.565 E0.90179
G1 X136.751 Y93.599 E0.02437
G1 X137.339 Y93.686 E0.02372
G1 X137.918 Y93.822 E0.02374
G1 X138.498 Y94.013 E0.02435
G1 X139.066 Y94.258 E0.02469
G1 X139.591 Y94.538 E0.02374
G1 X140.120 Y94.880 E0.02514
G1 X140.614 Y95.261 E0.02490
G1 X141.102 Y95.710 E0.02647
G1 X141.557 Y96.205 E0.02684
G1 X142.210 Y97.098 E0.04413
G1 X142.537 Y97.661 E0.02598
G1 X142.820 Y98.248 E0.02600
G1 X143.058 Y98.857 E0.02610
G1 X143.250 Y99.474 E0.02581
G1 X143.463 Y100.494 E0.04155
G1 X143.559 Y101.549 E0.04231
G1 X143.564 Y106.393 E0.19331
G1 X143.495 Y107.382 E0.03957
G1 X143.385 Y107.990 E0.02462
G1 X143.221 Y108.605 E0.02542
G1 X143.013 Y109.187 E0.02465
G1 X142.757 Y109.749 E0.02466
G1 X142.440 Y110.315 E0.02588
G1 X142.069 Y110.861 E0.02636
G1 X141.425 Y111.611 E0.03945
G1 X140.746 Y112.227 E0.03657
G1 X140.171 Y112.645 E0.02838
G1 X139.503 Y113.035 E0.03088
G1 X138.730 Y113.382 E0.03378
G1 X118.406 Y121.014 E0.86637
G1 X117.624 Y121.197 E0.03204
G1 X117.110 Y121.262 E0.02068
G1 X116.602 Y121.287 E0.02033
G1 X115.796 Y121.242 E0.03218
G1 X114.966 Y121.089 E0.03368
G1 X114.130 Y120.816 E0.03512
G1 X113.365 Y120.447 E0.03389
G1 X112.657 Y119.983 E0.03377
G1 X112.019 Y119.432 E0.03363
G1 X111.572 Y118.945 E0.02638
G1 X111.150 Y118.374 E0.02837
G1 X110.837 Y117.846 E0.02447
G1 X110.566 Y117.267 E0.02553
G1 X106.557 Y106.602 E0.45468
G1 X106.461 Y106.194 E0.01670
G1 X106.441 Y101.554 E0.18517
G1 X106.505 Y100.731 E0.03296
G1 X106.679 Y99.757 E0.03948
G1 X106.850 Y99.134 E0.02576
G1 X107.068 Y98.517 E0.02614
G1 X107.553 Y97.495 E0.04515
G1 X107.888 Y96.948 E0.02558
G1 X108.265 Y96.424 E0.02578
G1 X108.880 Y95.734 E0.03688
G1 X109.221 Y96.038 F7200.000
G1 F2100
G1 X109.751 Y95.552 E0.02870
G1 X110.269 Y95.166 E0.02577
G1 X110.815 Y94.833 E0.02553
G1 X111.269 Y94.605 E0.02027
G1 X111.847 Y94.375 E0.02484
G1 X112.456 Y94.197 E0.02533
G1 X113.001 Y94.091 E0.02214
G1 X113.579 Y94.031 E0.02321
G1 X136.123 Y94.021 E0.89963
G1 X136.696 Y94.053 E0.02290
G1 X137.244 Y94.133 E0.02211
G1 X137.803 Y94.265 E0.02293
G1 X138.344 Y94.444 E0.02275
G1 X138.876 Y94.673 E0.02311
G1 X139.367 Y94.936 E0.02221
G1 X139.863 Y95.258 E0.02361
G1 X140.326 Y95.616 E0.02336
G1 X140.785 Y96.040 E0.02493
G1 X141.212 Y96.505 E0.02518
G1 X141.821 Y97.338 E0.04119
G1 X142.129 Y97.868 E0.02446
G1 X142.397 Y98.423 E0.02462
G1 X142.624 Y99.000 E0.02474
G1 X142.810 Y99.599 E0.02503
G1 X143.012 Y100.574 E0.03971
G1 X143.102 Y101.560 E0.03953
G1 X143.107 Y106.386 E0.19258
G1 X143.042 Y107.314 E0.03714
G1 X142.941 Y107.882 E0.02300
G1 X142.788 Y108.460 E0.02388
G1 X142.586 Y109.023 E0.02387
G1 X142.345 Y109.550 E0.02313
G1 X142.047 Y110.082 E0.02433
G1 X141.698 Y110.593 E0.02467
G1 X141.088 Y111.302 E0.03735
G1 X140.449 Y111.879 E0.03434
G1 X139.912 Y112.268 E0.02647
G1 X139.304 Y112.623 E0.02810
G1 X138.563 Y112.956 E0.03243
G1 X118.287 Y120.572 E0.86434
G1 X117.554 Y120.745 E0.03004
G1 X117.079 Y120.806 E0.01911
G1 X116.592 Y120.829 E0.01948
G1 X115.837 Y120.787 E0.03016
G1 X115.066 Y120.643 E0.03133
G1 X114.288 Y120.387 E0.03268
G1 X113.578 Y120.042 E0.03146
G1 X112.922 Y119.610 E0.03138
G1 X112.329 Y119.096 E0.03131
G1 X111.918 Y118.646 E0.02432
G1 X111.525 Y118.112 E0.02645
G1 X111.236 Y117.623 E0.02265
G1 X110.991 Y117.097 E0.02316
G1 X106.990 Y106.455 E0.45370
G1 X106.912 Y106.117 E0.01386
G1 X106.898 Y101.562 E0.18177
G1 X106.957 Y100.799 E0.03053
G1 X107.122 Y99.867 E0.03776
G1 X107.288 Y99.263 E0.02500
G1 X107.495 Y98.681 E0.02467
G1 X107.950 Y97.723 E0.04233
G1 X108.273 Y97.193 E0.02474
G1 X108.629 Y96.701 E0.02424
G1 X109.181 Y96.083 E0.03308
G1 X109.521 Y96.388 F7200.000
G1 F2100
G1 X110.049 Y95.900 E0.02867
G1 X110.533 Y95.540 E0.02408
G1 X111.044 Y95.228 E0.02388
G1 X111.464 Y95.019 E0.01874
G1 X112.005 Y94.804 E0.02323
G1 X112.573 Y94.639 E0.02360
G1 X113.077 Y94.542 E0.02049
G1 X113.614 Y94.487 E0.02155
G1 X136.105 Y94.478 E0.89752
G1 X136.640 Y94.507 E0.02141
G1 X137.168 Y94.584 E0.02129
G1 X137.670 Y94.702 E0.02056
G1 X138.173 Y94.868 E0.02114
G1 X138.686 Y95.089 E0.02230
G1 X139.142 Y95.334 E0.02065
G1 X139.606 Y95.636 E0.02208
G1 X140.037 Y95.971 E0.02182
G1 X140.468 Y96.369 E0.02338
G1 X140.866 Y96.804 E0.02353
G1 X141.432 Y97.578 E0.03829
G1 X141.722 Y98.075 E0.02295
G1 X141.975 Y98.599 E0.02323
G1 X142.196 Y99.160 E0.02404
G1 X142.370 Y99.724 E0.02357
G1 X142.558 Y100.629 E0.03688
G1 X142.645 Y101.571 E0.03777
G1 X142.650 Y106.379 E0.19185
G1 X142.590 Y107.246 E0.03471
G1 X142.493 Y107.792 E0.02211
G1 X142.349 Y108.333 E0.02234
G1 X142.159 Y108.859 E0.02233
G1 X141.934 Y109.351 E0.02160
G1 X141.653 Y109.849 E0.02278
G1 X141.328 Y110.324 E0.02297
G1 X140.752 Y110.993 E0.03524
G1 X140.153 Y111.530 E0.03211
G1 X139.654 Y111.891 E0.02458
G1 X139.105 Y112.211 E0.02535
G1 X138.395 Y112.531 E0.03108
G1 X118.167 Y120.131 E0.86233
G1 X117.484 Y120.293 E0.02802
G1 X117.030 Y120.351 E0.01825
G1 X116.583 Y120.372 E0.01789
G1 X115.879 Y120.331 E0.02813
G1 X115.166 Y120.197 E0.02896
G1 X114.447 Y119.958 E0.03024
G1 X113.793 Y119.639 E0.02904
G1 X113.187 Y119.237 E0.02899
G1 X112.640 Y118.760 E0.02899
G1 X112.264 Y118.348 E0.02225
G1 X111.900 Y117.852 E0.02455
G1 X111.636 Y117.401 E0.02083
G1 X111.415 Y116.928 E0.02083
G1 X107.424 Y106.310 E0.45269
G1 X107.364 Y106.042 E0.01097
G1 X107.355 Y101.570 E0.17844
G1 X107.409 Y100.867 E0.02813
G1 X107.566 Y99.978 E0.03605
G1 X107.722 Y99.408 E0.02355
