; generated by Slic3r 1.36.2-prusa3d-stable-win64 on 2017-09-10 at 02:47:30

; 

; external perimeters extrusion width = 0.45mm
; perimeters extrusion width = 0.45mm
; infill extrusion width = 0.45mm
; solid infill extrusion width = 0.45mm
; top infill extrusion width = 0.40mm
; first layer extrusion width = 0.42mm

M115 U3.0.12 ; tell printer latest fw version
G90 ; absolute coordinates
M83  ; extruder relative mode
;G28 W ; home all without mesh bed level
G28 XYW ; home XY, not Z, without mesh bed level
G0 Z80 Y-3 ; get head above bed to keep it cool, move the nozzle up front to make cleaning easier
M104 S150 ; set extruder temp to 150C, cold enopugh to avoid ooze, but get some temp on it
M140 S115 ; set bed temp
M190 S115 ; wait for bed temp
M104 S290 ; set extruder temp
M109 S290 ; wait for extruder temp

;G80 ; mesh bed leveling
G1 Z0 Y-3.0 F1000.0 ; go outside print area
G1 X60.0 E9.0  F1000.0 ; intro line
G1 X100.0 E12.5  F1000.0 ; intro line
; Filament gcode
G21 ; set units to millimeters
G90 ; use absolute coordinates
M83 ; use relative distances for extrusion
; Layer 0
G1 Z0.200 F7200.000
G1 E-0.80000 F2100.00000
G1 X112.843 Y93.066 F7200.000
G1 E0.80000 F2100.00000
M204 S1000
G1 F2100
G1 X113.250 Y92.669 E0.01797
G1 X113.733 Y92.361 E0.01810
G1 X114.266 Y92.161 E0.01797
G1 X114.832 Y92.074 E0.01810
G1 X133.967 Y92.071 E0.60434
G1 X135.032 Y92.153 E0.03375
G1 X136.184 Y92.427 E0.03740
G1 X137.272 Y92.884 E0.03725
G1 X138.198 Y93.451 E0.03431
G1 X139.025 Y94.134 E0.03386
G1 X139.902 Y95.109 E0.04142
G1 X140.508 Y96.019 E0.03455
G1 X141.085 Y97.221 E0.04210
G1 X141.497 Y98.580 E0.04486
G1 X141.708 Y100.201 E0.05162
G1 X141.717 Y108.554 E0.26381
G1 X141.553 Y109.490 E0.03002
G1 X141.083 Y110.312 E0.02989
G1 X140.366 Y110.924 E0.02977
G1 X136.112 Y113.253 E0.15317
G1 X116.993 Y121.365 E0.65598
G1 X116.140 Y121.577 E0.02775
G1 X115.308 Y121.672 E0.02645
G1 X113.754 Y121.571 E0.04918
G1 X112.945 Y121.369 E0.02632
G1 X112.134 Y121.053 E0.02752
G1 X111.376 Y120.637 E0.02729
G1 X110.685 Y120.132 E0.02704
G1 X109.853 Y119.303 E0.03710
G1 X109.186 Y118.354 E0.03663
G1 X108.691 Y117.299 E0.03683
G1 X108.390 Y116.188 E0.03634
G1 X108.284 Y115.033 E0.03662
G1 X108.292 Y107.173 E0.24825
G1 X108.405 Y106.582 E0.01900
G1 X112.341 Y93.981 E0.41698
G1 X112.814 Y93.119 E0.03106
G1 X113.141 Y93.300 F7200.000
G1 F2100
G1 X113.498 Y92.953 E0.01570
G1 X113.917 Y92.691 E0.01561
G1 X114.377 Y92.522 E0.01549
G1 X114.866 Y92.450 E0.01561
G1 X133.966 Y92.448 E0.60326
G1 X134.973 Y92.525 E0.03189
G1 X136.069 Y92.786 E0.03558
G1 X137.101 Y93.220 E0.03535
G1 X137.980 Y93.759 E0.03257
G1 X138.924 Y94.562 E0.03915
G1 X139.604 Y95.341 E0.03266
G1 X140.180 Y96.206 E0.03283
G1 X140.736 Y97.365 E0.04060
G1 X141.187 Y98.944 E0.05187
G1 X141.340 Y100.590 E0.05219
G1 X141.335 Y108.695 E0.25599
G1 X141.170 Y109.435 E0.02396
G1 X140.780 Y110.086 E0.02396
G1 X140.163 Y110.606 E0.02550
G1 X135.949 Y112.913 E0.15172
G1 X116.881 Y121.005 E0.65422
G1 X116.069 Y121.206 E0.02643
G1 X115.284 Y121.296 E0.02498
G1 X113.823 Y121.200 E0.04623
G1 X113.063 Y121.011 E0.02473
G1 X112.293 Y120.711 E0.02610
G1 X111.579 Y120.319 E0.02575
G1 X110.912 Y119.830 E0.02612
G1 X110.136 Y119.054 E0.03464
G1 X109.508 Y118.158 E0.03456
G1 X109.042 Y117.162 E0.03475
G1 X108.757 Y116.102 E0.03465
G1 X108.661 Y115.027 E0.03408
G1 X108.669 Y107.193 E0.24745
G1 X108.765 Y106.692 E0.01609
G1 X112.699 Y94.099 E0.41672
G1 X113.112 Y93.352 E0.02693
G1 F5760
G1 X113.498 Y92.953 E-0.19217
G1 F5760
G1 X113.917 Y92.691 E-0.17119
G1 F5760
G1 X114.377 Y92.522 E-0.16988
G1 F5760
G1 X114.866 Y92.450 E-0.17119
G1 F5760
G1 X115.026 Y92.450 E-0.05556
G1 E-0.04000 F2100.00000
G1 X112.379 Y109.067 F7200.000
G1 E0.80000 F2100.00000
G1 F1050
G1 X134.872 Y109.067 E0.71044
G1 X134.916 Y109.238 E0.00555
G1 X134.273 Y109.589 E0.02314
G1 X116.523 Y117.122 E0.60901
G1 X115.840 Y117.429 E0.02365
G1 X115.521 Y117.522 E0.01050
G1 X115.187 Y117.573 E0.01066
G1 X114.850 Y117.581 E0.01066
G1 X114.514 Y117.544 E0.01066
G1 X114.186 Y117.464 E0.01066
G1 X113.872 Y117.341 E0.01066
G1 X113.563 Y117.172 E0.01113
G1 X113.390 Y117.051 E0.00665
G1 X113.058 Y116.747 E0.01422
G1 X112.784 Y116.390 E0.01422
G1 X112.672 Y116.195 E0.00712
G1 X112.500 Y115.779 E0.01422
G1 X112.405 Y115.354 E0.01375
G1 X112.379 Y114.958 E0.01252
G1 X112.379 Y109.127 E0.18416
G1 F5760
G1 X114.573 Y109.121 E-0.76000
G1 E-0.04000 F2100.00000
G1 X116.304 Y98.334 F7200.000
G1 E0.80000 F2100.00000
G1 F1050
G1 X116.304 Y96.398 E0.06116
G1 X133.933 Y96.398 E0.55679
G1 X134.263 Y96.414 E0.01046
G1 X134.684 Y96.487 E0.01349
G1 X134.964 Y96.571 E0.00924
G1 X135.415 Y96.767 E0.01553
G1 X135.680 Y96.922 E0.00969
G1 X136.059 Y97.204 E0.01492
G1 X136.299 Y97.428 E0.01038
G1 X136.648 Y97.831 E0.01682
G1 X136.953 Y98.287 E0.01735
G1 X137.119 Y98.599 E0.01116
G1 X137.269 Y98.941 E0.01180
G1 X137.393 Y99.299 E0.01198
G1 X137.492 Y99.671 E0.01213
G1 X137.561 Y100.039 E0.01185
G1 X137.617 Y100.647 E0.01928
G1 X137.621 Y107.759 E0.22461
G1 X135.254 Y109.053 E0.08520
G1 X135.254 Y108.651 E0.01269
G1 X135.529 Y108.490 E0.01007
G1 X135.919 Y108.160 E0.01614
G1 X136.247 Y107.764 E0.01623
G1 X136.502 Y107.322 E0.01612
G1 X136.683 Y106.848 E0.01603
G1 X136.786 Y106.366 E0.01558
G1 X136.815 Y105.975 E0.01237
G1 X136.800 Y105.571 E0.01277
G1 X136.691 Y105.000 E0.01834
G1 X136.554 Y104.618 E0.01283
G1 X136.384 Y104.277 E0.01206
G1 X136.304 Y104.156 E0.00456
G1 X136.304 Y102.573 E0.05002
G1 X136.384 Y102.452 E0.00456
G1 X136.554 Y102.111 E0.01206
G1 X136.682 Y101.753 E0.01201
G1 X136.768 Y101.383 E0.01199
G1 X136.814 Y100.981 E0.01277
G1 X136.791 Y100.401 E0.01833
G1 X136.715 Y100.004 E0.01278
G1 X136.593 Y99.616 E0.01286
G1 X136.332 Y99.095 E0.01838
G1 X136.090 Y98.762 E0.01300
G1 X135.798 Y98.453 E0.01342
G1 X135.272 Y98.076 E0.02045
G1 X134.814 Y97.876 E0.01578
G1 X134.314 Y97.761 E0.01621
G1 X133.832 Y97.743 E0.01526
G1 X133.324 Y97.820 E0.01623
G1 X132.873 Y97.978 E0.01508
G1 X132.431 Y98.228 E0.01604
G1 X132.303 Y98.334 E0.00523
G1 X116.364 Y98.334 E0.50344
G1 F5760
G1 X116.304 Y96.398 E-0.67098
G1 F5760
G1 X116.561 Y96.398 E-0.08902
G1 E-0.04000 F2100.00000
G1 X134.877 Y108.690 F7200.000
G1 E0.80000 F2100.00000
G1 F1050
G1 X134.877 Y108.417 E0.00863
G1 X134.949 Y108.393 E0.00240
G1 X135.310 Y108.181 E0.01323
G1 X135.650 Y107.894 E0.01405
G1 X135.936 Y107.548 E0.01418
G1 X136.161 Y107.160 E0.01416
G1 X136.320 Y106.741 E0.01415
G1 X136.412 Y106.312 E0.01386
G1 X136.438 Y105.968 E0.01090
G1 X136.424 Y105.614 E0.01119
G1 X136.326 Y105.100 E0.01651
G1 X136.207 Y104.766 E0.01120
G1 X136.056 Y104.466 E0.01061
G1 X135.927 Y104.270 E0.00742
G1 X135.927 Y102.459 E0.05720
G1 X136.056 Y102.263 E0.00742
G1 X136.207 Y101.963 E0.01061
G1 X136.320 Y101.646 E0.01061
G1 X136.396 Y101.319 E0.01061
G1 X136.436 Y100.967 E0.01119
G1 X136.416 Y100.444 E0.01653
G1 X136.349 Y100.096 E0.01119
G1 X136.242 Y99.758 E0.01122
G1 X136.009 Y99.292 E0.01645
G1 X135.800 Y99.004 E0.01125
G1 X135.549 Y98.739 E0.01152
G1 X135.085 Y98.405 E0.01804
G1 X134.696 Y98.236 E0.01341
G1 X134.264 Y98.137 E0.01399
G1 X133.853 Y98.121 E0.01300
G1 X133.415 Y98.187 E0.01400
G1 X133.029 Y98.322 E0.01289
G1 X132.646 Y98.540 E0.01393
G1 X132.439 Y98.711 E0.00848
G1 X115.927 Y98.711 E0.52153
G1 X115.927 Y96.021 E0.08498
G1 X133.942 Y96.021 E0.56899
G1 X134.298 Y96.038 E0.01126
G1 X134.777 Y96.121 E0.01537
G1 X135.094 Y96.216 E0.01045
G1 X135.585 Y96.430 E0.01693
G1 X135.883 Y96.603 E0.01086
G1 X136.305 Y96.918 E0.01665
G1 X136.571 Y97.166 E0.01147
G1 X136.948 Y97.602 E0.01820
G1 X137.277 Y98.093 E0.01869
G1 X137.459 Y98.435 E0.01222
G1 X137.620 Y98.804 E0.01272
G1 X137.754 Y99.189 E0.01288
G1 X137.860 Y99.587 E0.01302
G1 X137.935 Y99.987 E0.01284
G1 X137.994 Y100.630 E0.02037
G1 X137.998 Y107.982 E0.23223
G1 X134.438 Y109.929 E0.12816
G1 X116.674 Y117.468 E0.60948
G1 X115.971 Y117.783 E0.02435
G1 X115.603 Y117.891 E0.01210
G1 X115.220 Y117.950 E0.01222
G1 X114.833 Y117.958 E0.01222
G1 X114.449 Y117.916 E0.01222
G1 X114.073 Y117.824 E0.01222
G1 X113.712 Y117.684 E0.01222
G1 X113.363 Y117.492 E0.01256
G1 X113.161 Y117.350 E0.00782
G1 X112.780 Y117.002 E0.01630
G1 X112.466 Y116.592 E0.01630
G1 X112.337 Y116.369 E0.00816
G1 X112.140 Y115.892 E0.01630
G1 X112.030 Y115.399 E0.01596
G1 X112.002 Y114.971 E0.01356
G1 X112.002 Y108.690 E0.19836
G1 X134.817 Y108.690 E0.72059
G1 X134.500 Y108.313 F7200.000
G1 F1050
G1 X134.500 Y108.146 E0.00527
G1 X134.791 Y108.048 E0.00973
G1 X135.091 Y107.872 E0.01098
G1 X135.381 Y107.627 E0.01197
G1 X135.626 Y107.332 E0.01213
G1 X135.819 Y106.997 E0.01221
G1 X135.958 Y106.634 E0.01227
G1 X136.037 Y106.258 E0.01214
G1 X136.060 Y105.960 E0.00943
G1 X136.049 Y105.656 E0.00961
G1 X135.961 Y105.200 E0.01468
G1 X135.859 Y104.915 E0.00956
G1 X135.729 Y104.655 E0.00917
G1 X135.550 Y104.384 E0.01028
G1 X135.550 Y102.345 E0.06438
G1 X135.729 Y102.074 E0.01028
G1 X135.859 Y101.814 E0.00917
G1 X135.957 Y101.540 E0.00921
G1 X136.023 Y101.255 E0.00923
G1 X136.058 Y100.953 E0.00960
G1 X136.040 Y100.487 E0.01472
G1 X135.983 Y100.189 E0.00959
G1 X135.891 Y99.899 E0.00959
G1 X135.686 Y99.488 E0.01453
G1 X135.509 Y99.245 E0.00950
G1 X135.300 Y99.024 E0.00961
G1 X134.898 Y98.735 E0.01563
G1 X134.577 Y98.596 E0.01104
G1 X134.214 Y98.512 E0.01176
G1 X133.874 Y98.499 E0.01075
G1 X133.506 Y98.555 E0.01176
G1 X133.186 Y98.667 E0.01071
G1 X132.861 Y98.852 E0.01181
G1 X132.575 Y99.088 E0.01173
G1 X115.550 Y99.088 E0.53772
G1 X115.550 Y95.644 E0.10880
G1 X133.951 Y95.644 E0.58119
G1 X134.333 Y95.662 E0.01206
G1 X134.871 Y95.755 E0.01725
G1 X135.224 Y95.862 E0.01166
G1 X135.756 Y96.093 E0.01833
G1 X136.085 Y96.285 E0.01203
G1 X136.552 Y96.633 E0.01837
G1 X136.843 Y96.904 E0.01256
G1 X137.248 Y97.372 E0.01957
G1 X137.601 Y97.899 E0.02002
G1 X137.799 Y98.270 E0.01328
G1 X137.972 Y98.666 E0.01364
G1 X138.115 Y99.079 E0.01379
G1 X138.228 Y99.504 E0.01392
G1 X138.308 Y99.935 E0.01384
G1 X138.371 Y100.612 E0.02147
G1 X138.375 Y108.206 E0.23984
G1 X134.602 Y110.269 E0.13581
G1 X116.825 Y117.813 E0.60994
G1 X116.102 Y118.138 E0.02505
G1 X115.685 Y118.260 E0.01371
G1 X115.253 Y118.326 E0.01378
G1 X114.817 Y118.336 E0.01378
G1 X114.383 Y118.288 E0.01378
G1 X113.959 Y118.184 E0.01378
G1 X113.552 Y118.026 E0.01378
G1 X113.164 Y117.813 E0.01399
G1 X112.931 Y117.650 E0.00899
G1 X112.708 Y117.463 E0.00920
G1 X112.502 Y117.257 E0.00920
G1 X112.315 Y117.034 E0.00920
G1 X112.148 Y116.795 E0.00920
G1 X112.002 Y116.543 E0.00920
G1 X111.879 Y116.279 E0.00920
G1 X111.780 Y116.006 E0.00920
G1 X111.704 Y115.724 E0.00920
G1 X111.655 Y115.444 E0.00899
G1 X111.625 Y114.983 E0.01460
G1 X111.625 Y108.313 E0.21066
G1 X134.440 Y108.313 E0.72059
G1 X134.122 Y107.936 F7200.000
G1 F1050
G1 X134.122 Y107.836 E0.00317
G1 X134.276 Y107.824 E0.00485
G1 X134.634 Y107.703 E0.01195
G1 X134.873 Y107.563 E0.00872
G1 X135.112 Y107.361 E0.00989
G1 X135.315 Y107.115 E0.01008
G1 X135.478 Y106.834 E0.01025
G1 X135.595 Y106.527 E0.01038
G1 X135.663 Y106.205 E0.01042
G1 X135.682 Y105.953 E0.00796
G1 X135.673 Y105.699 E0.00803
G1 X135.596 Y105.299 E0.01286
G1 X135.512 Y105.063 E0.00793
G1 X135.402 Y104.844 E0.00773
G1 X135.172 Y104.531 E0.01226
G1 X135.172 Y102.198 E0.07370
G1 X135.402 Y101.885 E0.01226
G1 X135.512 Y101.666 E0.00773
G1 X135.595 Y101.433 E0.00780
G1 X135.651 Y101.191 E0.00786
G1 X135.680 Y100.939 E0.00802
G1 X135.664 Y100.530 E0.01291
G1 X135.616 Y100.282 E0.00800
G1 X135.541 Y100.041 E0.00796
G1 X135.362 Y99.685 E0.01260
G1 X135.218 Y99.486 E0.00775
G1 X135.051 Y99.309 E0.00770
G1 X134.711 Y99.065 E0.01322
G1 X134.459 Y98.955 E0.00867
G1 X134.165 Y98.888 E0.00954
G1 X133.896 Y98.877 E0.00850
G1 X133.597 Y98.923 E0.00952
G1 X133.343 Y99.012 E0.00852
G1 X133.076 Y99.163 E0.00970
G1 X132.863 Y99.339 E0.00874
G1 X132.751 Y99.465 E0.00531
G1 X115.172 Y99.465 E0.55520
G1 X115.172 Y95.266 E0.13261
G1 X133.960 Y95.266 E0.59339
G1 X134.367 Y95.287 E0.01287
G1 X134.964 Y95.390 E0.01913
G1 X135.354 Y95.507 E0.01287
G1 X135.927 Y95.757 E0.01973
G1 X136.288 Y95.967 E0.01320
G1 X136.798 Y96.347 E0.02010
G1 X137.114 Y96.642 E0.01365
G1 X137.549 Y97.143 E0.02094
G1 X137.925 Y97.705 E0.02135
G1 X138.138 Y98.106 E0.01435
G1 X138.323 Y98.528 E0.01457
G1 X138.476 Y98.968 E0.01470
G1 X138.596 Y99.421 E0.01481
G1 X138.682 Y99.883 E0.01484
G1 X138.748 Y100.595 E0.02257
G1 X138.752 Y108.429 E0.24745
G1 X134.767 Y110.608 E0.14347
G1 X116.976 Y118.159 E0.61041
G1 X116.232 Y118.493 E0.02576
G1 X115.766 Y118.629 E0.01532
G1 X115.286 Y118.703 E0.01535
G1 X114.800 Y118.713 E0.01535
G1 X114.317 Y118.660 E0.01535
G1 X113.846 Y118.545 E0.01535
G1 X113.393 Y118.369 E0.01535
G1 X112.965 Y118.134 E0.01542
G1 X112.701 Y117.949 E0.01016
G1 X112.453 Y117.741 E0.01024
G1 X112.224 Y117.512 E0.01024
G1 X112.015 Y117.264 E0.01024
G1 X111.829 Y116.998 E0.01024
G1 X111.667 Y116.717 E0.01024
G1 X111.530 Y116.424 E0.01024
G1 X111.420 Y116.119 E0.01024
G1 X111.336 Y115.806 E0.01024
G1 X111.280 Y115.489 E0.01016
G1 X111.247 Y114.995 E0.01564
G1 X111.247 Y107.936 E0.22296
G1 X134.062 Y107.936 E0.72059
G1 X134.222 Y107.926 F7200.000
G1 F5760
G1 X134.122 Y107.836 E-0.04052
G1 F5760
G1 X134.276 Y107.824 E-0.05324
G1 F5760
G1 X134.634 Y107.703 E-0.13107
G1 F5760
G1 X134.873 Y107.563 E-0.09564
G1 F5760
G1 X135.112 Y107.361 E-0.10841
G1 F5760
G1 X135.315 Y107.115 E-0.11055
G1 F5760
G1 X135.478 Y106.834 E-0.11239
G1 F5760
G1 X135.589 Y106.543 E-0.10817
G1 E-0.04000 F2100.00000
G1 X134.085 Y109.546 F7200.000
G1 E0.80000 F2100.00000
G1 F1050
G1 X133.889 Y109.350 E0.00878
G1 X133.354 Y109.350 E0.01696
G1 X133.580 Y109.576 E0.01012
G1 X133.204 Y109.735 E0.01294
G1 X132.819 Y109.350 E0.01727
G1 X132.284 Y109.350 E0.01696
G1 X132.829 Y109.895 E0.02442
G1 X132.453 Y110.054 E0.01294
G1 X131.749 Y109.350 E0.03157
G1 X131.214 Y109.350 E0.01696
G1 X132.077 Y110.214 E0.03871
G1 X131.702 Y110.373 E0.01294
G1 X130.678 Y109.350 E0.04586
G1 X130.143 Y109.350 E0.01696
G1 X131.326 Y110.533 E0.05301
G1 X130.950 Y110.692 E0.01294
G1 X129.608 Y109.350 E0.06015
G1 X129.073 Y109.350 E0.01696
G1 X130.574 Y110.851 E0.06730
G1 X130.199 Y111.011 E0.01294
G1 X128.538 Y109.350 E0.07445
G1 X128.003 Y109.350 E0.01696
G1 X129.823 Y111.170 E0.08160
G1 X129.447 Y111.330 E0.01294
G1 X127.468 Y109.350 E0.08874
G1 X126.933 Y109.350 E0.01696
G1 X129.072 Y111.489 E0.09589
G1 X128.696 Y111.649 E0.01294
G1 X126.398 Y109.350 E0.10304
G1 X125.862 Y109.350 E0.01696
G1 X128.320 Y111.808 E0.11019
G1 X127.945 Y111.967 E0.01294
G1 X125.327 Y109.350 E0.11733
G1 X124.792 Y109.350 E0.01696
G1 X127.569 Y112.127 E0.12448
G1 X127.193 Y112.286 E0.01294
G1 X124.257 Y109.350 E0.13163
G1 X123.722 Y109.350 E0.01696
G1 X126.818 Y112.446 E0.13878
G1 X126.442 Y112.605 E0.01294
G1 X123.187 Y109.350 E0.14592
G1 X122.652 Y109.350 E0.01696
G1 X126.066 Y112.765 E0.15307
G1 X125.691 Y112.924 E0.01294
G1 X122.117 Y109.350 E0.16022
G1 X121.581 Y109.350 E0.01696
G1 X125.315 Y113.084 E0.16736
G1 X124.939 Y113.243 E0.01294
G1 X121.046 Y109.350 E0.17451
G1 X120.511 Y109.350 E0.01696
G1 X124.564 Y113.402 E0.18166
G1 X124.188 Y113.562 E0.01294
G1 X119.976 Y109.350 E0.18881
G1 X119.441 Y109.350 E0.01696
G1 X123.812 Y113.721 E0.19595
G1 X123.436 Y113.881 E0.01294
G1 X118.906 Y109.350 E0.20310
G1 X118.371 Y109.350 E0.01696
G1 X123.061 Y114.040 E0.21025
G1 X122.685 Y114.200 E0.01294
G1 X117.836 Y109.350 E0.21740
G1 X117.300 Y109.350 E0.01696
G1 X122.309 Y114.359 E0.22454
G1 X121.934 Y114.519 E0.01294
G1 X116.765 Y109.350 E0.23169
G1 X116.230 Y109.350 E0.01696
G1 X121.558 Y114.678 E0.23884
G1 X121.182 Y114.837 E0.01294
G1 X115.695 Y109.350 E0.24599
G1 X115.160 Y109.350 E0.01696
G1 X120.807 Y114.997 E0.25313
G1 X120.431 Y115.156 E0.01294
G1 X114.625 Y109.350 E0.26028
G1 X114.090 Y109.350 E0.01696
G1 X120.055 Y115.316 E0.26743
G1 X119.680 Y115.475 E0.01294
G1 X113.555 Y109.350 E0.27457
G1 X113.019 Y109.350 E0.01696
G1 X119.304 Y115.635 E0.28172
G1 X118.928 Y115.794 E0.01294
G1 X112.662 Y109.527 E0.28093
G1 X112.662 Y110.062 E0.01696
G1 X118.553 Y115.953 E0.26408
G1 X118.177 Y116.113 E0.01294
G1 X112.662 Y110.598 E0.24724
G1 X112.662 Y111.133 E0.01696
