; generated by Slic3r 1.37.1-prusa3d-win64 on 2017-09-22 at 03:03:07

; 

; external perimeters extrusion width = 0.45mm
; perimeters extrusion width = 0.45mm
; infill extrusion width = 0.45mm
; solid infill extrusion width = 0.45mm
; top infill extrusion width = 0.42mm
; first layer extrusion width = 0.55mm

M107
M115 U3.0.12 ; tell printer latest fw version
M83  ; extruder relative mode
M104 S150
M140 S115 ; set bed temp
G28 W ; home all without mesh bed level
G1 Z80 F1000 ; go above the bed to keep PINDA cool
M190 S115 ; wait for bed temp
M104 S280 ; set extruder temp
G80 ; mesh bed leveling homes the head
G1 Z80 F1000 ; go higher to allow switch lock
M117 Retract the switch (heating)...
M109 S280 ; wait for extruder temp
M0 Click when done retracting
G1 Y-3.0 F1000 ; go outside print area
G1 X60.0 E9.0 ; intro line
G1 X100.0 E12.5 ; intro line
; Filament gcode
G21 ; set units to millimeters
G90 ; use absolute coordinates
M83 ; use relative distances for extrusion
; Layer 0
G1 E-0.80000 F2100.00000
G1 Z0.200 F7200.000
G1 X107.250 Y91.958 F7200.000
G1 E0.80000 F2100.00000
M204 S1000
G1 F2100
G1 X108.860 Y90.783 E0.08824
G1 X109.820 Y90.281 E0.04797
G1 X110.734 Y89.915 E0.04358
G1 X112.662 Y89.461 E0.08768
G1 X113.930 Y89.376 E0.05626
G1 X136.056 Y89.376 E0.97957
G1 X137.678 Y89.512 E0.07206
G1 X139.164 Y89.881 E0.06781
G1 X140.652 Y90.511 E0.07154
G1 X142.033 Y91.376 E0.07214
G1 X143.287 Y92.469 E0.07364
G1 X144.383 Y93.776 E0.07552
G1 X145.189 Y95.080 E0.06784
G1 X145.853 Y96.590 E0.07304
G1 X146.275 Y98.058 E0.06763
G1 X146.527 Y99.797 E0.07779
G1 X146.514 Y106.504 E0.29691
G1 X146.290 Y107.911 E0.06309
G1 X145.812 Y109.444 E0.07111
G1 X145.188 Y110.745 E0.06386
G1 X144.420 Y111.911 E0.06181
G1 X143.593 Y112.873 E0.05618
G1 X142.783 Y113.625 E0.04891
G1 X141.762 Y114.378 E0.05618
G1 X140.616 Y115.022 E0.05823
G1 X119.400 Y124.051 E1.02079
G1 X118.277 Y124.332 E0.05125
G1 X117.260 Y124.465 E0.04540
G1 X116.111 Y124.482 E0.05088
G1 X114.925 Y124.351 E0.05284
G1 X113.807 Y124.084 E0.05088
G1 X112.843 Y123.733 E0.04540
G1 X111.816 Y123.218 E0.05086
G1 X110.829 Y122.559 E0.05253
G1 X109.897 Y121.746 E0.05476
G1 X109.092 Y120.834 E0.05388
G1 X108.405 Y119.815 E0.05440
G1 X107.877 Y118.766 E0.05200
G1 X103.729 Y106.611 E0.56861
G1 X103.521 Y105.785 E0.03769
G1 X103.444 Y104.943 E0.03744
G1 X103.444 Y100.554 E0.19430
G1 X103.656 Y98.389 E0.09632
G1 X103.993 Y97.048 E0.06120
G1 X104.482 Y95.757 E0.06112
G1 X105.129 Y94.517 E0.06192
G1 X105.869 Y93.437 E0.05796
G1 X107.209 Y92.002 E0.08693
G1 F5760
G1 X108.860 Y90.783 E-0.71078
G1 F5760
G1 X108.986 Y90.717 E-0.04922
G1 E-0.04000 F2100.00000
G1 X108.068 Y93.068 F7200.000
G1 E0.80000 F2100.00000
G1 F2100
G1 X108.764 Y92.508 E0.03957
G1 X109.498 Y92.027 E0.03885
G1 X110.280 Y91.616 E0.03912
G1 X111.481 Y91.163 E0.05684
G1 X112.290 Y90.965 E0.03687
G1 X113.140 Y90.842 E0.03802
G1 X113.902 Y90.804 E0.03376
G1 X136.370 Y90.810 E0.99469
G1 X137.338 Y90.901 E0.04307
G1 X138.067 Y91.043 E0.03286
G1 X138.832 Y91.263 E0.03524
G1 X139.541 Y91.537 E0.03368
G1 X140.221 Y91.869 E0.03349
G1 X140.885 Y92.265 E0.03424
G1 X141.524 Y92.724 E0.03482
G1 X142.128 Y93.242 E0.03523
G1 X142.703 Y93.825 E0.03624
G1 X143.480 Y94.803 E0.05529
G1 X143.987 Y95.609 E0.04216
G1 X144.431 Y96.488 E0.04361
G1 X144.804 Y97.450 E0.04569
G1 X145.062 Y98.351 E0.04148
G1 X145.239 Y99.266 E0.04123
G1 X145.349 Y100.396 E0.05027
G1 X145.360 Y105.603 E0.23055
G1 X145.320 Y106.417 E0.03608
G1 X145.205 Y107.247 E0.03708
G1 X144.965 Y108.241 E0.04528
G1 X144.539 Y109.380 E0.05383
G1 X144.169 Y110.115 E0.03644
G1 X143.757 Y110.784 E0.03478
G1 X142.996 Y111.758 E0.05472
G1 X142.295 Y112.463 E0.04401
G1 X141.479 Y113.122 E0.04645
G1 X140.685 Y113.633 E0.04179
G1 X139.795 Y114.082 E0.04412
G1 X119.834 Y122.613 E0.96106
G1 X119.025 Y122.914 E0.03820
G1 X118.158 Y123.136 E0.03962
G1 X117.193 Y123.271 E0.04312
G1 X116.556 Y123.295 E0.02823
G1 X115.910 Y123.271 E0.02864
G1 X114.888 Y123.125 E0.04568
G1 X113.992 Y122.888 E0.04104
G1 X113.395 Y122.667 E0.02818
G1 X112.816 Y122.401 E0.02823
G1 X111.975 Y121.906 E0.04320
G1 X111.219 Y121.336 E0.04193
G1 X110.428 Y120.569 E0.04875
G1 X110.020 Y120.078 E0.02826
G1 X109.646 Y119.550 E0.02865
G1 X109.168 Y118.708 E0.04289
G1 X108.860 Y118.003 E0.03404
G1 X104.817 Y106.095 E0.55677
G1 X104.680 Y105.478 E0.02796
G1 X104.645 Y100.565 E0.21753
G1 X104.710 Y99.648 E0.04069
G1 X104.853 Y98.740 E0.04072
G1 X105.027 Y98.003 E0.03350
G1 X105.249 Y97.291 E0.03301
G1 X105.799 Y96.004 E0.06198
G1 X106.167 Y95.345 E0.03342
G1 X106.585 Y94.709 E0.03368
G1 X107.343 Y93.776 E0.05320
G1 X108.021 Y93.106 E0.04222
G1 X108.368 Y93.475 F7200.000
G1 F2100
G1 X109.071 Y92.911 E0.03991
G1 X109.765 Y92.458 E0.03666
G1 X110.502 Y92.073 E0.03682
G1 X111.617 Y91.652 E0.05277
G1 X112.399 Y91.461 E0.03563
G1 X113.200 Y91.346 E0.03585
G1 X113.908 Y91.311 E0.03138
G1 X136.358 Y91.317 E0.99389
G1 X137.254 Y91.401 E0.03986
G1 X137.938 Y91.534 E0.03085
G1 X138.661 Y91.740 E0.03326
G1 X139.330 Y91.998 E0.03174
G1 X139.971 Y92.310 E0.03157
G1 X140.616 Y92.695 E0.03326
G1 X141.219 Y93.129 E0.03288
G1 X141.790 Y93.620 E0.03333
G1 X142.332 Y94.171 E0.03424
G1 X143.059 Y95.085 E0.05169
G1 X143.540 Y95.848 E0.03995
G1 X143.973 Y96.706 E0.04252
G1 X144.320 Y97.601 E0.04251
G1 X144.571 Y98.480 E0.04047
G1 X144.739 Y99.350 E0.03922
G1 X144.843 Y100.432 E0.04814
G1 X144.853 Y105.598 E0.22871
G1 X144.816 Y106.360 E0.03376
G1 X144.709 Y107.141 E0.03489
G1 X144.476 Y108.107 E0.04401
G1 X144.069 Y109.188 E0.05114
G1 X143.721 Y109.877 E0.03415
G1 X143.333 Y110.505 E0.03271
G1 X142.606 Y111.433 E0.05217
G1 X141.946 Y112.095 E0.04139
G1 X141.172 Y112.719 E0.04402
G1 X140.423 Y113.199 E0.03938
G1 X139.575 Y113.626 E0.04204
G1 X119.639 Y122.144 E0.95977
G1 X118.885 Y122.426 E0.03566
G1 X118.073 Y122.636 E0.03714
G1 X117.161 Y122.764 E0.04077
G1 X116.547 Y122.788 E0.02722
G1 X115.942 Y122.765 E0.02677
G1 X115.003 Y122.631 E0.04201
G1 X114.156 Y122.408 E0.03876
G1 X113.598 Y122.202 E0.02634
G1 X113.040 Y121.945 E0.02722
G1 X112.245 Y121.477 E0.04083
G1 X111.537 Y120.941 E0.03930
G1 X110.810 Y120.235 E0.04490
G1 X110.417 Y119.762 E0.02722
G1 X110.067 Y119.268 E0.02678
G1 X109.616 Y118.470 E0.04060
G1 X109.329 Y117.811 E0.03183
G1 X105.302 Y105.945 E0.55474
G1 X105.181 Y105.396 E0.02491
G1 X105.152 Y100.572 E0.21357
G1 X105.215 Y99.696 E0.03890
G1 X105.348 Y98.847 E0.03804
G1 X105.514 Y98.145 E0.03190
G1 X105.729 Y97.454 E0.03204
G1 X106.248 Y96.240 E0.05850
G1 X106.605 Y95.600 E0.03242
G1 X107.001 Y94.999 E0.03188
G1 X107.727 Y94.108 E0.05088
G1 X108.326 Y93.518 E0.03722
G1 X108.681 Y93.879 F7200.000
G1 F2100
G1 X109.378 Y93.315 E0.03972
G1 X110.031 Y92.890 E0.03447
G1 X110.723 Y92.530 E0.03454
G1 X111.752 Y92.141 E0.04873
G1 X112.507 Y91.956 E0.03439
G1 X113.259 Y91.850 E0.03365
G1 X113.914 Y91.818 E0.02902
G1 X136.346 Y91.824 E0.99311
G1 X137.171 Y91.901 E0.03667
G1 X137.810 Y92.024 E0.02884
G1 X138.490 Y92.218 E0.03127
G1 X139.118 Y92.459 E0.02981
G1 X139.721 Y92.751 E0.02963
G1 X140.346 Y93.125 E0.03227
G1 X140.913 Y93.534 E0.03092
G1 X141.451 Y93.997 E0.03144
G1 X141.961 Y94.517 E0.03224
G1 X142.638 Y95.367 E0.04812
G1 X143.093 Y96.088 E0.03772
G1 X143.514 Y96.923 E0.04143
G1 X143.836 Y97.751 E0.03932
G1 X144.080 Y98.608 E0.03945
G1 X144.239 Y99.433 E0.03720
G1 X144.337 Y100.468 E0.04602
G1 X144.346 Y105.593 E0.22689
G1 X144.312 Y106.303 E0.03148
G1 X144.213 Y107.035 E0.03268
G1 X143.987 Y107.973 E0.04272
G1 X143.600 Y108.995 E0.04842
G1 X143.274 Y109.637 E0.03187
G1 X142.910 Y110.226 E0.03066
G1 X142.217 Y111.107 E0.04962
G1 X141.598 Y111.726 E0.03876
G1 X140.865 Y112.315 E0.04159
G1 X140.161 Y112.764 E0.03697
G1 X139.354 Y113.169 E0.03997
G1 X119.445 Y121.676 E0.95850
G1 X118.744 Y121.939 E0.03315
G1 X117.987 Y122.136 E0.03465
G1 X117.128 Y122.258 E0.03842
G1 X116.556 Y122.281 E0.02532
G1 X115.975 Y122.259 E0.02575
G1 X115.117 Y122.137 E0.03836
G1 X114.320 Y121.928 E0.03647
G1 X113.783 Y121.730 E0.02533
G1 X113.264 Y121.490 E0.02532
G1 X112.516 Y121.048 E0.03845
G1 X111.857 Y120.547 E0.03667
G1 X111.191 Y119.900 E0.04110
G1 X110.825 Y119.461 E0.02531
G1 X110.489 Y118.986 E0.02575
G1 X110.064 Y118.233 E0.03827
G1 X109.798 Y117.619 E0.02962
G1 X105.787 Y105.796 E0.55272
G1 X105.683 Y105.315 E0.02182
G1 X105.659 Y100.579 E0.20965
G1 X105.718 Y99.763 E0.03623
G1 X105.844 Y98.954 E0.03627
G1 X106.005 Y98.271 E0.03106
G1 X106.209 Y97.618 E0.03028
G1 X106.698 Y96.475 E0.05505
G1 X107.034 Y95.871 E0.03058
G1 X107.417 Y95.288 E0.03087
G1 X108.111 Y94.439 E0.04853
G1 X108.638 Y93.921 E0.03273
G1 X108.992 Y94.284 F7200.000
G1 F2100
G1 X109.684 Y93.719 E0.03953
G1 X110.296 Y93.323 E0.03227
G1 X110.943 Y92.987 E0.03227
G1 X111.888 Y92.629 E0.04475
G1 X112.591 Y92.456 E0.03205
G1 X113.296 Y92.356 E0.03151
G1 X113.920 Y92.326 E0.02767
G1 X136.334 Y92.331 E0.99231
G1 X137.088 Y92.402 E0.03351
G1 X137.683 Y92.515 E0.02684
G1 X138.320 Y92.696 E0.02928
G1 X138.908 Y92.920 E0.02788
G1 X139.471 Y93.193 E0.02769
G1 X140.059 Y93.543 E0.03030
G1 X140.591 Y93.926 E0.02901
G1 X141.097 Y94.360 E0.02951
G1 X141.590 Y94.862 E0.03117
G1 X142.217 Y95.650 E0.04458
G1 X142.646 Y96.327 E0.03548
G1 X143.056 Y97.141 E0.04033
G1 X143.351 Y97.902 E0.03614
G1 X143.590 Y98.736 E0.03843
G1 X143.738 Y99.516 E0.03515
G1 X143.831 Y100.504 E0.04390
G1 X143.839 Y105.588 E0.22509
G1 X143.808 Y106.247 E0.02922
G1 X143.717 Y106.929 E0.03045
G1 X143.498 Y107.838 E0.04140
G1 X143.131 Y108.802 E0.04567
G1 X142.828 Y109.397 E0.02958
G1 X142.486 Y109.946 E0.02862
G1 X141.828 Y110.782 E0.04709
G1 X141.269 Y111.339 E0.03496
G1 X140.558 Y111.911 E0.04038
G1 X139.922 Y112.317 E0.03342
G1 X139.148 Y112.706 E0.03836
G1 X119.251 Y121.207 E0.95792
G1 X118.602 Y121.452 E0.03068
G1 X117.900 Y121.636 E0.03216
G1 X117.094 Y121.752 E0.03603
G1 X116.546 Y121.774 E0.02428
G1 X116.008 Y121.752 E0.02383
G1 X115.204 Y121.637 E0.03600
G1 X114.484 Y121.448 E0.03295
G1 X113.986 Y121.265 E0.02346
G1 X113.488 Y121.036 E0.02428
G1 X112.788 Y120.620 E0.03605
G1 X112.177 Y120.153 E0.03405
G1 X111.572 Y119.566 E0.03734
G1 X111.221 Y119.144 E0.02427
G1 X110.911 Y118.705 E0.02383
G1 X110.513 Y117.997 E0.03595
G1 X110.268 Y117.428 E0.02742
G1 X106.272 Y105.648 E0.55071
G1 X106.184 Y105.235 E0.01869
G1 X106.166 Y100.587 E0.20576
G1 X106.223 Y99.811 E0.03448
G1 X106.340 Y99.060 E0.03363
G1 X106.492 Y98.413 E0.02943
G1 X106.689 Y97.781 E0.02931
G1 X107.147 Y96.710 E0.05159
G1 X107.472 Y96.126 E0.02957
G1 X107.833 Y95.579 E0.02903
G1 X108.494 Y94.771 E0.04618
G1 X108.950 Y94.326 E0.02823
G1 X109.303 Y94.688 F7200.000
G1 F2100
G1 X109.990 Y94.124 E0.03936
G1 X110.561 Y93.755 E0.03008
G1 X111.163 Y93.444 E0.03000
G1 X112.025 Y93.118 E0.04082
G1 X112.677 Y92.956 E0.02972
G1 X113.333 Y92.862 E0.02936
G1 X113.926 Y92.833 E0.02630
G1 X136.322 Y92.838 E0.99151
G1 X137.005 Y92.902 E0.03038
G1 X137.557 Y93.007 E0.02485
G1 X138.150 Y93.174 E0.02729
G1 X138.698 Y93.382 E0.02595
G1 X139.222 Y93.634 E0.02576
G1 X139.773 Y93.961 E0.02834
G1 X140.269 Y94.318 E0.02709
G1 X140.743 Y94.723 E0.02757
G1 X141.219 Y95.208 E0.03009
G1 X141.796 Y95.934 E0.04106
G1 X142.199 Y96.567 E0.03322
G1 X142.598 Y97.358 E0.03921
G1 X142.867 Y98.052 E0.03295
G1 X143.099 Y98.864 E0.03740
G1 X143.238 Y99.598 E0.03309
G1 X143.325 Y100.539 E0.04179
G1 X143.332 Y105.583 E0.22331
G1 X143.304 Y106.192 E0.02700
G1 X143.221 Y106.823 E0.02818
G1 X143.009 Y107.703 E0.04006
G1 X142.663 Y108.607 E0.04288
G1 X142.381 Y109.156 E0.02729
G1 X142.064 Y109.666 E0.02659
G1 X141.440 Y110.455 E0.04455
G1 X140.941 Y110.953 E0.03118
G1 X140.252 Y111.507 E0.03916
G1 X139.683 Y111.870 E0.02988
G1 X138.941 Y112.242 E0.03674
G1 X119.056 Y120.739 E0.95735
G1 X118.460 Y120.965 E0.02825
G1 X117.812 Y121.137 E0.02966
G1 X117.060 Y121.246 E0.03365
G1 X116.556 Y121.267 E0.02233
G1 X116.042 Y121.246 E0.02277
G1 X115.291 Y121.137 E0.03361
G1 X114.647 Y120.968 E0.02946
G1 X114.171 Y120.793 E0.02247
G1 X113.713 Y120.581 E0.02233
G1 X113.061 Y120.192 E0.03364
G1 X112.497 Y119.760 E0.03142
G1 X111.953 Y119.231 E0.03364
G1 X111.630 Y118.843 E0.02233
G1 X111.333 Y118.423 E0.02277
G1 X110.962 Y117.761 E0.03359
G1 X110.738 Y117.237 E0.02522
G1 X106.758 Y105.500 E0.54871
G1 X106.686 Y105.157 E0.01551
G1 X106.673 Y100.596 E0.20194
G1 X106.726 Y99.878 E0.03185
G1 X106.836 Y99.166 E0.03189
G1 X106.979 Y98.555 E0.02778
G1 X107.170 Y97.944 E0.02833
G1 X107.597 Y96.944 E0.04815
G1 X107.901 Y96.397 E0.02771
G1 X108.249 Y95.869 E0.02800
G1 X108.877 Y95.104 E0.04380
G1 X109.260 Y94.730 E0.02372
G1 X109.613 Y95.094 F7200.000
G1 F2100
G1 X109.748 Y94.963 E0.00829
G1 X110.295 Y94.529 E0.03093
G1 X110.825 Y94.188 E0.02788
G1 X111.382 Y93.901 E0.02775
G1 X112.163 Y93.606 E0.03695
G1 X112.763 Y93.456 E0.02740
G1 X113.370 Y93.367 E0.02718
G1 X113.933 Y93.340 E0.02492
G1 X136.310 Y93.345 E0.99071
G1 X136.924 Y93.403 E0.02727
G1 X137.431 Y93.498 E0.02287
G1 X137.981 Y93.652 E0.02526
G1 X138.507 Y93.852 E0.02495
G1 X138.974 Y94.077 E0.02290
G1 X139.487 Y94.380 E0.02638
G1 X139.949 Y94.711 E0.02518
G1 X140.389 Y95.086 E0.02560
G1 X140.848 Y95.554 E0.02900
G1 X141.376 Y96.218 E0.03757
G1 X141.752 Y96.807 E0.03094
G1 X142.139 Y97.575 E0.03809
G1 X142.382 Y98.202 E0.02977
G1 X142.608 Y98.992 E0.03636
G1 X142.737 Y99.680 E0.03100
G1 X142.819 Y100.573 E0.03969
G1 X142.825 Y105.577 E0.22156
G1 X142.800 Y106.138 E0.02483
G1 X142.725 Y106.718 E0.02589
G1 X142.520 Y107.567 E0.03870
G1 X142.195 Y108.412 E0.04006
G1 X141.936 Y108.914 E0.02501
G1 X141.641 Y109.385 E0.02458
G1 X141.052 Y110.129 E0.04202
G1 X140.612 Y110.566 E0.02746
G1 X139.966 Y111.087 E0.03675
G1 X139.442 Y111.423 E0.02753
G1 X138.735 Y111.779 E0.03509
G1 X118.861 Y120.271 E0.95678
G1 X118.316 Y120.479 E0.02585
G1 X117.723 Y120.637 E0.02715
G1 X117.026 Y120.740 E0.03122
G1 X116.546 Y120.760 E0.02126
G1 X116.077 Y120.740 E0.02079
G1 X115.379 Y120.638 E0.03122
G1 X114.811 Y120.488 E0.02603
G1 X114.374 Y120.328 E0.02056
G1 X113.939 Y120.127 E0.02126
G1 X113.333 Y119.765 E0.03122
G1 X112.840 Y119.386 E0.02755
G1 X112.333 Y118.895 E0.03122
G1 X112.026 Y118.527 E0.02126
G1 X111.756 Y118.143 E0.02079
G1 X111.412 Y117.526 E0.03123
G1 X111.209 Y117.048 E0.02302
G1 X107.243 Y105.353 E0.54672
G1 X107.188 Y105.081 E0.01227
G1 X107.180 Y100.605 E0.19818
G1 X107.230 Y99.926 E0.03014
G1 X107.332 Y99.273 E0.02927
G1 X107.471 Y98.680 E0.02694
G1 X107.650 Y98.108 E0.02653
G1 X108.047 Y97.179 E0.04473
G1 X108.339 Y96.652 E0.02669
G1 X108.665 Y96.160 E0.02611
G1 X109.259 Y95.438 E0.04142
G1 X109.570 Y95.136 E0.01920
G1 X109.641 Y95.772 F7200.000
G1 F2100
G1 X110.090 Y95.337 E0.02769
G1 X110.599 Y94.935 E0.02871
G1 X111.088 Y94.622 E0.02568
G1 X111.600 Y94.359 E0.02552
G1 X112.301 Y94.094 E0.03315
G1 X112.850 Y93.956 E0.02509
G1 X113.408 Y93.873 E0.02497
G1 X113.939 Y93.847 E0.02352
G1 X136.298 Y93.852 E0.98990
G1 X136.842 Y93.903 E0.02419
G1 X137.307 Y93.990 E0.02090
G1 X137.812 Y94.130 E0.02320
G1 X138.317 Y94.322 E0.02394
G1 X138.725 Y94.519 E0.02007
G1 X139.201 Y94.799 E0.02444
G1 X139.629 Y95.105 E0.02327
G1 X140.035 Y95.450 E0.02359
G1 X140.476 Y95.900 E0.02790
G1 X140.956 Y96.503 E0.03411
G1 X141.305 Y97.047 E0.02864
G1 X141.681 Y97.793 E0.03695
G1 X141.898 Y98.353 E0.02658
G1 X142.117 Y99.120 E0.03532
G1 X142.237 Y99.761 E0.02888
G1 X142.313 Y100.607 E0.03761
G1 X142.318 Y105.572 E0.21983
G1 X142.295 Y106.085 E0.02270
G1 X142.228 Y106.613 E0.02356
G1 X142.031 Y107.432 E0.03730
G1 X141.727 Y108.215 E0.03719
G1 X141.491 Y108.671 E0.02274
G1 X141.219 Y109.103 E0.02260
G1 X140.683 Y109.781 E0.03826
G1 X140.283 Y110.181 E0.02505
G1 X139.680 Y110.669 E0.03433
G1 X139.202 Y110.976 E0.02516
G1 X138.528 Y111.316 E0.03342
G1 X118.667 Y119.803 E0.95620
G1 X118.147 Y120.001 E0.02461
G1 X117.634 Y120.138 E0.02353
G1 X116.990 Y120.234 E0.02881
G1 X116.556 Y120.253 E0.01924
G1 X116.112 Y120.234 E0.01969
G1 X115.468 Y120.138 E0.02881
G1 X114.974 Y120.008 E0.02263
G1 X114.559 Y119.856 E0.01956
G1 X114.165 Y119.673 E0.01924
G1 X113.607 Y119.338 E0.02881
G1 X113.181 Y119.011 E0.02375
G1 X112.713 Y118.559 E0.02881
G1 X112.434 Y118.226 E0.01924
