; generated by Slic3r 1.37.2-prusa3d-win64 on 2018-04-08 at 19:23:02

; 

; external perimeters extrusion width = 0.60mm
; perimeters extrusion width = 0.43mm
; infill extrusion width = 0.70mm
; solid infill extrusion width = 0.70mm
; top infill extrusion width = 0.43mm
; first layer extrusion width = 0.42mm

M107
M115 U3.1.0 ; tell printer latest fw version
M83  ; extruder relative mode
M104 S150
M140 S120 ; set bed temp
G28 W ; home all without mesh bed level
G1 X125 Z80 F1000
M190 S120 ; wait for bed temp
M104 S280 ; set extruder temp
G80 ; mesh bed leveling
M109 S280 ; wait for extruder temp
G1 Y-3.0 F1000.0 ; go outside print area
G92 E0.0
G1 X60.0 E9.0  F1000.0 ; intro line
G1 X100.0 E12.5  F1000.0 ; intro line
G92 E0.0
M900 K30 ; Filament gcode
G21 ; set units to millimeters
G90 ; use absolute coordinates
M83 ; use relative distances for extrusion
;BEFORE_LAYER_CHANGE
;0.2


G1 E-0.80000 F2100.00000
G1 Z0.200 F7200.000
;AFTER_LAYER_CHANGE
;0.2
G1 X100.737 Y81.687 F7200.000
G1 E0.80000 F2100.00000
M204 S1000
G1 F3600
G1 X101.149 Y80.449 E0.04092
G1 X101.573 Y79.650 E0.02837
G1 X102.083 Y78.938 E0.02746
G1 X102.689 Y78.293 E0.02775
G1 X103.358 Y77.746 E0.02707
G1 X104.115 Y77.279 E0.02792
G1 X104.911 Y76.923 E0.02733
G1 X105.751 Y76.673 E0.02747
G1 X106.604 Y76.538 E0.02709
G1 X142.786 Y76.509 E1.13445
G1 X143.940 Y76.611 E0.03635
G1 X145.059 Y76.912 E0.03632
G1 X146.112 Y77.404 E0.03643
G1 X147.065 Y78.074 E0.03652
G1 X147.881 Y78.894 E0.03629
G1 X148.545 Y79.847 E0.03642
G1 X149.033 Y80.901 E0.03642
G1 X149.331 Y82.033 E0.03669
G1 X149.427 Y83.135 E0.03468
G1 X149.422 Y102.949 E0.62126
G1 X149.335 Y103.705 E0.02387
G1 X149.018 Y105.108 E0.04510
G1 X148.443 Y107.401 E0.07411
G1 X148.180 Y108.139 E0.02459
G1 X134.570 Y130.923 E0.83210
G1 X134.038 Y131.647 E0.02817
G1 X133.398 Y132.269 E0.02799
G1 X132.698 Y132.756 E0.02674
G1 X131.925 Y133.129 E0.02691
G1 X131.102 Y133.374 E0.02691
G1 X130.251 Y133.484 E0.02691
G1 X119.821 Y133.488 E0.32704
G1 X118.811 Y133.355 E0.03192
G1 X117.845 Y133.034 E0.03192
G1 X117.152 Y132.666 E0.02459
G1 X116.521 Y132.201 E0.02459
G1 X115.964 Y131.649 E0.02459
G1 X115.493 Y131.022 E0.02459
G1 X102.466 Y109.462 E0.78981
G1 X101.959 Y108.336 E0.03871
G1 X100.738 Y104.036 E0.14015
G1 X100.575 Y102.870 E0.03693
G1 X100.576 Y82.961 E0.62424
G1 X100.730 Y81.747 E0.03837
G1 F5760
G1 X101.149 Y80.449 E-0.47237
G1 F5760
G1 X101.538 Y79.715 E-0.28763
G1 E-0.04000 F2100.00000
G1 X133.425 Y109.102 F7200.000
G1 E0.80000 F2100.00000
G1 F3600
G1 X133.147 Y109.667 E0.01975
G1 X132.312 Y111.163 E0.05372
G1 X132.248 Y111.547 E0.01220
G1 X132.124 Y111.899 E0.01171
G1 X132.120 Y112.135 E0.00738
G1 X131.992 Y113.042 E0.02874
G1 X131.713 Y114.137 E0.03541
G1 X131.548 Y115.865 E0.05445
G1 X131.499 Y116.164 E0.00948
G1 X131.364 Y117.801 E0.05151
G1 X131.261 Y118.575 E0.02447
G1 X131.246 Y118.936 E0.01133
G1 X131.132 Y120.023 E0.03429
G1 X131.102 Y121.291 E0.03975
G1 X131.052 Y121.994 E0.02210
G1 X130.864 Y126.310 E0.13548
G1 X130.801 Y128.629 E0.07272
G1 X130.513 Y129.714 E0.03520
G1 X130.001 Y130.561 E0.03103
G1 X129.326 Y131.233 E0.02987
G1 X128.599 Y131.706 E0.02720
G1 X127.746 Y132.006 E0.02833
G1 X122.716 Y132.074 E0.15773
G1 X121.609 Y131.799 E0.03577
G1 X120.883 Y131.391 E0.02610
G1 X120.116 Y130.710 E0.03217
G1 X119.582 Y129.924 E0.02979
G1 X119.300 Y129.185 E0.02482
G1 X118.763 Y124.522 E0.14717
G1 X118.410 Y121.854 E0.08438
G1 X118.372 Y121.257 E0.01873
G1 X118.138 Y119.990 E0.04040
G1 X118.040 Y119.216 E0.02446
G1 X117.835 Y118.172 E0.03337
G1 X117.719 Y117.311 E0.02725
G1 X117.469 Y116.185 E0.03614
G1 X117.379 Y115.853 E0.01079
G1 X116.938 Y113.741 E0.06768
G1 X116.767 Y113.227 E0.01696
G1 X116.552 Y112.263 E0.03099
G1 X116.173 Y111.555 E0.02517
G1 X115.915 Y110.777 E0.02569
G1 X115.244 Y109.755 E0.03833
G1 X114.537 Y108.967 E0.03320
G1 X113.668 Y108.437 E0.03193
G1 X113.477 Y108.298 E0.00741
G1 X112.343 Y108.012 E0.03667
G1 X111.774 Y107.847 E0.01857
G1 X111.301 Y107.814 E0.01487
G1 X110.556 Y107.641 E0.02399
G1 X110.164 Y107.601 E0.01236
G1 X109.789 Y107.512 E0.01207
G1 X109.341 Y107.498 E0.01407
G1 X108.767 Y107.395 E0.01828
G1 X108.213 Y107.386 E0.01738
G1 X107.677 Y107.300 E0.01700
G1 X107.089 Y107.295 E0.01845
G1 X104.925 Y107.075 E0.06820
G1 X104.101 Y106.699 E0.02840
G1 X103.373 Y106.162 E0.02837
G1 X102.382 Y104.672 E0.05610
G1 X101.991 Y102.949 E0.05541
G1 X101.991 Y83.060 E0.62362
G1 X102.099 Y82.102 E0.03021
G1 X102.381 Y81.174 E0.03041
G1 X102.712 Y80.507 E0.02333
G1 X103.128 Y79.900 E0.02309
G1 X103.616 Y79.367 E0.02263
G1 X104.196 Y78.890 E0.02357
G1 X104.815 Y78.513 E0.02271
G1 X105.515 Y78.213 E0.02391
G1 X106.211 Y78.025 E0.02260
G1 X106.929 Y77.935 E0.02267
G1 X143.017 Y77.935 E1.13153
G1 X143.902 Y78.049 E0.02798
G1 X144.797 Y78.332 E0.02942
G1 X145.621 Y78.766 E0.02919
G1 X146.336 Y79.322 E0.02841
G1 X146.943 Y79.993 E0.02837
G1 X147.441 Y80.786 E0.02937
G1 X147.780 Y81.624 E0.02833
G1 X147.973 Y82.541 E0.02938
G1 X148.009 Y102.926 E0.63917
G1 X147.573 Y104.804 E0.06045
G1 X147.296 Y105.306 E0.01796
G1 X146.680 Y106.047 E0.03022
G1 X145.903 Y106.625 E0.03037
G1 X144.988 Y107.008 E0.03111
G1 X142.975 Y107.171 E0.06331
G1 X142.481 Y107.176 E0.01550
G1 X139.490 Y107.411 E0.09406
G1 X137.698 Y107.604 E0.05652
G1 X135.275 Y108.130 E0.07773
G1 X134.650 Y108.297 E0.02030
G1 X133.969 Y108.743 E0.02551
G1 X133.714 Y108.858 E0.00877
G1 X133.474 Y109.067 E0.00999
G1 X133.130 Y108.848 F7200.000
G1 F3600
G1 X132.815 Y109.488 E0.02235
G1 X131.950 Y111.039 E0.05568
G1 X131.886 Y111.439 E0.01270
G1 X131.747 Y111.834 E0.01314
G1 X131.745 Y112.095 E0.00820
G1 X131.624 Y112.959 E0.02735
G1 X131.341 Y114.072 E0.03600
G1 X131.174 Y115.823 E0.05515
G1 X131.125 Y116.117 E0.00935
G1 X130.989 Y117.765 E0.05185
G1 X130.885 Y118.542 E0.02457
G1 X130.870 Y118.902 E0.01132
G1 X130.755 Y119.999 E0.03457
G1 X130.725 Y121.277 E0.04009
G1 X130.676 Y121.972 E0.02185
G1 X130.488 Y126.297 E0.13573
G1 X130.425 Y128.597 E0.07214
G1 X130.175 Y129.544 E0.03071
G1 X129.718 Y130.311 E0.02799
G1 X129.075 Y130.951 E0.02847
G1 X128.414 Y131.376 E0.02461
G1 X127.652 Y131.639 E0.02528
G1 X122.737 Y131.697 E0.15413
G1 X121.727 Y131.440 E0.03268
G1 X121.119 Y131.096 E0.02190
G1 X120.385 Y130.444 E0.03078
G1 X119.907 Y129.734 E0.02684
G1 X119.661 Y129.075 E0.02205
G1 X119.137 Y124.476 E0.14514
G1 X118.785 Y121.811 E0.08429
G1 X118.747 Y121.211 E0.01883
G1 X118.510 Y119.927 E0.04094
G1 X118.413 Y119.156 E0.02436
G1 X118.206 Y118.105 E0.03360
G1 X118.091 Y117.245 E0.02721
G1 X117.835 Y116.095 E0.03694
G1 X117.747 Y115.771 E0.01053
G1 X117.302 Y113.642 E0.06819
G1 X117.133 Y113.135 E0.01674
G1 X116.908 Y112.130 E0.03230
G1 X116.513 Y111.392 E0.02625
G1 X116.258 Y110.612 E0.02572
G1 X115.544 Y109.524 E0.04080
G1 X114.781 Y108.673 E0.03583
G1 X113.871 Y108.119 E0.03340
G1 X113.641 Y107.950 E0.00896
G1 X112.438 Y107.648 E0.03889
G1 X111.841 Y107.474 E0.01951
G1 X111.343 Y107.439 E0.01565
G1 X110.618 Y107.269 E0.02335
G1 X110.238 Y107.231 E0.01196
G1 X109.837 Y107.136 E0.01292
G1 X109.393 Y107.125 E0.01394
G1 X108.803 Y107.018 E0.01881
G1 X108.258 Y107.011 E0.01707
G1 X107.709 Y106.923 E0.01745
G1 X107.117 Y106.919 E0.01856
G1 X105.051 Y106.718 E0.06507
G1 X104.308 Y106.384 E0.02553
G1 X103.623 Y105.878 E0.02670
G1 X102.742 Y104.554 E0.04987
G1 X102.368 Y102.927 E0.05234
G1 X102.368 Y83.070 E0.62262
G1 X102.465 Y82.194 E0.02762
G1 X102.726 Y81.327 E0.02839
G1 X103.043 Y80.687 E0.02240
G1 X103.431 Y80.125 E0.02140
G1 X103.884 Y79.633 E0.02098
G1 X104.424 Y79.190 E0.02190
G1 X104.998 Y78.843 E0.02104
G1 X105.650 Y78.565 E0.02222
G1 X106.295 Y78.393 E0.02094
G1 X106.963 Y78.311 E0.02109
G1 X142.982 Y78.310 E1.12936
G1 X143.807 Y78.414 E0.02605
G1 X144.638 Y78.674 E0.02731
G1 X145.403 Y79.074 E0.02707
G1 X146.091 Y79.610 E0.02734
G1 X146.652 Y80.232 E0.02627
G1 X147.112 Y80.971 E0.02729
G1 X147.423 Y81.748 E0.02625
G1 X147.600 Y82.599 E0.02723
G1 X147.632 Y102.905 E0.63670
G1 X147.229 Y104.647 E0.05605
G1 X146.993 Y105.081 E0.01550
G1 X146.437 Y105.759 E0.02749
G1 X145.698 Y106.308 E0.02888
G1 X144.873 Y106.648 E0.02797
G1 X142.953 Y106.794 E0.06036
G1 X142.465 Y106.799 E0.01533
G1 X139.455 Y107.036 E0.09464
G1 X137.638 Y107.231 E0.05732
G1 X135.187 Y107.763 E0.07864
G1 X134.494 Y107.949 E0.02248
G1 X133.777 Y108.418 E0.02688
G1 X133.498 Y108.541 E0.00955
G1 X133.338 Y108.701 E0.00711
G1 X133.179 Y108.813 E0.00609
G1 X132.836 Y108.591 F7200.000
G1 F3600
G1 X132.483 Y109.308 E0.02505
G1 X131.588 Y110.913 E0.05762
G1 X131.517 Y111.361 E0.01421
G1 X131.370 Y111.768 E0.01356
G1 X131.370 Y112.057 E0.00908
G1 X131.256 Y112.877 E0.02594
G1 X130.968 Y114.007 E0.03658
G1 X130.799 Y115.780 E0.05585
G1 X130.750 Y116.070 E0.00921
G1 X130.613 Y117.729 E0.05220
G1 X130.509 Y118.509 E0.02467
G1 X130.494 Y118.869 E0.01130
G1 X130.379 Y119.975 E0.03486
G1 X130.348 Y121.264 E0.04042
G1 X130.299 Y121.950 E0.02159
G1 X130.111 Y126.284 E0.13600
G1 X130.049 Y128.565 E0.07157
G1 X129.838 Y129.374 E0.02620
G1 X129.407 Y130.096 E0.02636
G1 X128.825 Y130.668 E0.02557
G1 X128.232 Y131.045 E0.02204
G1 X127.561 Y131.273 E0.02223
G1 X122.758 Y131.319 E0.15059
G1 X121.888 Y131.098 E0.02812
G1 X121.353 Y130.800 E0.01921
G1 X120.654 Y130.179 E0.02933
G1 X120.235 Y129.545 E0.02383
G1 X120.023 Y128.967 E0.01929
G1 X119.511 Y124.430 E0.14316
G1 X119.160 Y121.768 E0.08420
G1 X119.122 Y121.165 E0.01893
G1 X118.882 Y119.864 E0.04148
G1 X118.785 Y119.096 E0.02427
G1 X118.577 Y118.038 E0.03382
G1 X118.462 Y117.179 E0.02717
G1 X118.201 Y116.004 E0.03775
G1 X118.115 Y115.688 E0.01027
G1 X117.667 Y113.543 E0.06871
G1 X117.499 Y113.043 E0.01652
G1 X117.265 Y111.997 E0.03363
G1 X116.866 Y111.258 E0.02631
G1 X116.601 Y110.447 E0.02675
G1 X115.844 Y109.294 E0.04326
G1 X115.025 Y108.380 E0.03847
G1 X114.075 Y107.802 E0.03487
G1 X113.806 Y107.603 E0.01050
G1 X112.534 Y107.283 E0.04112
G1 X111.907 Y107.100 E0.02045
G1 X111.385 Y107.064 E0.01642
G1 X110.680 Y106.896 E0.02273
G1 X110.312 Y106.861 E0.01158
G1 X109.885 Y106.759 E0.01378
G1 X109.445 Y106.751 E0.01379
G1 X108.839 Y106.641 E0.01930
G1 X108.278 Y106.634 E0.01760
G1 X107.741 Y106.546 E0.01706
G1 X107.143 Y106.543 E0.01875
G1 X105.177 Y106.361 E0.06190
G1 X104.482 Y106.048 E0.02388
G1 X103.875 Y105.596 E0.02376
G1 X103.102 Y104.435 E0.04372
G1 X102.745 Y102.905 E0.04925
G1 X102.745 Y83.080 E0.62160
G1 X102.837 Y82.254 E0.02608
G1 X103.082 Y81.453 E0.02625
G1 X103.374 Y80.868 E0.02050
G1 X103.733 Y80.352 E0.01972
G1 X104.151 Y79.899 E0.01933
G1 X104.652 Y79.492 E0.02023
G1 X105.181 Y79.173 E0.01936
G1 X105.784 Y78.918 E0.02054
G1 X106.379 Y78.761 E0.01927
G1 X106.997 Y78.687 E0.01951
G1 X142.948 Y78.686 E1.12724
G1 X143.712 Y78.779 E0.02413
G1 X144.480 Y79.017 E0.02520
G1 X145.186 Y79.383 E0.02496
G1 X145.823 Y79.876 E0.02525
G1 X146.342 Y80.447 E0.02419
G1 X146.768 Y81.127 E0.02517
G1 X147.067 Y81.872 E0.02517
G1 X147.227 Y82.655 E0.02505
G1 X147.255 Y102.884 E0.63427
G1 X146.885 Y104.492 E0.05171
G1 X146.688 Y104.858 E0.01305
G1 X146.190 Y105.472 E0.02478
G1 X145.531 Y105.969 E0.02588
G1 X144.758 Y106.288 E0.02623
G1 X142.933 Y106.418 E0.05736
G1 X142.448 Y106.422 E0.01520
G1 X139.420 Y106.660 E0.09522
G1 X137.577 Y106.859 E0.05812
G1 X135.098 Y107.397 E0.07955
G1 X134.338 Y107.600 E0.02466
G1 X133.585 Y108.093 E0.02823
G1 X133.283 Y108.222 E0.01030
G1 X133.084 Y108.422 E0.00884
G1 X132.886 Y108.558 E0.00752
G1 X132.550 Y108.328 F7200.000
G1 F3600
G1 X132.247 Y108.908 E0.02050
G1 X132.147 Y109.137 E0.00782
G1 X131.225 Y110.790 E0.05936
G1 X131.156 Y111.251 E0.01462
G1 X130.992 Y111.703 E0.01508
G1 X130.994 Y112.020 E0.00993
G1 X130.888 Y112.794 E0.02449
G1 X130.595 Y113.942 E0.03715
G1 X130.424 Y115.738 E0.05655
G1 X130.376 Y116.023 E0.00907
G1 X130.238 Y117.693 E0.05256
G1 X130.133 Y118.476 E0.02477
G1 X130.119 Y118.836 E0.01129
G1 X130.002 Y119.951 E0.03514
G1 X129.971 Y121.250 E0.04075
G1 X129.923 Y121.929 E0.02133
G1 X129.734 Y126.270 E0.13626
G1 X129.672 Y128.534 E0.07100
G1 X129.499 Y129.207 E0.02178
G1 X129.125 Y129.845 E0.02320
G1 X128.576 Y130.384 E0.02411
G1 X128.052 Y130.713 E0.01940
G1 X127.471 Y130.905 E0.01919
G1 X122.781 Y130.942 E0.14707
G1 X122.008 Y130.740 E0.02504
G1 X121.589 Y130.505 E0.01508
G1 X120.924 Y129.914 E0.02788
G1 X120.564 Y129.360 E0.02074
G1 X120.386 Y128.862 E0.01657
G1 X119.886 Y124.384 E0.14125
G1 X119.534 Y121.725 E0.08411
G1 X119.497 Y121.119 E0.01903
G1 X119.254 Y119.801 E0.04202
G1 X119.158 Y119.036 E0.02417
G1 X118.948 Y117.971 E0.03405
G1 X118.834 Y117.113 E0.02712
G1 X118.567 Y115.912 E0.03856
G1 X118.482 Y115.605 E0.01001
G1 X118.031 Y113.443 E0.06924
G1 X117.865 Y112.951 E0.01629
G1 X117.622 Y111.863 E0.03494
G1 X117.206 Y111.094 E0.02740
G1 X116.944 Y110.283 E0.02673
G1 X116.143 Y109.063 E0.04576
G1 X115.268 Y108.087 E0.04110
G1 X114.279 Y107.484 E0.03633
G1 X113.971 Y107.255 E0.01203
G1 X112.629 Y106.918 E0.04338
G1 X111.973 Y106.727 E0.02143
G1 X111.456 Y106.693 E0.01622
G1 X110.740 Y106.522 E0.02309
G1 X110.385 Y106.490 E0.01117
G1 X109.932 Y106.383 E0.01460
G1 X109.468 Y106.374 E0.01456
G1 X108.875 Y106.265 E0.01890
G1 X108.324 Y106.260 E0.01729
G1 X107.772 Y106.169 E0.01752
G1 X107.167 Y106.166 E0.01897
G1 X105.300 Y106.003 E0.05877
G1 X104.690 Y105.733 E0.02091
G1 X104.126 Y105.313 E0.02207
G1 X103.461 Y104.315 E0.03759
G1 X103.122 Y102.883 E0.04614
G1 X103.122 Y83.091 E0.62056
G1 X103.210 Y82.314 E0.02451
G1 X103.437 Y81.580 E0.02409
G1 X103.705 Y81.051 E0.01860
G1 X104.034 Y80.579 E0.01805
G1 X104.418 Y80.166 E0.01768
G1 X104.878 Y79.793 E0.01855
G1 X105.362 Y79.504 E0.01769
G1 X105.917 Y79.271 E0.01886
G1 X106.461 Y79.129 E0.01761
G1 X107.029 Y79.063 E0.01795
G1 X142.915 Y79.062 E1.12518
G1 X143.619 Y79.145 E0.02222
G1 X144.323 Y79.360 E0.02309
G1 X144.971 Y79.693 E0.02284
G1 X145.556 Y80.142 E0.02311
G1 X146.051 Y80.688 E0.02311
G1 X146.439 Y81.311 E0.02304
G1 X146.710 Y81.995 E0.02305
G1 X146.853 Y82.711 E0.02290
G1 X146.878 Y102.863 E0.63187
G1 X146.540 Y104.338 E0.04744
G1 X146.382 Y104.638 E0.01062
G1 X145.944 Y105.186 E0.02199
G1 X145.325 Y105.653 E0.02432
G1 X144.646 Y105.926 E0.02296
G1 X142.914 Y106.041 E0.05441
G1 X142.432 Y106.045 E0.01512
G1 X139.386 Y106.285 E0.09581
G1 X137.517 Y106.486 E0.05893
G1 X135.009 Y107.030 E0.08046
G1 X134.182 Y107.251 E0.02684
G1 X133.394 Y107.767 E0.02955
G1 X133.069 Y107.902 E0.01102
G1 X132.831 Y108.142 E0.01059
G1 X132.600 Y108.295 E0.00870
G1 X132.260 Y108.067 F7200.000
G1 F3600
G1 X131.906 Y108.746 E0.02400
G1 X131.813 Y108.962 E0.00736
G1 X130.863 Y110.666 E0.06119
G1 X130.786 Y111.175 E0.01613
G1 X130.614 Y111.638 E0.01549
G1 X130.618 Y111.984 E0.01086
G1 X130.520 Y112.711 E0.02301
G1 X130.223 Y113.877 E0.03772
G1 X130.049 Y115.695 E0.05724
G1 X130.001 Y115.975 E0.00893
G1 X129.862 Y117.658 E0.05293
G1 X129.757 Y118.444 E0.02488
G1 X129.743 Y118.803 E0.01127
G1 X129.626 Y119.927 E0.03542
G1 X129.594 Y121.237 E0.04108
G1 X129.546 Y121.907 E0.02107
G1 X129.357 Y126.257 E0.13652
G1 X129.296 Y128.503 E0.07046
G1 X129.160 Y129.039 E0.01734
G1 X128.813 Y129.632 E0.02152
G1 X128.328 Y130.099 E0.02110
G1 X127.912 Y130.362 E0.01546
G1 X127.381 Y130.538 E0.01753
G1 X122.805 Y130.565 E0.14348
G1 X122.130 Y130.383 E0.02190
G1 X121.825 Y130.210 E0.01102
G1 X121.195 Y129.650 E0.02641
G1 X120.894 Y129.177 E0.01756
G1 X120.749 Y128.759 E0.01389
G1 X120.260 Y124.339 E0.13942
G1 X119.909 Y121.682 E0.08403
G1 X119.872 Y121.073 E0.01912
G1 X119.626 Y119.738 E0.04257
G1 X119.530 Y118.976 E0.02407
G1 X119.319 Y117.904 E0.03428
G1 X119.205 Y117.047 E0.02708
G1 X118.933 Y115.821 E0.03939
G1 X118.850 Y115.521 E0.00974
G1 X118.395 Y113.343 E0.06977
G1 X118.229 Y112.855 E0.01616
G1 X118.012 Y111.921 E0.03008
G1 X117.992 Y111.756 E0.00522
G1 X117.560 Y110.961 E0.02837
G1 X117.287 Y110.119 E0.02776
G1 X116.443 Y108.833 E0.04824
G1 X115.512 Y107.794 E0.04374
G1 X114.482 Y107.167 E0.03779
G1 X114.136 Y106.908 E0.01356
G1 X112.724 Y106.553 E0.04564
G1 X112.037 Y106.353 E0.02245
G1 X111.527 Y106.323 E0.01600
G1 X110.799 Y106.149 E0.02346
G1 X110.458 Y106.120 E0.01074
G1 X109.978 Y106.007 E0.01546
G1 X109.520 Y106.000 E0.01436
