; generated by Slic3r 1.36.2-prusa3d-stable-win64 on 2017-08-23 at 22:42:13

; 

; external perimeters extrusion width = 0.45mm
; perimeters extrusion width = 0.45mm
; infill extrusion width = 0.45mm
; solid infill extrusion width = 0.45mm
; top infill extrusion width = 0.42mm
; first layer extrusion width = 0.45mm

M190 S95 ; set bed temperature and wait for it to be reached
M115 U3.0.12 ; tell printer latest fw version
; Start G-Code sequence START
T?
M109 S240
G21 ; set units to millimeters
G90 ; use absolute coordinates
M83 ; use relative distances for extrusion
G28 W
G80
G92 E0.0
M203 E100
M92 E140
G1 Z0.250 F7200.000
G1 X50.0 E80.0  F1000.0
G1 X160.0 E20.0  F1000.0
G1 Z0.200 F7200.000
G1 X220.0 E13 F1000.0
G1 X240.0 E0 F1000.0
G1 E-4 F1000.0
G92 E0.0
; Filament gcode
G21 ; set units to millimeters
G90 ; use absolute coordinates
M83 ; use relative distances for extrusion
;BEFORE_LAYER_CHANGE
;0.2


G1 Z0.200 F7200.000
;AFTER_LAYER_CHANGE
;0.2
G1 E-4.00000 F4800.00000
G1 Z0.700 F7200.000
G1 X21.295 Y97.289 F7200.000
G1 Z0.200 F7200.000
G1 E4.00000 F4800.00000
M204 S1000
G1 F2100
G1 X166.515 Y97.037 E4.73047
G1 X229.106 Y97.393 E2.03891
G1 X229.910 Y97.537 E0.02659
G1 X230.525 Y97.868 E0.02277
G1 X231.017 Y98.360 E0.02264
G1 X231.349 Y98.971 E0.02264
G1 X231.491 Y99.651 E0.02264
G1 X231.496 Y119.815 E0.65684
G1 X231.351 Y120.623 E0.02671
G1 X231.003 Y121.259 E0.02363
G1 X230.478 Y121.766 E0.02376
G1 X229.826 Y122.091 E0.02376
G1 X229.106 Y122.207 E0.02376
G1 X21.661 Y122.074 E6.75738
G1 X20.828 Y121.923 E0.02757
G1 X20.099 Y121.493 E0.02757
G1 X19.564 Y120.837 E0.02757
G1 X19.288 Y120.037 E0.02757
G1 X19.269 Y99.456 E0.67041
G1 X19.469 Y98.684 E0.02597
G1 X19.908 Y98.023 E0.02585
G1 X20.538 Y97.541 E0.02585
G1 X21.238 Y97.307 E0.02402
G1 F5760
G1 X26.038 Y97.299 E-3.80000
G1 E-0.20000 F4800.00000
G1 Z0.700 F7200.000
G1 X22.706 Y100.706 F7200.000
G1 Z0.200 F7200.000
G1 E4.00000 F4800.00000
G1 F1680
G1 X40.628 Y100.706 E0.58379
G1 X40.628 Y118.628 E0.58379
G1 X22.706 Y118.628 E0.58379
G1 X22.706 Y100.766 E0.58183
G1 X22.299 Y100.299 F7200.000
G1 F1680
G1 X41.035 Y100.299 E0.61031
G1 X41.035 Y119.035 E0.61031
G1 X22.299 Y119.035 E0.61031
G1 X22.299 Y100.359 E0.60835
G1 X21.892 Y99.892 F7200.000
G1 F1050
G1 X41.442 Y99.892 E0.63683
G1 X41.442 Y119.442 E0.63683
G1 X21.892 Y119.442 E0.63683
G1 X21.892 Y99.952 E0.63487
G1 X22.278 Y99.995 F7200.000
G1 F5760
G1 X26.692 Y99.937 E-3.80000
G1 E-0.20000 F4800.00000
G1 Z0.700 F7200.000
G1 X22.828 Y117.675 F7200.000
G1 Z0.200 F7200.000
G1 E4.00000 F4800.00000
G1 F1680
G1 X23.475 Y118.322 E0.03011
G1 X24.056 Y118.322 E0.01910
G1 X23.011 Y117.277 E0.04860
G1 X23.011 Y116.696 E0.01910
G1 X24.637 Y118.322 E0.07562
G1 X25.218 Y118.322 E0.01910
G1 X23.011 Y116.115 E0.10263
G1 X23.011 Y115.534 E0.01910
G1 X25.799 Y118.322 E0.12965
G1 X26.380 Y118.322 E0.01910
G1 X23.011 Y114.953 E0.15666
G1 X23.011 Y114.372 E0.01910
G1 X26.961 Y118.322 E0.18367
G1 X27.542 Y118.322 E0.01910
G1 X23.011 Y113.791 E0.21069
G1 X23.011 Y113.211 E0.01910
G1 X28.123 Y118.322 E0.23770
G1 X28.704 Y118.322 E0.01910
G1 X23.011 Y112.630 E0.26471
G1 X23.011 Y112.049 E0.01910
G1 X29.285 Y118.322 E0.29173
G1 X29.866 Y118.322 E0.01910
G1 X23.011 Y111.468 E0.31874
G1 X23.011 Y110.887 E0.01910
G1 X30.446 Y118.322 E0.34576
G1 X31.027 Y118.322 E0.01910
G1 X23.011 Y110.306 E0.37277
G1 X23.011 Y109.725 E0.01910
G1 X31.608 Y118.322 E0.39978
G1 X32.189 Y118.322 E0.01910
G1 X23.011 Y109.144 E0.42680
G1 X23.011 Y108.563 E0.01910
G1 X32.770 Y118.322 E0.45381
G1 X33.351 Y118.322 E0.01910
G1 X23.011 Y107.982 E0.48083
G1 X23.011 Y107.401 E0.01910
G1 X33.932 Y118.322 E0.50784
G1 X34.513 Y118.322 E0.01910
G1 X23.011 Y106.820 E0.53485
G1 X23.011 Y106.239 E0.01910
G1 X35.094 Y118.322 E0.56187
G1 X35.675 Y118.322 E0.01910
G1 X23.011 Y105.659 E0.58888
G1 X23.011 Y105.078 E0.01910
G1 X36.256 Y118.322 E0.61590
G1 X36.837 Y118.322 E0.01910
G1 X23.011 Y104.497 E0.64291
G1 X23.011 Y103.916 E0.01910
G1 X37.418 Y118.322 E0.66992
G1 X37.998 Y118.322 E0.01910
G1 X23.011 Y103.335 E0.69694
G1 X23.011 Y102.754 E0.01910
G1 X38.579 Y118.322 E0.72395
G1 X39.160 Y118.322 E0.01910
G1 X23.011 Y102.173 E0.75097
G1 X23.011 Y101.592 E0.01910
G1 X39.741 Y118.322 E0.77798
G1 X40.322 Y118.322 E0.01910
G1 X23.011 Y101.011 E0.80499
G1 X23.592 Y101.011 E0.01910
G1 X40.322 Y117.741 E0.77798
G1 X40.322 Y117.160 E0.01910
G1 X24.173 Y101.011 E0.75097
G1 X24.754 Y101.011 E0.01910
G1 X40.322 Y116.580 E0.72396
G1 X40.322 Y115.999 E0.01910
G1 X25.335 Y101.011 E0.69694
G1 X25.916 Y101.011 E0.01910
G1 X40.322 Y115.418 E0.66993
G1 X40.322 Y114.837 E0.01910
G1 X26.497 Y101.011 E0.64291
G1 X27.078 Y101.011 E0.01910
G1 X40.322 Y114.256 E0.61590
G1 X40.322 Y113.675 E0.01910
G1 X27.658 Y101.011 E0.58889
G1 X28.239 Y101.011 E0.01910
G1 X40.322 Y113.094 E0.56187
G1 X40.322 Y112.513 E0.01910
G1 X28.820 Y101.011 E0.53486
G1 X29.401 Y101.011 E0.01910
G1 X40.322 Y111.932 E0.50784
G1 X40.322 Y111.351 E0.01910
G1 X29.982 Y101.011 E0.48083
G1 X30.563 Y101.011 E0.01910
G1 X40.322 Y110.770 E0.45382
G1 X40.322 Y110.189 E0.01910
G1 X31.144 Y101.011 E0.42680
G1 X31.725 Y101.011 E0.01910
G1 X40.322 Y109.608 E0.39979
G1 X40.322 Y109.027 E0.01910
G1 X32.306 Y101.011 E0.37278
G1 X32.887 Y101.011 E0.01910
G1 X40.322 Y108.447 E0.34576
G1 X40.322 Y107.866 E0.01910
G1 X33.468 Y101.011 E0.31875
G1 X34.049 Y101.011 E0.01910
G1 X40.322 Y107.285 E0.29173
G1 X40.322 Y106.704 E0.01910
G1 X34.630 Y101.011 E0.26472
G1 X35.210 Y101.011 E0.01910
G1 X40.322 Y106.123 E0.23771
G1 X40.322 Y105.542 E0.01910
G1 X35.791 Y101.011 E0.21069
G1 X36.372 Y101.011 E0.01910
G1 X40.322 Y104.961 E0.18368
G1 X40.322 Y104.380 E0.01910
G1 X36.953 Y101.011 E0.15666
G1 X37.534 Y101.011 E0.01910
G1 X40.322 Y103.799 E0.12965
G1 X40.322 Y103.218 E0.01910
G1 X38.115 Y101.011 E0.10264
G1 X38.696 Y101.011 E0.01910
G1 X40.322 Y102.637 E0.07562
G1 X40.322 Y102.056 E0.01910
G1 X39.277 Y101.011 E0.04861
G1 X39.858 Y101.011 E0.01910
G1 X40.505 Y101.659 E0.03011
;BEFORE_LAYER_CHANGE
;0.35


G1 Z0.350 F7200.000
;AFTER_LAYER_CHANGE
;0.35
M104 S235 ; set temperature
M140 S90 ; set bed temperature
G1 E-4.00000 F4800.00000
G1 Z0.850 F7200.000
G1 X20.538 Y97.541 F7200.000
G1 Z0.350 F7200.000
G1 E4.00000 F4800.00000
G1 F3000
G1 X21.295 Y97.289 E0.02021
G1 X166.515 Y97.037 E3.67973
G1 X229.106 Y97.393 E1.58602
G1 X229.910 Y97.537 E0.02068
G1 X230.525 Y97.868 E0.01771
G1 X231.017 Y98.360 E0.01761
G1 X231.349 Y98.971 E0.01761
G1 X231.491 Y99.651 E0.01761
G1 X231.496 Y119.815 E0.51094
G1 X231.351 Y120.623 E0.02078
G1 X231.003 Y121.259 E0.01838
G1 X230.478 Y121.766 E0.01848
G1 X229.826 Y122.091 E0.01848
G1 X229.106 Y122.207 E0.01848
G1 X21.661 Y122.074 E5.25642
G1 X20.828 Y121.923 E0.02145
G1 X20.099 Y121.493 E0.02145
G1 X19.564 Y120.837 E0.02145
G1 X19.288 Y120.037 E0.02145
G1 X19.269 Y99.456 E0.52150
G1 X19.469 Y98.684 E0.02021
G1 X19.908 Y98.023 E0.02011
G1 X20.490 Y97.577 E0.01859
G1 F5760
G1 X21.295 Y97.289 E-0.67636
G1 F5760
G1 X25.240 Y97.282 E-3.12364
G1 E-0.20000 F4800.00000
G1 Z0.850 F7200.000
G1 X22.727 Y100.727 F7200.000
G1 Z0.350 F7200.000
G1 E4.00000 F4800.00000
M204 S800
G1 F2400
G1 X40.606 Y100.727 E0.45303
G1 X40.606 Y118.606 E0.45303
G1 X22.727 Y118.606 E0.45303
G1 X22.727 Y100.787 E0.45151
M204 S1000
G1 X22.309 Y100.309 F7200.000
M204 S800
G1 F2400
G1 X41.024 Y100.309 E0.47420
G1 X41.024 Y119.024 E0.47420
G1 X22.309 Y119.024 E0.47420
G1 X22.309 Y100.369 E0.47268
M204 S1000
G1 X21.892 Y99.892 F7200.000
M204 S800
G1 F1500
G1 X41.442 Y99.892 E0.49538
G1 X41.442 Y119.442 E0.49538
G1 X21.892 Y119.442 E0.49538
G1 X21.892 Y99.952 E0.49385
M204 S1000
G1 X22.278 Y99.995 F7200.000
G1 X23.709 Y100.853 F7200.000
M204 S2000
G1 F2400
G1 X23.041 Y101.521 E0.02430
G1 X23.041 Y102.120 E0.01539
G1 X24.120 Y101.041 E0.03923
G1 X24.719 Y101.041 E0.01539
G1 X23.041 Y102.719 E0.06100
G1 X23.041 Y103.318 E0.01539
G1 X25.318 Y101.041 E0.08277
G1 X25.917 Y101.041 E0.01539
G1 X23.041 Y103.917 E0.10453
G1 X23.041 Y104.516 E0.01539
G1 X26.516 Y101.041 E0.12630
G1 X27.115 Y101.041 E0.01539
G1 X23.041 Y105.115 E0.14807
G1 X23.041 Y105.714 E0.01539
G1 X27.714 Y101.041 E0.16983
G1 X28.313 Y101.041 E0.01539
G1 X23.041 Y106.313 E0.19160
G1 X23.041 Y106.912 E0.01539
G1 X28.912 Y101.041 E0.21337
G1 X29.511 Y101.041 E0.01539
G1 X23.041 Y107.511 E0.23513
G1 X23.041 Y108.110 E0.01539
G1 X30.110 Y101.041 E0.25690
G1 X30.709 Y101.041 E0.01539
G1 X23.041 Y108.709 E0.27867
G1 X23.041 Y109.308 E0.01539
G1 X31.308 Y101.041 E0.30044
G1 X31.907 Y101.041 E0.01539
G1 X23.041 Y109.907 E0.32220
G1 X23.041 Y110.506 E0.01539
G1 X32.506 Y101.041 E0.34397
G1 X33.105 Y101.041 E0.01539
G1 X23.041 Y111.105 E0.36574
G1 X23.041 Y111.704 E0.01539
G1 X33.704 Y101.041 E0.38750
G1 X34.303 Y101.041 E0.01539
G1 X23.041 Y112.303 E0.40927
G1 X23.041 Y112.902 E0.01539
G1 X34.902 Y101.041 E0.43104
G1 X35.501 Y101.041 E0.01539
G1 X23.041 Y113.501 E0.45280
G1 X23.041 Y114.100 E0.01539
G1 X36.100 Y101.041 E0.47457
G1 X36.699 Y101.041 E0.01539
G1 X23.041 Y114.699 E0.49634
G1 X23.041 Y115.298 E0.01539
G1 X37.298 Y101.041 E0.51811
G1 X37.897 Y101.041 E0.01539
G1 X23.041 Y115.897 E0.53987
G1 X23.041 Y116.496 E0.01539
G1 X38.496 Y101.041 E0.56164
G1 X39.095 Y101.041 E0.01539
G1 X23.041 Y117.095 E0.58341
G1 X23.041 Y117.694 E0.01539
G1 X39.694 Y101.041 E0.60517
G1 X40.293 Y101.041 E0.01539
G1 X23.041 Y118.293 E0.62694
G1 X23.640 Y118.293 E0.01539
G1 X40.293 Y101.640 E0.60518
G1 X40.293 Y102.239 E0.01539
G1 X24.239 Y118.293 E0.58341
G1 X24.837 Y118.293 E0.01539
G1 X40.293 Y102.838 E0.56164
G1 X40.293 Y103.436 E0.01539
G1 X25.436 Y118.293 E0.53988
G1 X26.035 Y118.293 E0.01539
G1 X40.293 Y104.035 E0.51811
G1 X40.293 Y104.634 E0.01539
G1 X26.634 Y118.293 E0.49634
G1 X27.233 Y118.293 E0.01539
G1 X40.293 Y105.233 E0.47458
G1 X40.293 Y105.832 E0.01539
G1 X27.832 Y118.293 E0.45281
G1 X28.431 Y118.293 E0.01539
G1 X40.293 Y106.431 E0.43104
G1 X40.293 Y107.030 E0.01539
G1 X29.030 Y118.293 E0.40928
G1 X29.629 Y118.293 E0.01539
G1 X40.293 Y107.629 E0.38751
G1 X40.293 Y108.228 E0.01539
G1 X30.228 Y118.293 E0.36574
G1 X30.827 Y118.293 E0.01539
G1 X40.293 Y108.827 E0.34397
G1 X40.293 Y109.426 E0.01539
G1 X31.426 Y118.293 E0.32221
G1 X32.025 Y118.293 E0.01539
G1 X40.293 Y110.025 E0.30044
G1 X40.293 Y110.624 E0.01539
G1 X32.624 Y118.293 E0.27867
G1 X33.223 Y118.293 E0.01539
G1 X40.293 Y111.223 E0.25691
G1 X40.293 Y111.822 E0.01539
G1 X33.822 Y118.293 E0.23514
G1 X34.421 Y118.293 E0.01539
G1 X40.293 Y112.421 E0.21337
G1 X40.293 Y113.020 E0.01539
G1 X35.020 Y118.293 E0.19161
G1 X35.619 Y118.293 E0.01539
G1 X40.293 Y113.619 E0.16984
G1 X40.293 Y114.218 E0.01539
G1 X36.218 Y118.293 E0.14807
G1 X36.817 Y118.293 E0.01539
G1 X40.293 Y114.817 E0.12630
G1 X40.293 Y115.416 E0.01539
G1 X37.416 Y118.293 E0.10454
G1 X38.015 Y118.293 E0.01539
G1 X40.293 Y116.015 E0.08277
G1 X40.293 Y116.614 E0.01539
G1 X38.614 Y118.293 E0.06100
G1 X39.213 Y118.293 E0.01539
G1 X40.293 Y117.213 E0.03924
G1 X40.293 Y117.812 E0.01539
G1 X39.624 Y118.481 E0.02430
M204 S1000
;BEFORE_LAYER_CHANGE
;0.5


G1 Z0.500 F7200.000
;AFTER_LAYER_CHANGE
;0.5
G1 E-4.00000 F4800.00000
G1 Z1.000 F7200.000
G1 X20.828 Y121.923 F7200.000
G1 Z0.500 F7200.000
G1 E4.00000 F4800.00000
G1 F3000
G1 X20.099 Y121.493 E0.02145
G1 X19.564 Y120.837 E0.02145
G1 X19.288 Y120.037 E0.02145
G1 X19.269 Y99.456 E0.52150
G1 X19.469 Y98.684 E0.02021
G1 X19.908 Y98.023 E0.02011
G1 X20.538 Y97.541 E0.02011
G1 X21.295 Y97.289 E0.02021
G1 X166.515 Y97.037 E3.67973
G1 X229.106 Y97.393 E1.58602
G1 X229.910 Y97.537 E0.02068
G1 X230.525 Y97.868 E0.01771
G1 X231.017 Y98.360 E0.01761
G1 X231.349 Y98.971 E0.01761
G1 X231.491 Y99.651 E0.01761
G1 X231.496 Y119.815 E0.51094
G1 X231.351 Y120.623 E0.02078
G1 X231.003 Y121.259 E0.01838
G1 X230.478 Y121.766 E0.01848
G1 X229.826 Y122.091 E0.01848
G1 X229.106 Y122.207 E0.01848
G1 X21.661 Y122.074 E5.25642
G1 X20.887 Y121.934 E0.01993
G1 F5760
G1 X20.099 Y121.493 E-0.71489
G1 F5760
G1 X19.564 Y120.837 E-0.67014
G1 F5760
G1 X19.288 Y120.037 E-0.67014
G1 F5760
G1 X19.286 Y117.833 E-1.74482
G1 E-0.20000 F4800.00000
G1 Z1.000 F7200.000
G1 X22.727 Y118.606 F7200.000
G1 Z0.500 F7200.000
G1 E4.00000 F4800.00000
M204 S800
G1 F2400
G1 X22.727 Y100.727 E0.45303
G1 X40.606 Y100.727 E0.45303
G1 X40.606 Y118.606 E0.45303
G1 X22.787 Y118.606 E0.45151
M204 S1000
G1 X22.309 Y119.024 F7200.000
M204 S800
G1 F2400
G1 X22.309 Y100.309 E0.47420
G1 X41.024 Y100.309 E0.47420
G1 X41.024 Y119.024 E0.47420
G1 X22.369 Y119.024 E0.47268
M204 S1000
G1 X21.892 Y119.442 F7200.000
M204 S800
G1 F1500
G1 X21.892 Y99.892 E0.49538
G1 X41.442 Y99.892 E0.49538
G1 X41.442 Y119.442 E0.49538
G1 X21.952 Y119.442 E0.49385
M204 S1000
G1 X21.995 Y119.055 F7200.000
G1 X22.853 Y117.624 F7200.000
M204 S2000
G1 F2400
G1 X23.521 Y118.293 E0.02430
G1 X24.120 Y118.293 E0.01539
G1 X23.041 Y117.213 E0.03923
G1 X23.041 Y116.614 E0.01539
G1 X24.719 Y118.293 E0.06100
G1 X25.318 Y118.293 E0.01539
G1 X23.041 Y116.015 E0.08277
G1 X23.041 Y115.416 E0.01539
G1 X25.917 Y118.293 E0.10453
G1 X26.516 Y118.293 E0.01539
G1 X23.041 Y114.817 E0.12630
G1 X23.041 Y114.218 E0.01539
G1 X27.115 Y118.293 E0.14807
G1 X27.714 Y118.293 E0.01539
G1 X23.041 Y113.619 E0.16983
G1 X23.041 Y113.020 E0.01539
G1 X28.313 Y118.293 E0.19160
G1 X28.912 Y118.293 E0.01539
G1 X23.041 Y112.421 E0.21337
G1 X23.041 Y111.822 E0.01539
G1 X29.511 Y118.293 E0.23513
G1 X30.110 Y118.293 E0.01539
G1 X23.041 Y111.223 E0.25690
G1 X23.041 Y110.624 E0.01539
G1 X30.709 Y118.293 E0.27867
G1 X31.308 Y118.293 E0.01539
G1 X23.041 Y110.025 E0.30044
G1 X23.041 Y109.426 E0.01539
G1 X31.907 Y118.293 E0.32220
G1 X32.506 Y118.293 E0.01539
G1 X23.041 Y108.827 E0.34397
G1 X23.041 Y108.228 E0.01539
G1 X33.105 Y118.293 E0.36574
G1 X33.704 Y118.293 E0.01539
G1 X23.041 Y107.629 E0.38750
G1 X23.041 Y107.030 E0.01539
G1 X34.303 Y118.293 E0.40927
G1 X34.902 Y118.293 E0.01539
G1 X23.041 Y106.432 E0.43104
G1 X23.041 Y105.833 E0.01539
G1 X35.501 Y118.293 E0.45280
G1 X36.100 Y118.293 E0.01539
G1 X23.041 Y105.234 E0.47457
G1 X23.041 Y104.635 E0.01539
G1 X36.699 Y118.293 E0.49634
G1 X37.298 Y118.293 E0.01539
G1 X23.041 Y104.036 E0.51811
G1 X23.041 Y103.437 E0.01539
G1 X37.897 Y118.293 E0.53987
G1 X38.496 Y118.293 E0.01539
G1 X23.041 Y102.838 E0.56164
G1 X23.041 Y102.239 E0.01539
G1 X39.095 Y118.293 E0.58341
G1 X39.694 Y118.293 E0.01539
G1 X23.041 Y101.640 E0.60517
G1 X23.041 Y101.041 E0.01539
G1 X40.293 Y118.293 E0.62694
G1 X40.293 Y117.694 E0.01539
G1 X23.640 Y101.041 E0.60518
G1 X24.239 Y101.041 E0.01539
G1 X40.293 Y117.095 E0.58341
G1 X40.293 Y116.496 E0.01539
G1 X24.838 Y101.041 E0.56164
G1 X25.436 Y101.041 E0.01539
G1 X40.293 Y115.897 E0.53988
G1 X40.293 Y115.298 E0.01539
G1 X26.035 Y101.041 E0.51811
G1 X26.634 Y101.041 E0.01539
G1 X40.293 Y114.699 E0.49634
G1 X40.293 Y114.100 E0.01539
G1 X27.233 Y101.041 E0.47458
G1 X27.832 Y101.041 E0.01539
G1 X40.293 Y113.501 E0.45281
G1 X40.293 Y112.902 E0.01539
G1 X28.431 Y101.041 E0.43104
G1 X29.030 Y101.041 E0.01539
G1 X40.293 Y112.303 E0.40928
G1 X40.293 Y111.704 E0.01539
G1 X29.629 Y101.041 E0.38751
G1 X30.228 Y101.041 E0.01539
G1 X40.293 Y111.105 E0.36574
G1 X40.293 Y110.506 E0.01539
G1 X30.827 Y101.041 E0.34397
G1 X31.426 Y101.041 E0.01539
G1 X40.293 Y109.907 E0.32221
G1 X40.293 Y109.308 E0.01539
G1 X32.025 Y101.041 E0.30044
G1 X32.624 Y101.041 E0.01539
G1 X40.293 Y108.709 E0.27867
G1 X40.293 Y108.110 E0.01539
G1 X33.223 Y101.041 E0.25691
G1 X33.822 Y101.041 E0.01539
G1 X40.293 Y107.511 E0.23514
G1 X40.293 Y106.912 E0.01539
G1 X34.421 Y101.041 E0.21337
G1 X35.020 Y101.041 E0.01539
G1 X40.293 Y106.313 E0.19161
G1 X40.293 Y105.714 E0.01539
G1 X35.619 Y101.041 E0.16984
G1 X36.218 Y101.041 E0.01539
G1 X40.293 Y105.115 E0.14807
G1 X40.293 Y104.516 E0.01539
G1 X36.817 Y101.041 E0.12630
G1 X37.416 Y101.041 E0.01539
G1 X40.293 Y103.917 E0.10454
G1 X40.293 Y103.318 E0.01539
G1 X38.015 Y101.041 E0.08277
G1 X38.614 Y101.041 E0.01539
G1 X40.293 Y102.719 E0.06100
G1 X40.293 Y102.120 E0.01539
G1 X39.213 Y101.041 E0.03924
G1 X39.812 Y101.041 E0.01539
G1 X40.481 Y101.709 E0.02430
M204 S1000
;BEFORE_LAYER_CHANGE
;0.65


G1 Z0.650 F7200.000
