; generated by Slic3r 1.36.2-prusa3d-stable-win64 on 2017-08-24 at 02:36:36

; 

; external perimeters extrusion width = 0.45mm
; perimeters extrusion width = 0.45mm
; infill extrusion width = 0.45mm
; solid infill extrusion width = 0.45mm
; top infill extrusion width = 0.42mm
; first layer extrusion width = 0.45mm

M115 U3.0.12 ; tell printer latest fw version
M83  ; extruder relative mode
M104 S240 ; set extruder temp
M140 S95 ; set bed temp
M190 S95 ; wait for bed temp
M109 S240 ; wait for extruder temp
G28 W ; home all without mesh bed level
G80 ; mesh bed leveling
G1 Y-3.0 F1000.0 ; go outside pritn area
G1 X60.0 E9.0  F1000.0 ; intro line
G1 X100.0 E12.5  F1000.0 ; intro line
; Filament gcode
G21 ; set units to millimeters
G90 ; use absolute coordinates
M83 ; use relative distances for extrusion
; Layer 0
G1 Z0.200 F7200.000
G1 E-1.50000 F2100.00000
G1 X17.719 Y101.967 F7200.000
G1 E1.50000 F2100.00000
M204 S1000
G1 F2100
G1 X18.655 Y101.739 E0.03138
G1 X38.748 Y101.737 E0.65454
G1 X169.054 Y102.426 E4.24468
G1 X230.931 Y103.311 E2.01582
G1 X231.705 Y103.545 E0.02634
G1 X232.361 Y104.024 E0.02647
G1 X232.820 Y104.695 E0.02647
G1 X233.030 Y105.479 E0.02647
G1 X233.022 Y125.998 E0.66838
G1 X232.788 Y126.772 E0.02634
G1 X232.309 Y127.428 E0.02647
G1 X231.642 Y127.886 E0.02634
G1 X230.857 Y128.097 E0.02647
G1 X210.633 Y128.107 E0.65877
G1 X84.680 Y127.240 E4.10296
G1 X18.719 Y126.551 E2.14873
G1 X17.877 Y126.390 E0.02794
G1 X17.142 Y125.940 E0.02807
G1 X16.805 Y125.570 E0.01633
G1 X16.551 Y125.137 E0.01633
G1 X16.394 Y124.661 E0.01633
G1 X16.337 Y124.163 E0.01633
G1 X16.338 Y104.075 E0.65434
G1 X16.508 Y103.254 E0.02733
G1 X16.950 Y102.540 E0.02733
G1 X17.671 Y102.003 E0.02930
G1 F5760
G1 X18.655 Y101.739 E-0.35282
G1 F5760
G1 X21.750 Y101.739 E-1.07218
G1 E-0.07500 F2100.00000
G1 X19.784 Y105.184 F7200.000
G1 E1.50000 F2100.00000
G1 F1680
G1 X37.705 Y105.184 E0.58379
G1 X37.705 Y123.105 E0.58379
G1 X19.784 Y123.105 E0.58379
G1 X19.784 Y105.244 E0.58183
G1 X19.377 Y104.777 F7200.000
G1 F1680
G1 X38.112 Y104.777 E0.61031
G1 X38.112 Y123.512 E0.61031
G1 X19.377 Y123.512 E0.61031
G1 X19.377 Y104.837 E0.60835
G1 X18.969 Y104.369 F7200.000
G1 F1050
G1 X38.519 Y104.369 E0.63683
G1 X38.519 Y123.919 E0.63683
G1 X18.969 Y123.919 E0.63683
G1 X18.969 Y104.429 E0.63487
G1 X19.356 Y104.473 F7200.000
G1 F5760
G1 X23.084 Y104.417 E-1.42500
G1 E-0.07500 F2100.00000
G1 X19.906 Y122.153 F7200.000
G1 E1.50000 F2100.00000
G1 F1680
G1 X20.553 Y122.800 E0.03011
G1 X21.134 Y122.800 E0.01910
G1 X20.089 Y121.755 E0.04860
G1 X20.089 Y121.174 E0.01910
G1 X21.715 Y122.800 E0.07562
G1 X22.296 Y122.800 E0.01910
G1 X20.089 Y120.593 E0.10263
G1 X20.089 Y120.012 E0.01910
G1 X22.877 Y122.800 E0.12965
G1 X23.458 Y122.800 E0.01910
G1 X20.089 Y119.431 E0.15666
G1 X20.089 Y118.850 E0.01910
G1 X24.039 Y122.800 E0.18367
G1 X24.620 Y122.800 E0.01910
G1 X20.089 Y118.269 E0.21069
G1 X20.089 Y117.688 E0.01910
G1 X25.201 Y122.800 E0.23770
G1 X25.781 Y122.800 E0.01910
G1 X20.089 Y117.107 E0.26471
G1 X20.089 Y116.526 E0.01910
G1 X26.362 Y122.800 E0.29173
G1 X26.943 Y122.800 E0.01910
G1 X20.089 Y115.946 E0.31874
G1 X20.089 Y115.365 E0.01910
G1 X27.524 Y122.800 E0.34576
G1 X28.105 Y122.800 E0.01910
G1 X20.089 Y114.784 E0.37277
G1 X20.089 Y114.203 E0.01910
G1 X28.686 Y122.800 E0.39978
G1 X29.267 Y122.800 E0.01910
G1 X20.089 Y113.622 E0.42680
G1 X20.089 Y113.041 E0.01910
G1 X29.848 Y122.800 E0.45381
G1 X30.429 Y122.800 E0.01910
G1 X20.089 Y112.460 E0.48083
G1 X20.089 Y111.879 E0.01910
G1 X31.010 Y122.800 E0.50784
G1 X31.591 Y122.800 E0.01910
G1 X20.089 Y111.298 E0.53485
G1 X20.089 Y110.717 E0.01910
G1 X32.172 Y122.800 E0.56187
G1 X32.753 Y122.800 E0.01910
G1 X20.089 Y110.136 E0.58888
G1 X20.089 Y109.555 E0.01910
G1 X33.333 Y122.800 E0.61590
G1 X33.914 Y122.800 E0.01910
G1 X20.089 Y108.974 E0.64291
G1 X20.089 Y108.394 E0.01910
G1 X34.495 Y122.800 E0.66992
G1 X35.076 Y122.800 E0.01910
G1 X20.089 Y107.813 E0.69694
G1 X20.089 Y107.232 E0.01910
G1 X35.657 Y122.800 E0.72395
G1 X36.238 Y122.800 E0.01910
G1 X20.089 Y106.651 E0.75097
G1 X20.089 Y106.070 E0.01910
G1 X36.819 Y122.800 E0.77798
G1 X37.400 Y122.800 E0.01910
G1 X20.089 Y105.489 E0.80499
G1 X20.670 Y105.489 E0.01910
G1 X37.400 Y122.219 E0.77798
G1 X37.400 Y121.638 E0.01910
G1 X21.251 Y105.489 E0.75097
G1 X21.832 Y105.489 E0.01910
G1 X37.400 Y121.057 E0.72396
G1 X37.400 Y120.476 E0.01910
G1 X22.413 Y105.489 E0.69694
G1 X22.993 Y105.489 E0.01910
G1 X37.400 Y119.895 E0.66993
G1 X37.400 Y119.315 E0.01910
G1 X23.574 Y105.489 E0.64291
G1 X24.155 Y105.489 E0.01910
G1 X37.400 Y118.734 E0.61590
G1 X37.400 Y118.153 E0.01910
G1 X24.736 Y105.489 E0.58889
G1 X25.317 Y105.489 E0.01910
G1 X37.400 Y117.572 E0.56187
G1 X37.400 Y116.991 E0.01910
G1 X25.898 Y105.489 E0.53486
G1 X26.479 Y105.489 E0.01910
G1 X37.400 Y116.410 E0.50784
G1 X37.400 Y115.829 E0.01910
G1 X27.060 Y105.489 E0.48083
G1 X27.641 Y105.489 E0.01910
G1 X37.400 Y115.248 E0.45382
G1 X37.400 Y114.667 E0.01910
G1 X28.222 Y105.489 E0.42680
G1 X28.803 Y105.489 E0.01910
G1 X37.400 Y114.086 E0.39979
G1 X37.400 Y113.505 E0.01910
G1 X29.384 Y105.489 E0.37278
G1 X29.965 Y105.489 E0.01910
G1 X37.400 Y112.924 E0.34576
G1 X37.400 Y112.343 E0.01910
G1 X30.545 Y105.489 E0.31875
G1 X31.126 Y105.489 E0.01910
G1 X37.400 Y111.763 E0.29173
G1 X37.400 Y111.182 E0.01910
G1 X31.707 Y105.489 E0.26472
G1 X32.288 Y105.489 E0.01910
G1 X37.400 Y110.601 E0.23771
G1 X37.400 Y110.020 E0.01910
G1 X32.869 Y105.489 E0.21069
G1 X33.450 Y105.489 E0.01910
G1 X37.400 Y109.439 E0.18368
G1 X37.400 Y108.858 E0.01910
G1 X34.031 Y105.489 E0.15666
G1 X34.612 Y105.489 E0.01910
G1 X37.400 Y108.277 E0.12965
G1 X37.400 Y107.696 E0.01910
G1 X35.193 Y105.489 E0.10264
G1 X35.774 Y105.489 E0.01910
G1 X37.400 Y107.115 E0.07562
G1 X37.400 Y106.534 E0.01910
G1 X36.355 Y105.489 E0.04861
G1 X36.936 Y105.489 E0.01910
G1 X37.583 Y106.136 E0.03011
; Layer 1
G1 Z0.350 F7200.000
M104 S235 ; set temperature
M140 S90 ; set bed temperature
G1 E-1.50000 F2100.00000
G1 X17.719 Y101.967 F7200.000
G1 E1.50000 F2100.00000
G1 F3000
G1 X18.655 Y101.739 E0.02441
G1 X38.748 Y101.737 E0.50915
G1 X169.054 Y102.426 E3.30184
G1 X230.931 Y103.311 E1.56806
G1 X231.705 Y103.545 E0.02049
G1 X232.361 Y104.024 E0.02059
G1 X232.820 Y104.695 E0.02059
G1 X233.030 Y105.479 E0.02059
G1 X233.022 Y125.998 E0.51992
G1 X232.788 Y126.772 E0.02049
G1 X232.309 Y127.428 E0.02059
G1 X231.642 Y127.886 E0.02049
G1 X230.857 Y128.097 E0.02059
G1 X210.633 Y128.107 E0.51245
G1 X84.680 Y127.240 E3.19160
G1 X18.719 Y126.551 E1.67145
G1 X17.877 Y126.390 E0.02174
G1 X17.142 Y125.940 E0.02183
G1 X16.805 Y125.570 E0.01270
G1 X16.551 Y125.137 E0.01270
G1 X16.394 Y124.661 E0.01270
G1 X16.337 Y124.163 E0.01270
G1 X16.338 Y104.075 E0.50900
G1 X16.508 Y103.254 E0.02126
G1 X16.950 Y102.540 E0.02126
G1 X17.671 Y102.003 E0.02279
G1 F5760
G1 X18.655 Y101.739 E-0.35282
G1 F5760
G1 X21.750 Y101.739 E-1.07218
G1 E-0.07500 F2100.00000
G1 X19.805 Y105.205 F7200.000
G1 E1.50000 F2100.00000
M204 S800
G1 F2400
G1 X37.684 Y105.205 E0.45303
G1 X37.684 Y123.084 E0.45303
G1 X19.805 Y123.084 E0.45303
G1 X19.805 Y105.265 E0.45151
M204 S1000
G1 X19.387 Y104.787 F7200.000
M204 S800
G1 F2400
G1 X38.102 Y104.787 E0.47420
G1 X38.102 Y123.502 E0.47420
G1 X19.387 Y123.502 E0.47420
G1 X19.387 Y104.847 E0.47268
M204 S1000
G1 X18.969 Y104.369 F7200.000
M204 S800
G1 F1500
G1 X38.519 Y104.369 E0.49538
G1 X38.519 Y123.919 E0.49538
G1 X18.969 Y123.919 E0.49538
G1 X18.969 Y104.429 E0.49385
M204 S1000
G1 X19.356 Y104.473 F7200.000
G1 F5760
G1 X23.084 Y104.417 E-1.42500
G1 E-0.07500 F2100.00000
G1 X20.787 Y105.330 F7200.000
G1 E1.50000 F2100.00000
M204 S2000
G1 F2400
G1 X20.118 Y105.999 E0.02430
G1 X20.118 Y106.598 E0.01539
G1 X21.198 Y105.518 E0.03923
G1 X21.797 Y105.518 E0.01539
G1 X20.118 Y107.197 E0.06100
G1 X20.118 Y107.796 E0.01539
G1 X22.396 Y105.518 E0.08277
G1 X22.995 Y105.518 E0.01539
G1 X20.118 Y108.395 E0.10453
G1 X20.118 Y108.994 E0.01539
G1 X23.594 Y105.518 E0.12630
G1 X24.193 Y105.518 E0.01539
G1 X20.118 Y109.593 E0.14807
G1 X20.118 Y110.192 E0.01539
G1 X24.792 Y105.518 E0.16983
G1 X25.391 Y105.518 E0.01539
G1 X20.118 Y110.791 E0.19160
G1 X20.118 Y111.390 E0.01539
G1 X25.990 Y105.518 E0.21337
G1 X26.589 Y105.518 E0.01539
G1 X20.118 Y111.989 E0.23513
G1 X20.118 Y112.588 E0.01539
G1 X27.188 Y105.518 E0.25690
G1 X27.787 Y105.518 E0.01539
G1 X20.118 Y113.187 E0.27867
G1 X20.118 Y113.786 E0.01539
G1 X28.386 Y105.518 E0.30044
G1 X28.985 Y105.518 E0.01539
G1 X20.118 Y114.385 E0.32220
G1 X20.118 Y114.984 E0.01539
G1 X29.584 Y105.518 E0.34397
G1 X30.183 Y105.518 E0.01539
G1 X20.118 Y115.583 E0.36574
G1 X20.118 Y116.182 E0.01539
G1 X30.782 Y105.518 E0.38750
G1 X31.381 Y105.518 E0.01539
G1 X20.118 Y116.781 E0.40927
G1 X20.118 Y117.380 E0.01539
G1 X31.980 Y105.518 E0.43104
G1 X32.579 Y105.518 E0.01539
G1 X20.118 Y117.979 E0.45280
G1 X20.118 Y118.578 E0.01539
G1 X33.178 Y105.518 E0.47457
G1 X33.777 Y105.518 E0.01539
G1 X20.118 Y119.177 E0.49634
G1 X20.118 Y119.776 E0.01539
G1 X34.376 Y105.518 E0.51811
G1 X34.975 Y105.518 E0.01539
G1 X20.118 Y120.374 E0.53987
G1 X20.118 Y120.973 E0.01539
G1 X35.573 Y105.518 E0.56164
G1 X36.172 Y105.518 E0.01539
G1 X20.118 Y121.572 E0.58341
G1 X20.118 Y122.171 E0.01539
G1 X36.771 Y105.518 E0.60517
G1 X37.370 Y105.518 E0.01539
G1 X20.118 Y122.770 E0.62694
G1 X20.717 Y122.770 E0.01539
G1 X37.370 Y106.117 E0.60518
G1 X37.370 Y106.716 E0.01539
G1 X21.316 Y122.770 E0.58341
G1 X21.915 Y122.770 E0.01539
G1 X37.370 Y107.315 E0.56164
G1 X37.370 Y107.914 E0.01539
G1 X22.514 Y122.770 E0.53988
G1 X23.113 Y122.770 E0.01539
G1 X37.370 Y108.513 E0.51811
G1 X37.370 Y109.112 E0.01539
G1 X23.712 Y122.770 E0.49634
G1 X24.311 Y122.770 E0.01539
G1 X37.370 Y109.711 E0.47458
G1 X37.370 Y110.310 E0.01539
G1 X24.910 Y122.770 E0.45281
G1 X25.509 Y122.770 E0.01539
G1 X37.370 Y110.909 E0.43104
G1 X37.370 Y111.508 E0.01539
G1 X26.108 Y122.770 E0.40928
G1 X26.707 Y122.770 E0.01539
G1 X37.370 Y112.107 E0.38751
G1 X37.370 Y112.706 E0.01539
G1 X27.306 Y122.770 E0.36574
G1 X27.905 Y122.770 E0.01539
G1 X37.370 Y113.305 E0.34397
G1 X37.370 Y113.904 E0.01539
G1 X28.504 Y122.770 E0.32221
G1 X29.103 Y122.770 E0.01539
G1 X37.370 Y114.503 E0.30044
G1 X37.370 Y115.102 E0.01539
G1 X29.702 Y122.770 E0.27867
G1 X30.301 Y122.770 E0.01539
G1 X37.370 Y115.701 E0.25691
G1 X37.370 Y116.300 E0.01539
G1 X30.900 Y122.770 E0.23514
G1 X31.499 Y122.770 E0.01539
G1 X37.370 Y116.899 E0.21337
G1 X37.370 Y117.498 E0.01539
G1 X32.098 Y122.770 E0.19161
G1 X32.697 Y122.770 E0.01539
G1 X37.370 Y118.097 E0.16984
G1 X37.370 Y118.696 E0.01539
G1 X33.296 Y122.770 E0.14807
G1 X33.895 Y122.770 E0.01539
G1 X37.370 Y119.295 E0.12630
G1 X37.370 Y119.894 E0.01539
G1 X34.494 Y122.770 E0.10454
G1 X35.093 Y122.770 E0.01539
G1 X37.370 Y120.493 E0.08277
G1 X37.370 Y121.092 E0.01539
G1 X35.692 Y122.770 E0.06100
G1 X36.291 Y122.770 E0.01539
G1 X37.370 Y121.691 E0.03924
G1 X37.370 Y122.290 E0.01539
G1 X36.702 Y122.958 E0.02430
M204 S1000
; Layer 2
G1 Z0.500 F7200.000
G1 E-1.50000 F2100.00000
G1 X17.877 Y126.390 F7200.000
G1 E1.50000 F2100.00000
G1 F3000
G1 X17.142 Y125.940 E0.02183
G1 X16.805 Y125.570 E0.01270
G1 X16.551 Y125.137 E0.01270
G1 X16.394 Y124.661 E0.01270
G1 X16.337 Y124.163 E0.01270
G1 X16.338 Y104.075 E0.50900
G1 X16.508 Y103.254 E0.02126
G1 X16.950 Y102.540 E0.02126
G1 X17.719 Y101.967 E0.02431
G1 X18.655 Y101.739 E0.02441
G1 X38.748 Y101.737 E0.50915
G1 X169.054 Y102.426 E3.30184
G1 X230.931 Y103.311 E1.56806
G1 X231.705 Y103.545 E0.02049
G1 X232.361 Y104.024 E0.02059
G1 X232.820 Y104.695 E0.02059
G1 X233.030 Y105.479 E0.02059
G1 X233.022 Y125.998 E0.51992
G1 X232.788 Y126.772 E0.02049
G1 X232.309 Y127.428 E0.02059
G1 X231.642 Y127.886 E0.02049
G1 X230.857 Y128.097 E0.02059
G1 X210.633 Y128.107 E0.51245
G1 X84.680 Y127.240 E3.19160
G1 X18.719 Y126.551 E1.67145
G1 X17.936 Y126.401 E0.02022
G1 F5760
G1 X17.142 Y125.940 E-0.31795
G1 F5760
G1 X16.805 Y125.570 E-0.17360
G1 F5760
G1 X16.551 Y125.137 E-0.17360
G1 F5760
G1 X16.394 Y124.661 E-0.17360
G1 F5760
G1 X16.337 Y124.163 E-0.17360
G1 F5760
G1 X16.337 Y122.972 E-0.41266
G1 E-0.07500 F2100.00000
G1 X19.805 Y123.084 F7200.000
G1 E1.50000 F2100.00000
M204 S800
G1 F2400
G1 X19.805 Y105.205 E0.45303
G1 X37.684 Y105.205 E0.45303
G1 X37.684 Y123.084 E0.45303
G1 X19.865 Y123.084 E0.45151
M204 S1000
G1 X19.387 Y123.502 F7200.000
M204 S800
G1 F2400
G1 X19.387 Y104.787 E0.47420
G1 X38.102 Y104.787 E0.47420
G1 X38.102 Y123.502 E0.47420
G1 X19.447 Y123.502 E0.47268
M204 S1000
G1 X18.969 Y123.919 F7200.000
M204 S800
G1 F1500
G1 X18.969 Y104.369 E0.49538
G1 X38.519 Y104.369 E0.49538
G1 X38.519 Y123.919 E0.49538
G1 X19.029 Y123.919 E0.49385
M204 S1000
G1 X19.073 Y123.533 F7200.000
G1 F5760
G1 X19.017 Y119.805 E-1.42500
G1 E-0.07500 F2100.00000
G1 X19.930 Y122.102 F7200.000
G1 E1.50000 F2100.00000
M204 S2000
G1 F2400
G1 X20.599 Y122.770 E0.02430
G1 X21.198 Y122.770 E0.01539
G1 X20.118 Y121.691 E0.03923
G1 X20.118 Y121.092 E0.01539
G1 X21.797 Y122.770 E0.06100
G1 X22.396 Y122.770 E0.01539
G1 X20.118 Y120.493 E0.08277
G1 X20.118 Y119.894 E0.01539
G1 X22.995 Y122.770 E0.10453
G1 X23.594 Y122.770 E0.01539
G1 X20.118 Y119.295 E0.12630
G1 X20.118 Y118.696 E0.01539
G1 X24.193 Y122.770 E0.14807
G1 X24.792 Y122.770 E0.01539
G1 X20.118 Y118.097 E0.16983
G1 X20.118 Y117.498 E0.01539
G1 X25.391 Y122.770 E0.19160
G1 X25.990 Y122.770 E0.01539
G1 X20.118 Y116.899 E0.21337
G1 X20.118 Y116.300 E0.01539
G1 X26.589 Y122.770 E0.23513
G1 X27.188 Y122.770 E0.01539
G1 X20.118 Y115.701 E0.25690
G1 X20.118 Y115.102 E0.01539
G1 X27.787 Y122.770 E0.27867
G1 X28.386 Y122.770 E0.01539
G1 X20.118 Y114.503 E0.30044
G1 X20.118 Y113.904 E0.01539
G1 X28.985 Y122.770 E0.32220
G1 X29.584 Y122.770 E0.01539
G1 X20.118 Y113.305 E0.34397
G1 X20.118 Y112.706 E0.01539
G1 X30.183 Y122.770 E0.36574
G1 X30.782 Y122.770 E0.01539
G1 X20.118 Y112.107 E0.38750
G1 X20.118 Y111.508 E0.01539
G1 X31.381 Y122.770 E0.40927
G1 X31.980 Y122.770 E0.01539
G1 X20.118 Y110.909 E0.43104
G1 X20.118 Y110.310 E0.01539
G1 X32.579 Y122.770 E0.45280
G1 X33.178 Y122.770 E0.01539
G1 X20.118 Y109.711 E0.47457
G1 X20.118 Y109.112 E0.01539
G1 X33.777 Y122.770 E0.49634
G1 X34.376 Y122.770 E0.01539
G1 X20.118 Y108.513 E0.51811
G1 X20.118 Y107.914 E0.01539
G1 X34.975 Y122.770 E0.53987
G1 X35.573 Y122.770 E0.01539
G1 X20.118 Y107.315 E0.56164
G1 X20.118 Y106.716 E0.01539
G1 X36.172 Y122.770 E0.58341
G1 X36.771 Y122.770 E0.01539
G1 X20.118 Y106.117 E0.60517
G1 X20.118 Y105.518 E0.01539
G1 X37.370 Y122.770 E0.62694
G1 X37.370 Y122.172 E0.01539
G1 X20.717 Y105.518 E0.60518
G1 X21.316 Y105.518 E0.01539
G1 X37.370 Y121.573 E0.58341
G1 X37.370 Y120.974 E0.01539
G1 X21.915 Y105.518 E0.56164
G1 X22.514 Y105.518 E0.01539
G1 X37.370 Y120.375 E0.53988
G1 X37.370 Y119.776 E0.01539
G1 X23.113 Y105.518 E0.51811
G1 X23.712 Y105.518 E0.01539
G1 X37.370 Y119.177 E0.49634
G1 X37.370 Y118.578 E0.01539
G1 X24.311 Y105.518 E0.47458
G1 X24.910 Y105.518 E0.01539
G1 X37.370 Y117.979 E0.45281
G1 X37.370 Y117.380 E0.01539
G1 X25.509 Y105.518 E0.43104
G1 X26.108 Y105.518 E0.01539
G1 X37.370 Y116.781 E0.40928
G1 X37.370 Y116.182 E0.01539
G1 X26.707 Y105.518 E0.38751
G1 X27.306 Y105.518 E0.01539
G1 X37.370 Y115.583 E0.36574
G1 X37.370 Y114.984 E0.01539
G1 X27.905 Y105.518 E0.34397
G1 X28.504 Y105.518 E0.01539
G1 X37.370 Y114.385 E0.32221
G1 X37.370 Y113.786 E0.01539
G1 X29.103 Y105.518 E0.30044
G1 X29.702 Y105.518 E0.01539
G1 X37.370 Y113.187 E0.27867
G1 X37.370 Y112.588 E0.01539
G1 X30.301 Y105.518 E0.25691
G1 X30.900 Y105.518 E0.01539
G1 X37.370 Y111.989 E0.23514
G1 X37.370 Y111.390 E0.01539
G1 X31.499 Y105.518 E0.21337
G1 X32.098 Y105.518 E0.01539
G1 X37.370 Y110.791 E0.19161
G1 X37.370 Y110.192 E0.01539
G1 X32.697 Y105.518 E0.16984
G1 X33.296 Y105.518 E0.01539
G1 X37.370 Y109.593 E0.14807
G1 X37.370 Y108.994 E0.01539
G1 X33.895 Y105.518 E0.12630
G1 X34.494 Y105.518 E0.01539
G1 X37.370 Y108.395 E0.10454
G1 X37.370 Y107.796 E0.01539
G1 X35.093 Y105.518 E0.08277
G1 X35.692 Y105.518 E0.01539
G1 X37.370 Y107.197 E0.06100
G1 X37.370 Y106.598 E0.01539
G1 X36.291 Y105.518 E0.03924
