; generated by Slic3r 1.36.2-prusa3d-stable-win64 on 2017-09-04 at 14:52:05

; 

; external perimeters extrusion width = 0.45mm
; perimeters extrusion width = 0.45mm
; infill extrusion width = 0.45mm
; solid infill extrusion width = 0.45mm
; top infill extrusion width = 0.42mm
; first layer extrusion width = 0.55mm

M115 U3.0.12 ; tell printer latest fw version
M83  ; extruder relative mode
M104 S285 ; set extruder temp
M140 S110 ; set bed temp
M190 S110 ; wait for bed temp
M109 S285 ; wait for extruder temp
G28 W ; home all without mesh bed level
G80 ; mesh bed leveling
G1 Y-3.0 F1000.0 ; go outside pritn area
G1 X60.0 E9.0  F1000.0 ; intro line
G1 X100.0 E12.5  F1000.0 ; intro line
; Filament gcode
G21 ; set units to millimeters
G90 ; use absolute coordinates
M83 ; use relative distances for extrusion
; Layer 0
G1 E-0.80000 F2100.00000
G1 Z0.350 F7200.000
G1 X110.692 Y91.621 F7200.000
G1 E0.80000 F2100.00000
M204 S1000
G1 F2100
G1 X111.470 Y90.815 E0.07664
G1 X112.395 Y90.185 E0.07664
G1 X113.429 Y89.755 E0.07664
G1 X114.528 Y89.545 E0.07664
G1 X135.006 Y89.525 E1.40188
G1 X135.972 Y89.612 E0.06640
G1 X136.907 Y89.868 E0.06640
G1 X137.783 Y90.285 E0.06640
G1 X138.576 Y90.854 E0.06679
G1 X139.251 Y91.550 E0.06640
G1 X139.793 Y92.354 E0.06640
G1 X140.187 Y93.247 E0.06679
G1 X140.415 Y94.190 E0.06640
G1 X140.475 Y94.984 E0.05456
G1 X140.469 Y115.248 E1.38727
G1 X140.365 Y116.091 E0.05812
G1 X140.134 Y116.902 E0.05772
G1 X139.778 Y117.673 E0.05812
G1 X139.308 Y118.379 E0.05812
G1 X138.477 Y119.229 E0.08136
G1 X137.477 Y119.882 E0.08176
G1 X136.365 Y120.302 E0.08136
G1 X135.183 Y120.472 E0.08176
G1 X114.728 Y120.468 E1.40033
G1 X113.898 Y120.363 E0.05733
G1 X113.087 Y120.130 E0.05772
G1 X112.322 Y119.775 E0.05772
G1 X111.621 Y119.308 E0.05772
G1 X110.771 Y118.477 E0.08136
G1 X110.118 Y117.477 E0.08176
G1 X109.698 Y116.365 E0.08136
G1 X109.528 Y115.183 E0.08176
G1 X109.532 Y94.728 E1.40033
G1 X109.637 Y93.898 E0.05733
G1 X109.870 Y93.087 E0.05772
G1 X110.225 Y92.322 E0.05772
G1 X110.659 Y91.671 E0.05361
G1 F5760
G1 X111.470 Y90.815 E-0.40820
G1 F5760
G1 X112.309 Y90.243 E-0.35180
G1 E-0.04000 F2100.00000
G1 X111.327 Y93.216 F7200.000
G1 E0.80000 F2100.00000
G1 F2100
G1 X111.824 Y92.467 E0.06153
G1 X112.454 Y91.837 E0.06100
G1 X113.025 Y91.428 E0.04804
G1 X113.795 Y91.101 E0.05732
G1 X114.545 Y90.963 E0.05218
G1 X135.507 Y90.968 E1.43506
G1 X136.243 Y91.112 E0.05132
G1 X136.937 Y91.407 E0.05160
G1 X137.435 Y91.742 E0.04111
G1 X138.163 Y92.453 E0.06967
G1 X138.672 Y93.214 E0.06265
G1 X138.909 Y93.827 E0.04498
G1 X139.029 Y94.462 E0.04428
G1 X139.037 Y115.452 E1.43694
G1 X138.922 Y116.126 E0.04682
G1 X138.673 Y116.784 E0.04817
G1 X138.176 Y117.533 E0.06153
G1 X137.546 Y118.163 E0.06100
G1 X136.975 Y118.572 E0.04804
G1 X136.205 Y118.899 E0.05732
G1 X135.455 Y119.037 E0.05216
G1 X114.548 Y119.037 E1.43130
G1 X113.874 Y118.922 E0.04682
G1 X113.216 Y118.673 E0.04817
G1 X112.467 Y118.176 E0.06153
G1 X111.837 Y117.546 E0.06100
G1 X111.428 Y116.975 E0.04804
G1 X111.101 Y116.205 E0.05732
G1 X110.963 Y115.455 E0.05216
G1 X110.963 Y94.548 E1.43130
G1 X111.078 Y93.874 E0.04682
G1 X111.306 Y93.272 E0.04406
G1 X111.749 Y93.443 F7200.000
G1 F2100
G1 X112.177 Y92.786 E0.05364
G1 X112.777 Y92.186 E0.05812
G1 X113.238 Y91.853 E0.03893
G1 X113.910 Y91.562 E0.05016
G1 X114.568 Y91.438 E0.04579
G1 X135.484 Y91.443 E1.43194
G1 X136.083 Y91.560 E0.04173
G1 X136.694 Y91.816 E0.04538
G1 X137.119 Y92.098 E0.03497
G1 X137.814 Y92.776 E0.06642
G1 X138.240 Y93.412 E0.05242
G1 X138.447 Y93.937 E0.03863
G1 X138.558 Y94.528 E0.04118
G1 X138.562 Y115.431 E1.43097
G1 X138.459 Y116.020 E0.04097
G1 X138.240 Y116.588 E0.04168
G1 X137.823 Y117.214 E0.05143
G1 X137.223 Y117.814 E0.05812
G1 X136.762 Y118.147 E0.03893
G1 X136.090 Y118.438 E0.05016
G1 X135.433 Y118.562 E0.04577
G1 X114.569 Y118.562 E1.42829
G1 X113.980 Y118.459 E0.04097
G1 X113.412 Y118.240 E0.04168
G1 X112.786 Y117.823 E0.05143
G1 X112.186 Y117.223 E0.05812
G1 X111.853 Y116.762 E0.03893
G1 X111.562 Y116.090 E0.05016
G1 X111.438 Y115.433 E0.04577
G1 X111.438 Y94.569 E1.42829
G1 X111.541 Y93.980 E0.04097
G1 X111.727 Y93.499 E0.03530
G1 X112.168 Y93.672 F7200.000
G1 F2100
G1 X112.193 Y93.610 E0.00457
G1 X112.529 Y93.106 E0.04150
G1 X113.100 Y92.535 E0.05529
G1 X113.454 Y92.276 E0.03001
G1 X114.029 Y92.023 E0.04299
G1 X114.591 Y91.913 E0.03922
G1 X135.460 Y91.918 E1.42864
G1 X135.964 Y92.020 E0.03525
G1 X136.453 Y92.225 E0.03631
G1 X136.805 Y92.455 E0.02877
G1 X137.465 Y93.099 E0.06309
G1 X137.807 Y93.610 E0.04214
G1 X137.996 Y94.089 E0.03522
G1 X138.087 Y94.591 E0.03496
G1 X138.087 Y115.409 E1.42516
G1 X137.996 Y115.911 E0.03496
G1 X137.807 Y116.390 E0.03522
G1 X137.471 Y116.894 E0.04150
G1 X136.900 Y117.465 E0.05529
G1 X136.546 Y117.724 E0.03001
G1 X135.971 Y117.977 E0.04299
G1 X135.409 Y118.087 E0.03921
G1 X114.591 Y118.087 E1.42517
G1 X114.089 Y117.996 E0.03496
G1 X113.610 Y117.807 E0.03522
G1 X113.106 Y117.471 E0.04150
G1 X112.535 Y116.900 E0.05529
G1 X112.276 Y116.546 E0.03001
G1 X112.023 Y115.971 E0.04299
G1 X111.913 Y115.409 E0.03921
G1 X111.913 Y94.591 E1.42517
G1 X112.004 Y94.089 E0.03496
G1 X112.146 Y93.728 E0.02654
G1 F5760
G1 X112.193 Y93.610 E-0.04391
G1 F5760
G1 X112.529 Y93.106 E-0.20996
G1 F5760
G1 X113.100 Y92.535 E-0.27975
G1 F5760
G1 X113.454 Y92.276 E-0.15181
G1 F5760
G1 X113.651 Y92.189 E-0.07457
G1 E-0.04000 F2100.00000
G1 X114.151 Y92.482 F7200.000
G1 E0.80000 F2100.00000
G1 F2100
G1 X114.616 Y92.388 E0.03246
G1 X135.436 Y92.393 E1.42531
G1 X135.805 Y92.468 E0.02579
G1 X136.217 Y92.638 E0.03056
G1 X136.492 Y92.813 E0.02228
G1 X137.115 Y93.421 E0.05964
G1 X137.377 Y93.811 E0.03212
G1 X137.534 Y94.201 E0.02881
G1 X137.612 Y94.614 E0.02876
G1 X137.612 Y115.386 E1.42200
G1 X137.534 Y115.799 E0.02876
G1 X137.377 Y116.189 E0.02882
G1 X137.119 Y116.575 E0.03178
G1 X136.576 Y117.117 E0.05252
G1 X136.326 Y117.302 E0.02131
G1 X135.849 Y117.518 E0.03583
G1 X135.384 Y117.612 E0.03245
G1 X114.614 Y117.612 E1.42191
G1 X114.201 Y117.534 E0.02876
G1 X113.811 Y117.377 E0.02882
G1 X113.425 Y117.119 E0.03178
G1 X112.883 Y116.576 E0.05252
G1 X112.698 Y116.326 E0.02131
G1 X112.482 Y115.849 E0.03583
G1 X112.388 Y115.384 E0.03245
G1 X112.388 Y94.614 E1.42191
G1 X112.466 Y94.201 E0.02876
G1 X112.623 Y93.811 E0.02882
G1 X112.881 Y93.425 E0.03178
G1 X113.424 Y92.883 E0.05252
G1 X113.674 Y92.698 E0.02131
G1 X114.096 Y92.507 E0.03172
G1 X114.288 Y92.941 F7200.000
G1 F2100
G1 X114.639 Y92.863 E0.02461
G1 X135.409 Y92.868 E1.42187
G1 X135.682 Y92.927 E0.01913
G1 X135.986 Y93.053 E0.02257
G1 X136.180 Y93.173 E0.01561
G1 X136.766 Y93.744 E0.05601
G1 X136.948 Y94.015 E0.02235
G1 X137.073 Y94.319 E0.02252
G1 X137.137 Y94.639 E0.02231
G1 X137.137 Y115.361 E1.41865
G1 X137.073 Y115.681 E0.02231
G1 X136.948 Y115.985 E0.02252
G1 X136.767 Y116.256 E0.02231
G1 X136.255 Y116.768 E0.04956
G1 X136.069 Y116.902 E0.01565
G1 X135.682 Y117.073 E0.02899
G1 X135.361 Y117.137 E0.02241
G1 X114.639 Y117.137 E1.41864
G1 X114.319 Y117.073 E0.02231
G1 X114.015 Y116.948 E0.02252
G1 X113.744 Y116.767 E0.02231
G1 X113.232 Y116.255 E0.04956
G1 X113.098 Y116.069 E0.01565
G1 X112.927 Y115.682 E0.02899
G1 X112.863 Y115.361 E0.02241
G1 X112.863 Y94.639 E1.41864
G1 X112.927 Y94.319 E0.02231
G1 X113.052 Y94.015 E0.02252
G1 X113.233 Y93.744 E0.02231
G1 X113.745 Y93.232 E0.04956
G1 X113.931 Y93.098 E0.01565
G1 X114.233 Y92.965 E0.02264
G1 X114.481 Y93.374 F7200.000
G1 F2100
G1 X114.662 Y93.338 E0.01265
G1 X135.381 Y93.342 E1.41843
G1 X135.518 Y93.373 E0.00958
G1 X135.784 Y93.483 E0.01973
G1 X135.903 Y93.559 E0.00963
G1 X136.415 Y94.064 E0.04924
G1 X136.518 Y94.219 E0.01271
G1 X136.626 Y94.479 E0.01933
G1 X136.662 Y94.662 E0.01275
G1 X136.662 Y115.338 E1.41545
G1 X136.626 Y115.521 E0.01275
G1 X136.518 Y115.781 E0.01933
G1 X136.414 Y115.936 E0.01275
G1 X135.934 Y116.416 E0.04646
G1 X135.819 Y116.498 E0.00968
G1 X135.519 Y116.626 E0.02231
G1 X135.338 Y116.662 E0.01265
G1 X114.662 Y116.662 E1.41545
G1 X114.479 Y116.626 E0.01275
G1 X114.219 Y116.518 E0.01933
G1 X114.064 Y116.414 E0.01275
G1 X113.584 Y115.934 E0.04646
G1 X113.502 Y115.819 E0.00968
G1 X113.374 Y115.519 E0.02231
G1 X113.338 Y115.338 E0.01265
G1 X113.338 Y94.662 E1.41545
G1 X113.374 Y94.479 E0.01275
G1 X113.482 Y94.219 E0.01933
G1 X113.586 Y94.064 E0.01275
G1 X114.066 Y93.584 E0.04646
G1 X114.181 Y93.502 E0.00968
G1 X114.426 Y93.398 E0.01820
G1 X114.607 Y93.835 F7200.000
G1 F2100
G1 X114.685 Y93.813 E0.00559
G1 X135.315 Y93.813 E1.41226
G1 X135.617 Y93.938 E0.02242
G1 X136.062 Y94.383 E0.04307
G1 X136.187 Y94.685 E0.02242
G1 X136.187 Y115.315 E1.41226
G1 X136.062 Y115.617 E0.02242
G1 X135.617 Y116.062 E0.04307
G1 X135.315 Y116.187 E0.02242
G1 X114.685 Y116.187 E1.41226
G1 X114.383 Y116.062 E0.02242
G1 X113.938 Y115.617 E0.04307
G1 X113.813 Y115.315 E0.02242
G1 X113.813 Y94.685 E1.41226
G1 X113.938 Y94.383 E0.02242
G1 X114.383 Y93.938 E0.04307
G1 X114.552 Y93.858 E0.01277
G1 X114.669 Y94.324 F7200.000
G1 F2100
G1 X114.756 Y94.288 E0.00647
G1 X135.244 Y94.288 E1.40259
G1 X135.331 Y94.324 E0.00647
G1 X135.676 Y94.669 E0.03340
G1 X135.712 Y94.756 E0.00647
G1 X135.712 Y115.244 E1.40259
G1 X135.676 Y115.331 E0.00647
G1 X135.331 Y115.676 E0.03340
G1 X135.244 Y115.712 E0.00647
G1 X114.756 Y115.712 E1.40259
G1 X114.669 Y115.676 E0.00647
G1 X114.324 Y115.331 E0.03340
G1 X114.288 Y115.244 E0.00647
G1 X114.288 Y94.756 E1.40259
G1 X114.324 Y94.669 E0.00647
G1 X114.626 Y94.366 E0.02929
G1 X114.902 Y94.763 F7200.000
G1 F2100
G1 X135.098 Y94.763 E1.38266
G1 X135.237 Y94.902 E0.01347
G1 X135.237 Y115.098 E1.38266
G1 X135.098 Y115.237 E0.01347
G1 X114.902 Y115.237 E1.38266
G1 X114.763 Y115.098 E0.01347
G1 X114.763 Y94.902 E1.38266
G1 X114.859 Y94.805 E0.00936
G1 X115.275 Y95.275 F7200.000
G1 F1050
G1 X134.725 Y95.275 E1.33154
G1 X134.725 Y114.725 E1.33154
G1 X115.275 Y114.725 E1.33154
G1 X115.275 Y95.335 E1.32743
G1 X115.661 Y95.379 F7200.000
G1 X115.750 Y95.750 F7200.000
G1 F1680
G1 X134.250 Y95.750 E1.26652
G1 X134.250 Y114.250 E1.26652
G1 X115.750 Y114.250 E1.26652
G1 X115.750 Y95.810 E1.26241
G1 X116.225 Y96.225 F7200.000
G1 F1680
G1 X133.775 Y96.225 E1.20150
G1 X133.775 Y113.775 E1.20150
G1 X116.225 Y113.775 E1.20150
G1 X116.225 Y96.285 E1.19739
G1 F5760
G1 X118.419 Y96.277 E-0.76000
G1 E-0.04000 F2100.00000
G1 X116.367 Y112.662 F7200.000
G1 E0.80000 F2100.00000
G1 F1680
G1 X117.124 Y113.419 E0.07416
G1 X117.803 Y113.419 E0.04702
G1 X116.581 Y112.197 E0.11972
G1 X116.581 Y111.518 E0.04702
G1 X118.482 Y113.419 E0.18622
G1 X119.161 Y113.419 E0.04702
G1 X116.581 Y110.839 E0.25271
G1 X116.581 Y110.160 E0.04702
G1 X119.840 Y113.419 E0.31921
G1 X120.519 Y113.419 E0.04702
G1 X116.581 Y109.481 E0.38570
G1 X116.581 Y108.802 E0.04702
G1 X121.198 Y113.419 E0.45220
G1 X121.877 Y113.419 E0.04702
G1 X116.581 Y108.123 E0.51869
G1 X116.581 Y107.444 E0.04702
G1 X122.556 Y113.419 E0.58519
G1 X123.235 Y113.419 E0.04702
G1 X116.581 Y106.765 E0.65168
G1 X116.581 Y106.086 E0.04702
G1 X123.914 Y113.419 E0.71818
G1 X124.593 Y113.419 E0.04702
G1 X116.581 Y105.407 E0.78467
G1 X116.581 Y104.728 E0.04702
G1 X125.272 Y113.419 E0.85117
G1 X125.951 Y113.419 E0.04702
G1 X116.581 Y104.049 E0.91766
G1 X116.581 Y103.370 E0.04702
G1 X126.630 Y113.419 E0.98416
G1 X127.309 Y113.419 E0.04702
G1 X116.581 Y102.691 E1.05065
G1 X116.581 Y102.013 E0.04702
G1 X127.987 Y113.419 E1.11715
G1 X128.666 Y113.419 E0.04702
G1 X116.581 Y101.334 E1.18364
G1 X116.581 Y100.655 E0.04702
G1 X129.345 Y113.419 E1.25014
G1 X130.024 Y113.419 E0.04702
G1 X116.581 Y99.976 E1.31663
G1 X116.581 Y99.297 E0.04702
G1 X130.703 Y113.419 E1.38313
G1 X131.382 Y113.419 E0.04702
G1 X116.581 Y98.618 E1.44962
G1 X116.581 Y97.939 E0.04702
G1 X132.061 Y113.419 E1.51612
G1 X132.740 Y113.419 E0.04702
G1 X116.581 Y97.260 E1.58261
G1 X116.581 Y96.581 E0.04702
G1 X133.419 Y113.419 E1.64911
G1 X133.419 Y112.740 E0.04701
G1 X117.260 Y96.581 E1.58263
G1 X117.939 Y96.581 E0.04702
G1 X133.419 Y112.061 E1.51613
G1 X133.419 Y111.382 E0.04702
G1 X118.618 Y96.581 E1.44964
G1 X119.297 Y96.581 E0.04702
G1 X133.419 Y110.703 E1.38314
G1 X133.419 Y110.024 E0.04702
G1 X119.976 Y96.581 E1.31665
G1 X120.655 Y96.581 E0.04702
G1 X133.419 Y109.345 E1.25015
G1 X133.419 Y108.667 E0.04702
G1 X121.333 Y96.581 E1.18366
G1 X122.012 Y96.581 E0.04702
G1 X133.419 Y107.988 E1.11716
G1 X133.419 Y107.309 E0.04702
G1 X122.691 Y96.581 E1.05067
G1 X123.370 Y96.581 E0.04702
G1 X133.419 Y106.630 E0.98417
G1 X133.419 Y105.951 E0.04702
G1 X124.049 Y96.581 E0.91768
G1 X124.728 Y96.581 E0.04702
G1 X133.419 Y105.272 E0.85118
G1 X133.419 Y104.593 E0.04702
G1 X125.407 Y96.581 E0.78469
G1 X126.086 Y96.581 E0.04702
G1 X133.419 Y103.914 E0.71819
G1 X133.419 Y103.235 E0.04702
G1 X126.765 Y96.581 E0.65170
G1 X127.444 Y96.581 E0.04702
G1 X133.419 Y102.556 E0.58520
G1 X133.419 Y101.877 E0.04702
G1 X128.123 Y96.581 E0.51871
G1 X128.802 Y96.581 E0.04702
G1 X133.419 Y101.198 E0.45221
G1 X133.419 Y100.519 E0.04702
G1 X129.481 Y96.581 E0.38571
G1 X130.160 Y96.581 E0.04702
G1 X133.419 Y99.840 E0.31922
G1 X133.419 Y99.161 E0.04702
G1 X130.839 Y96.581 E0.25272
G1 X131.518 Y96.581 E0.04702
G1 X133.419 Y98.482 E0.18623
G1 X133.419 Y97.803 E0.04702
G1 X132.197 Y96.581 E0.11973
G1 X132.875 Y96.581 E0.04702
G1 X133.633 Y97.338 E0.07417
; Layer 1
G1 F5760
G1 X132.875 Y96.581 E-0.37094
G1 F5760
G1 X132.197 Y96.581 E-0.23515
G1 F5760
G1 X132.511 Y96.895 E-0.15391
G1 E-0.04000 F2100.00000
G1 Z0.550 F7200.000
M140 S120 ; set bed temperature
G1 X140.187 Y93.247 F7200.000
G1 E0.80000 F2100.00000
G1 F3000
G1 X140.415 Y94.190 E0.04164
G1 X140.475 Y94.984 E0.03422
G1 X140.469 Y115.248 E0.87002
G1 X140.365 Y116.091 E0.03645
G1 X140.134 Y116.902 E0.03620
G1 X139.778 Y117.673 E0.03645
G1 X139.308 Y118.379 E0.03645
G1 X138.477 Y119.229 E0.05103
G1 X137.477 Y119.882 E0.05127
G1 X136.365 Y120.302 E0.05103
G1 X135.183 Y120.472 E0.05127
G1 X114.728 Y120.468 E0.87821
G1 X113.898 Y120.363 E0.03595
G1 X113.087 Y120.130 E0.03620
G1 X112.322 Y119.775 E0.03620
G1 X111.621 Y119.308 E0.03620
G1 X110.771 Y118.477 E0.05103
G1 X110.118 Y117.477 E0.05127
G1 X109.698 Y116.365 E0.05103
G1 X109.528 Y115.183 E0.05127
G1 X109.532 Y94.728 E0.87821
G1 X109.637 Y93.898 E0.03595
G1 X109.870 Y93.087 E0.03620
G1 X110.225 Y92.322 E0.03620
G1 X110.692 Y91.621 E0.03620
G1 X111.470 Y90.815 E0.04806
G1 X112.395 Y90.185 E0.04806
G1 X113.429 Y89.755 E0.04806
G1 X114.528 Y89.545 E0.04806
G1 X135.006 Y89.525 E0.87918
G1 X135.972 Y89.612 E0.04164
G1 X136.907 Y89.868 E0.04164
G1 X137.783 Y90.285 E0.04164
G1 X138.576 Y90.854 E0.04189
G1 X139.251 Y91.550 E0.04164
G1 X139.793 Y92.354 E0.04164
G1 X140.162 Y93.192 E0.03931
G1 F5760
G1 X140.415 Y94.190 E-0.35639
G1 F5760
G1 X140.475 Y94.984 E-0.27605
G1 F5760
G1 X140.475 Y95.353 E-0.12755
G1 E-0.04000 F2100.00000
G1 X133.961 Y96.039 F7200.000
G1 E0.80000 F2100.00000
M204 S800
G1 F2400
G1 X133.961 Y113.961 E0.61298
G1 X116.039 Y113.961 E0.61298
G1 X116.039 Y96.039 E0.61298
G1 X133.901 Y96.039 E0.61092
M204 S1000
G1 X134.368 Y95.632 F7200.000
M204 S800
G1 F2400
G1 X134.368 Y114.368 E0.64082
G1 X115.632 Y114.368 E0.64082
G1 X115.632 Y95.632 E0.64082
G1 X134.308 Y95.632 E0.63877
M204 S1000
G1 X134.775 Y95.225 F7200.000
M204 S800
G1 F1500
G1 X134.775 Y114.775 E0.66867
G1 X115.225 Y114.775 E0.66867
G1 X115.225 Y95.225 E0.66867
G1 X134.715 Y95.225 E0.66662
M204 S1000
G1 X134.671 Y95.611 F7200.000
G1 F5760
G1 X134.722 Y97.419 E-0.76000
G1 E-0.04000 F2100.00000
G1 X116.992 Y96.161 F7200.000
G1 E0.80000 F2100.00000
M204 S2000
G1 F2400
G1 X116.344 Y96.809 E0.03162
G1 X116.344 Y97.390 E0.02006
G1 X117.390 Y96.344 E0.05104
G1 X117.971 Y96.344 E0.02006
G1 X116.344 Y97.971 E0.07940
G1 X116.344 Y98.552 E0.02006
G1 X118.552 Y96.344 E0.10776
G1 X119.132 Y96.344 E0.02006
G1 X116.344 Y99.132 E0.13613
G1 X116.344 Y99.713 E0.02006
G1 X119.713 Y96.344 E0.16449
G1 X120.294 Y96.344 E0.02006
G1 X116.344 Y100.294 E0.19286
G1 X116.344 Y100.875 E0.02006
G1 X120.875 Y96.344 E0.22122
G1 X121.456 Y96.344 E0.02006
G1 X116.344 Y101.456 E0.24959
G1 X116.344 Y102.037 E0.02006
G1 X122.037 Y96.344 E0.27795
G1 X122.618 Y96.344 E0.02006
