; generated by Slic3r 1.36.2-prusa3d-stable-win64 on 2017-08-23 at 01:44:17

; 

; external perimeters extrusion width = 0.45mm
; perimeters extrusion width = 0.45mm
; infill extrusion width = 0.45mm
; solid infill extrusion width = 0.45mm
; top infill extrusion width = 0.42mm
; first layer extrusion width = 0.47mm

M115 U3.0.12 ; tell printer latest fw version
M83  ; extruder relative mode
M104 S285 ; set extruder temp
M140 S105 ; set bed temp
M190 S105 ; wait for bed temp
M109 S285 ; wait for extruder temp
G28 W ; home all without mesh bed level
G80 ; mesh bed leveling
G1 Y-3.0 F1000.0 ; go outside pritn area
G1 X60.0 E9.0  F1000.0 ; intro line
G1 X100.0 E12.5  F1000.0 ; intro line
; Filament gcode
G21 ; set units to millimeters
G90 ; use absolute coordinates
M83 ; use relative distances for extrusion
; Layer 0
G1 E-0.80000 F2100.00000
G1 Z0.150 F7200.000
G1 X8.357 Y109.648 F7200.000
G1 E0.80000 F2100.00000
M204 S1000
G1 F2100
G1 X8.518 Y108.888 E0.02066
G1 X8.788 Y108.153 E0.02081
G1 X9.157 Y107.469 E0.02066
G1 X9.624 Y106.841 E0.02081
G1 X10.172 Y106.290 E0.02066
G1 X10.797 Y105.819 E0.02081
G1 X11.479 Y105.446 E0.02066
G1 X12.212 Y105.171 E0.02081
G1 X12.954 Y105.009 E0.02020
G1 X13.718 Y104.951 E0.02035
G1 X101.038 Y104.744 E2.32152
G1 X238.374 Y105.938 E3.65137
G1 X239.358 Y106.038 E0.02631
G1 X240.152 Y106.256 E0.02188
G1 X240.909 Y106.593 E0.02203
G1 X241.601 Y107.039 E0.02188
G1 X242.222 Y107.588 E0.02203
G1 X242.749 Y108.220 E0.02188
G1 X243.177 Y108.929 E0.02203
G1 X243.493 Y109.696 E0.02203
G1 X243.688 Y110.501 E0.02203
G1 X243.759 Y111.356 E0.02280
G1 X243.759 Y131.381 E0.53240
G1 X243.659 Y132.412 E0.02753
G1 X243.414 Y133.282 E0.02402
G1 X243.028 Y134.099 E0.02402
G1 X242.516 Y134.836 E0.02387
G1 X241.885 Y135.483 E0.02402
G1 X241.156 Y136.016 E0.02402
G1 X240.348 Y136.421 E0.02402
G1 X239.485 Y136.687 E0.02402
G1 X238.590 Y136.807 E0.02402
G1 X170.004 Y137.071 E1.82345
G1 X149.977 Y137.071 E0.53242
G1 X13.545 Y135.823 E3.62736
G1 X12.705 Y135.726 E0.02249
G1 X11.889 Y135.500 E0.02249
G1 X11.119 Y135.151 E0.02249
G1 X10.407 Y134.682 E0.02265
G1 X9.782 Y134.113 E0.02249
G1 X9.252 Y133.453 E0.02249
G1 X8.831 Y132.719 E0.02249
G1 X8.528 Y131.923 E0.02265
G1 X8.366 Y131.187 E0.02005
G1 X8.307 Y130.429 E0.02020
G1 X8.357 Y109.708 E0.55090
G1 F5760
G1 X8.518 Y108.888 E-0.28952
G1 F5760
G1 X8.788 Y108.153 E-0.27113
G1 F5760
G1 X9.061 Y107.646 E-0.19935
G1 E-0.04000 F2100.00000
G1 X9.958 Y108.565 F7200.000
G1 E0.80000 F2100.00000
G1 F2100
G1 X10.492 Y107.760 E0.02570
G1 X11.100 Y107.151 E0.02288
G1 X11.730 Y106.703 E0.02054
G1 X12.485 Y106.381 E0.02182
G1 X13.306 Y106.230 E0.02218
G1 X34.233 Y106.234 E0.55639
G1 X35.040 Y106.393 E0.02186
G1 X35.756 Y106.701 E0.02073
G1 X36.280 Y107.058 E0.01686
G1 X36.983 Y107.744 E0.02609
G1 X37.530 Y108.563 E0.02621
G1 X37.776 Y109.212 E0.01845
G1 X37.897 Y109.877 E0.01796
G1 X37.904 Y130.824 E0.55691
G1 X37.788 Y131.522 E0.01881
G1 X37.531 Y132.212 E0.01958
G1 X36.997 Y133.018 E0.02570
G1 X36.388 Y133.627 E0.02288
G1 X35.759 Y134.075 E0.02054
G1 X35.004 Y134.396 E0.02182
G1 X34.184 Y134.548 E0.02217
G1 X13.309 Y134.548 E0.55498
G1 X12.611 Y134.432 E0.01881
G1 X11.921 Y134.175 E0.01958
G1 X11.115 Y133.641 E0.02570
G1 X10.506 Y133.033 E0.02288
G1 X10.058 Y132.404 E0.02054
G1 X9.737 Y131.648 E0.02182
G1 X9.585 Y130.828 E0.02217
G1 X9.585 Y109.953 E0.55498
G1 X9.701 Y109.255 E0.01881
G1 X9.937 Y108.622 E0.01798
G1 X10.346 Y108.776 F7200.000
G1 F2100
G1 X10.817 Y108.054 E0.02293
G1 X11.398 Y107.473 E0.02184
G1 X11.923 Y107.096 E0.01720
G1 X12.634 Y106.794 E0.02052
G1 X13.325 Y106.667 E0.01868
G1 X34.212 Y106.672 E0.55531
G1 X34.890 Y106.805 E0.01837
G1 X35.530 Y107.076 E0.01848
G1 X35.989 Y107.386 E0.01472
G1 X36.661 Y108.041 E0.02494
G1 X37.131 Y108.744 E0.02249
G1 X37.349 Y109.311 E0.01616
G1 X37.463 Y109.936 E0.01687
G1 X37.466 Y130.806 E0.55485
G1 X37.360 Y131.427 E0.01676
G1 X37.131 Y132.034 E0.01725
G1 X36.672 Y132.724 E0.02203
G1 X36.091 Y133.305 E0.02184
G1 X35.565 Y133.682 E0.01720
G1 X34.855 Y133.984 E0.02052
G1 X34.164 Y134.110 E0.01868
G1 X13.328 Y134.110 E0.55396
G1 X12.706 Y134.005 E0.01676
G1 X12.100 Y133.775 E0.01725
G1 X11.409 Y133.317 E0.02203
G1 X10.828 Y132.736 E0.02184
G1 X10.451 Y132.210 E0.01720
G1 X10.150 Y131.500 E0.02052
G1 X10.023 Y130.809 E0.01868
G1 X10.023 Y109.972 E0.55396
G1 X10.129 Y109.351 E0.01676
G1 X10.325 Y108.833 E0.01473
G1 X10.733 Y108.990 F7200.000
G1 F2100
G1 X10.758 Y108.925 E0.00186
G1 X11.142 Y108.348 E0.01841
G1 X11.695 Y107.795 E0.02081
G1 X12.120 Y107.488 E0.01394
G1 X12.740 Y107.219 E0.01796
G1 X13.346 Y107.105 E0.01639
G1 X34.191 Y107.110 E0.55419
G1 X34.742 Y107.217 E0.01494
G1 X35.306 Y107.453 E0.01625
G1 X35.698 Y107.714 E0.01252
G1 X36.339 Y108.339 E0.02378
G1 X36.731 Y108.924 E0.01875
G1 X36.933 Y109.448 E0.01493
G1 X37.028 Y109.992 E0.01467
G1 X37.028 Y130.786 E0.55284
G1 X36.933 Y131.330 E0.01467
G1 X36.731 Y131.853 E0.01492
G1 X36.347 Y132.430 E0.01841
G1 X35.794 Y132.983 E0.02081
G1 X35.369 Y133.290 E0.01394
G1 X34.749 Y133.558 E0.01796
G1 X34.143 Y133.672 E0.01639
G1 X13.347 Y133.672 E0.55288
G1 X12.804 Y133.577 E0.01467
G1 X12.280 Y133.376 E0.01492
G1 X11.704 Y132.992 E0.01841
G1 X11.150 Y132.438 E0.02081
G1 X10.843 Y132.013 E0.01394
G1 X10.575 Y131.393 E0.01796
G1 X10.461 Y130.788 E0.01639
G1 X10.461 Y109.992 E0.55288
G1 X10.556 Y109.448 E0.01467
G1 X10.711 Y109.046 E0.01147
G1 F5760
G1 X10.758 Y108.925 E-0.04500
G1 F5760
G1 X11.142 Y108.348 E-0.23987
G1 F5760
G1 X11.695 Y107.795 E-0.27110
G1 F5760
G1 X12.120 Y107.488 E-0.18158
G1 F5760
G1 X12.180 Y107.462 E-0.02245
G1 E-0.04000 F2100.00000
G1 X12.849 Y107.644 F7200.000
G1 E0.80000 F2100.00000
G1 F2100
G1 X13.368 Y107.543 E0.01404
G1 X34.168 Y107.547 E0.55301
G1 X34.633 Y107.642 E0.01262
G1 X35.084 Y107.831 E0.01300
G1 X35.409 Y108.043 E0.01030
G1 X36.017 Y108.636 E0.02259
G1 X36.333 Y109.107 E0.01509
G1 X36.506 Y109.549 E0.01261
G1 X36.590 Y110.012 E0.01252
G1 X36.590 Y130.766 E0.55176
G1 X36.506 Y131.229 E0.01252
G1 X36.333 Y131.670 E0.01261
G1 X36.023 Y132.135 E0.01486
G1 X35.496 Y132.662 E0.01980
G1 X35.169 Y132.900 E0.01074
G1 X34.640 Y133.134 E0.01539
G1 X34.121 Y133.235 E0.01404
G1 X13.368 Y133.235 E0.55177
G1 X12.904 Y133.151 E0.01252
G1 X12.463 Y132.977 E0.01261
G1 X11.998 Y132.667 E0.01486
G1 X11.471 Y132.140 E0.01980
G1 X11.234 Y131.814 E0.01074
G1 X11.000 Y131.284 E0.01539
G1 X10.899 Y130.766 E0.01404
G1 X10.899 Y110.012 E0.55177
G1 X10.983 Y109.549 E0.01252
G1 X11.156 Y109.107 E0.01261
G1 X11.466 Y108.642 E0.01486
G1 X11.993 Y108.116 E0.01980
G1 X12.320 Y107.878 E0.01074
G1 X12.794 Y107.668 E0.01380
G1 X12.962 Y108.068 F7200.000
G1 F2100
G1 X13.390 Y107.981 E0.01162
G1 X34.146 Y107.985 E0.55181
G1 X34.486 Y108.055 E0.00923
G1 X34.867 Y108.211 E0.01094
G1 X35.120 Y108.373 E0.00798
G1 X35.695 Y108.934 E0.02135
G1 X35.936 Y109.293 E0.01150
G1 X36.081 Y109.653 E0.01031
G1 X36.152 Y110.033 E0.01030
G1 X36.152 Y130.744 E0.55063
G1 X36.081 Y131.125 E0.01030
G1 X35.936 Y131.485 E0.01032
G1 X35.698 Y131.841 E0.01138
G1 X35.198 Y132.341 E0.01880
G1 X34.967 Y132.511 E0.00763
G1 X34.527 Y132.710 E0.01283
G1 X34.099 Y132.797 E0.01162
G1 X13.389 Y132.797 E0.55060
G1 X13.008 Y132.725 E0.01030
G1 X12.648 Y132.580 E0.01032
G1 X12.292 Y132.342 E0.01138
G1 X11.792 Y131.842 E0.01880
G1 X11.622 Y131.611 E0.00763
G1 X11.423 Y131.171 E0.01283
G1 X11.336 Y130.743 E0.01162
G1 X11.336 Y110.033 E0.55060
G1 X11.408 Y109.653 E0.01030
G1 X11.553 Y109.293 E0.01032
G1 X11.791 Y108.937 E0.01138
G1 X12.291 Y108.437 E0.01880
G1 X12.522 Y108.267 E0.00763
G1 X12.907 Y108.092 E0.01123
G1 X13.116 Y108.478 F7200.000
G1 F2100
G1 X13.412 Y108.419 E0.00802
G1 X34.121 Y108.423 E0.55058
G1 X34.373 Y108.478 E0.00685
G1 X34.654 Y108.594 E0.00808
G1 X34.833 Y108.704 E0.00559
G1 X35.373 Y109.231 E0.02005
G1 X35.540 Y109.481 E0.00800
G1 X35.656 Y109.761 E0.00806
G1 X35.715 Y110.056 E0.00799
G1 X35.715 Y130.722 E0.54943
G1 X35.656 Y131.017 E0.00799
G1 X35.540 Y131.297 E0.00806
G1 X35.373 Y131.547 E0.00799
G1 X34.901 Y132.018 E0.01775
G1 X34.730 Y132.142 E0.00560
G1 X34.373 Y132.300 E0.01038
G1 X34.077 Y132.359 E0.00802
G1 X13.411 Y132.359 E0.54943
G1 X13.117 Y132.300 E0.00799
G1 X12.837 Y132.184 E0.00806
G1 X12.587 Y132.017 E0.00799
G1 X12.115 Y131.546 E0.01775
G1 X11.991 Y131.375 E0.00560
G1 X11.834 Y131.018 E0.01038
G1 X11.774 Y130.722 E0.00802
G1 X11.774 Y110.056 E0.54943
G1 X11.833 Y109.761 E0.00799
G1 X11.949 Y109.481 E0.00806
G1 X12.116 Y109.231 E0.00799
G1 X12.588 Y108.759 E0.01775
G1 X12.759 Y108.636 E0.00560
G1 X13.061 Y108.502 E0.00878
G1 X13.266 Y108.890 F7200.000
G1 F2100
G1 X13.433 Y108.857 E0.00453
G1 X34.096 Y108.861 E0.54935
G1 X34.222 Y108.889 E0.00343
G1 X34.467 Y108.991 E0.00706
G1 X34.577 Y109.060 E0.00345
G1 X35.049 Y109.526 E0.01763
G1 X35.144 Y109.668 E0.00455
G1 X35.243 Y109.909 E0.00692
G1 X35.277 Y110.077 E0.00457
G1 X35.277 Y130.700 E0.54829
G1 X35.243 Y130.869 E0.00457
G1 X35.144 Y131.109 E0.00692
G1 X35.048 Y131.252 E0.00457
G1 X34.606 Y131.695 E0.01664
G1 X34.499 Y131.770 E0.00347
G1 X34.223 Y131.888 E0.00799
G1 X34.056 Y131.921 E0.00453
G1 X13.433 Y131.921 E0.54829
G1 X13.264 Y131.888 E0.00457
G1 X13.024 Y131.788 E0.00692
G1 X12.881 Y131.693 E0.00457
G1 X12.439 Y131.250 E0.01664
G1 X12.364 Y131.144 E0.00347
G1 X12.245 Y130.868 E0.00799
G1 X12.212 Y130.700 E0.00453
G1 X12.212 Y110.077 E0.54829
G1 X12.246 Y109.909 E0.00457
G1 X12.345 Y109.668 E0.00692
G1 X12.441 Y109.526 E0.00457
G1 X12.883 Y109.083 E0.01664
G1 X12.990 Y109.008 E0.00347
G1 X13.211 Y108.913 E0.00639
G1 X13.378 Y109.317 F7200.000
G1 F2100
G1 X13.454 Y109.294 E0.00212
G1 X34.034 Y109.294 E0.54714
G1 X34.313 Y109.410 E0.00803
G1 X34.723 Y109.820 E0.01542
G1 X34.839 Y110.099 E0.00803
G1 X34.839 Y130.679 E0.54714
G1 X34.723 Y130.958 E0.00803
G1 X34.313 Y131.368 E0.01542
G1 X34.034 Y131.483 E0.00803
G1 X13.454 Y131.483 E0.54714
G1 X13.176 Y131.368 E0.00803
G1 X12.765 Y130.958 E0.01542
G1 X12.650 Y130.679 E0.00803
G1 X12.650 Y110.099 E0.54714
G1 X12.765 Y109.820 E0.00803
G1 X13.176 Y109.410 E0.01542
G1 X13.322 Y109.340 E0.00432
G1 X13.439 Y109.766 F7200.000
G1 F2100
G1 X13.520 Y109.732 E0.00232
G1 X33.969 Y109.732 E0.54368
G1 X34.050 Y109.766 E0.00232
G1 X34.368 Y110.084 E0.01196
G1 X34.401 Y110.164 E0.00232
G1 X34.401 Y130.614 E0.54368
G1 X34.368 Y130.694 E0.00232
G1 X34.050 Y131.012 E0.01196
G1 X33.969 Y131.046 E0.00232
G1 X13.520 Y131.046 E0.54368
G1 X13.439 Y131.012 E0.00232
G1 X13.121 Y130.694 E0.01196
G1 X13.088 Y130.614 E0.00232
G1 X13.088 Y110.164 E0.54368
G1 X13.121 Y110.084 E0.00232
G1 X13.397 Y109.808 E0.01036
G1 X13.654 Y110.170 F7200.000
G1 F2100
G1 X33.835 Y110.170 E0.53654
G1 X33.963 Y110.298 E0.00482
G1 X33.963 Y130.480 E0.53654
G1 X33.835 Y130.608 E0.00482
G1 X13.654 Y130.608 E0.53654
G1 X13.526 Y130.480 E0.00482
G1 X13.526 Y110.298 E0.53654
G1 X13.611 Y110.212 E0.00323
G1 F5760
G1 X15.806 Y110.208 E-0.76000
G1 E-0.04000 F2100.00000
G1 X77.246 Y108.358 F7200.000
G1 E0.80000 F2100.00000
G1 F2100
G1 X77.780 Y107.552 E0.02570
G1 X78.388 Y106.943 E0.02288
G1 X79.017 Y106.495 E0.02054
G1 X79.773 Y106.174 E0.02182
G1 X80.593 Y106.022 E0.02218
G1 X101.521 Y106.026 E0.55639
G1 X102.328 Y106.185 E0.02186
G1 X103.044 Y106.494 E0.02073
G1 X103.568 Y106.851 E0.01686
G1 X104.270 Y107.536 E0.02609
G1 X104.818 Y108.356 E0.02621
G1 X105.064 Y109.005 E0.01845
G1 X105.185 Y109.669 E0.01796
G1 X105.191 Y130.617 E0.55691
G1 X105.076 Y131.315 E0.01881
G1 X104.819 Y132.005 E0.01958
G1 X104.285 Y132.811 E0.02570
G1 X103.676 Y133.419 E0.02288
G1 X103.047 Y133.868 E0.02054
G1 X102.292 Y134.189 E0.02182
G1 X101.471 Y134.341 E0.02217
G1 X80.597 Y134.341 E0.55498
G1 X79.899 Y134.225 E0.01881
G1 X79.209 Y133.968 E0.01958
G1 X78.403 Y133.434 E0.02570
G1 X77.794 Y132.825 E0.02288
G1 X77.346 Y132.196 E0.02054
G1 X77.025 Y131.441 E0.02182
G1 X76.873 Y130.621 E0.02217
G1 X76.873 Y109.746 E0.55498
G1 X76.989 Y109.048 E0.01881
G1 X77.225 Y108.414 E0.01798
G1 X77.634 Y108.569 F7200.000
G1 F2100
G1 X78.104 Y107.846 E0.02293
G1 X78.685 Y107.265 E0.02184
G1 X79.211 Y106.888 E0.01720
G1 X79.922 Y106.586 E0.02052
G1 X80.613 Y106.460 E0.01868
G1 X101.500 Y106.464 E0.55531
G1 X102.178 Y106.597 E0.01837
G1 X102.818 Y106.869 E0.01848
G1 X103.277 Y107.178 E0.01472
G1 X103.948 Y107.834 E0.02494
G1 X104.418 Y108.537 E0.02249
G1 X104.637 Y109.104 E0.01616
G1 X104.750 Y109.728 E0.01687
G1 X104.753 Y130.598 E0.55485
G1 X104.648 Y131.220 E0.01676
G1 X104.418 Y131.826 E0.01725
G1 X103.960 Y132.517 E0.02203
G1 X103.379 Y133.097 E0.02184
G1 X102.853 Y133.474 E0.01720
G1 X102.143 Y133.776 E0.02052
G1 X101.452 Y133.903 E0.01868
G1 X80.615 Y133.903 E0.55396
G1 X79.994 Y133.797 E0.01676
G1 X79.387 Y133.568 E0.01725
G1 X78.697 Y133.109 E0.02203
G1 X78.116 Y132.528 E0.02184
G1 X77.739 Y132.002 E0.01720
G1 X77.437 Y131.292 E0.02052
G1 X77.311 Y130.601 E0.01868
G1 X77.311 Y109.765 E0.55396
G1 X77.416 Y109.143 E0.01676
G1 X77.612 Y108.625 E0.01473
G1 X78.020 Y108.782 F7200.000
G1 F2100
G1 X78.045 Y108.717 E0.00186
G1 X78.429 Y108.141 E0.01841
G1 X78.983 Y107.587 E0.02081
G1 X79.408 Y107.280 E0.01394
G1 X80.028 Y107.012 E0.01796
G1 X80.634 Y106.898 E0.01639
G1 X101.479 Y106.902 E0.55419
G1 X102.030 Y107.010 E0.01494
G1 X102.594 Y107.246 E0.01625
G1 X102.986 Y107.506 E0.01252
G1 X103.626 Y108.131 E0.02378
G1 X104.019 Y108.717 E0.01875
G1 X104.221 Y109.241 E0.01493
G1 X104.316 Y109.784 E0.01467
G1 X104.316 Y130.579 E0.55284
G1 X104.221 Y131.122 E0.01467
G1 X104.019 Y131.646 E0.01492
G1 X103.635 Y132.222 E0.01841
G1 X103.082 Y132.776 E0.02081
G1 X102.656 Y133.083 E0.01394
G1 X102.037 Y133.351 E0.01796
G1 X101.431 Y133.465 E0.01639
G1 X80.635 Y133.465 E0.55288
G1 X80.092 Y133.370 E0.01467
G1 X79.568 Y133.168 E0.01492
G1 X78.991 Y132.784 E0.01841
G1 X78.438 Y132.231 E0.02081
G1 X78.131 Y131.806 E0.01394
G1 X77.863 Y131.186 E0.01796
G1 X77.749 Y130.580 E0.01639
G1 X77.749 Y109.784 E0.55288
G1 X77.844 Y109.241 E0.01467
G1 X77.999 Y108.838 E0.01147
G1 F5760
G1 X78.045 Y108.717 E-0.04500
G1 F5760
G1 X78.429 Y108.141 E-0.23987
G1 F5760
G1 X78.983 Y107.587 E-0.27110
G1 F5760
G1 X79.408 Y107.280 E-0.18158
G1 F5760
G1 X79.467 Y107.254 E-0.02245
G1 E-0.04000 F2100.00000
G1 X80.137 Y107.437 F7200.000
G1 E0.80000 F2100.00000
G1 F2100
G1 X80.655 Y107.336 E0.01404
G1 X101.456 Y107.340 E0.55301
G1 X101.921 Y107.434 E0.01262
G1 X102.372 Y107.624 E0.01300
G1 X102.696 Y107.835 E0.01030
G1 X103.304 Y108.429 E0.02259
G1 X103.620 Y108.900 E0.01509
G1 X103.794 Y109.341 E0.01261
G1 X103.878 Y109.805 E0.01252
G1 X103.878 Y130.558 E0.55176
G1 X103.794 Y131.022 E0.01252
G1 X103.620 Y131.463 E0.01261
G1 X103.310 Y131.928 E0.01486
G1 X102.784 Y132.454 E0.01980
G1 X102.457 Y132.692 E0.01074
G1 X101.927 Y132.926 E0.01539
G1 X101.409 Y133.027 E0.01404
G1 X80.655 Y133.027 E0.55177
G1 X80.192 Y132.943 E0.01252
G1 X79.751 Y132.770 E0.01261
G1 X79.286 Y132.460 E0.01486
G1 X78.759 Y131.933 E0.01980
G1 X78.521 Y131.606 E0.01074
G1 X78.287 Y131.077 E0.01539
G1 X78.186 Y130.558 E0.01404
G1 X78.186 Y109.805 E0.55177
G1 X78.270 Y109.341 E0.01252
G1 X78.444 Y108.900 E0.01261
G1 X78.754 Y108.435 E0.01486
G1 X79.281 Y107.908 E0.01980
G1 X79.607 Y107.671 E0.01074
G1 X80.082 Y107.461 E0.01380
G1 X80.250 Y107.860 F7200.000
G1 F2100
G1 X80.678 Y107.773 E0.01162
G1 X101.434 Y107.778 E0.55181
G1 X101.774 Y107.847 E0.00923
G1 X102.155 Y108.004 E0.01094
G1 X102.408 Y108.165 E0.00798
G1 X102.982 Y108.726 E0.02135
G1 X103.223 Y109.085 E0.01150
G1 X103.368 Y109.445 E0.01031
G1 X103.440 Y109.826 E0.01030
G1 X103.440 Y130.537 E0.55063
G1 X103.368 Y130.918 E0.01030
G1 X103.223 Y131.278 E0.01032
G1 X102.985 Y131.633 E0.01138
G1 X102.485 Y132.134 E0.01880
G1 X102.254 Y132.304 E0.00763
G1 X101.815 Y132.503 E0.01283
G1 X101.386 Y132.589 E0.01162
G1 X80.677 Y132.589 E0.55060
G1 X80.296 Y132.518 E0.01030
G1 X79.936 Y132.373 E0.01032
G1 X79.580 Y132.135 E0.01138
G1 X79.080 Y131.635 E0.01880
G1 X78.910 Y131.404 E0.00763
G1 X78.711 Y130.964 E0.01283
G1 X78.624 Y130.536 E0.01162
G1 X78.624 Y109.826 E0.55060
G1 X78.696 Y109.445 E0.01030
G1 X78.841 Y109.085 E0.01032
G1 X79.079 Y108.729 E0.01138
