; generated by Slic3r 1.36.2-prusa3d-stable-win64 on 2017-09-04 at 13:03:18

; 

; external perimeters extrusion width = 0.45mm
; perimeters extrusion width = 0.45mm
; infill extrusion width = 0.50mm
; solid infill extrusion width = 0.50mm
; top infill extrusion width = 0.40mm
; first layer extrusion width = 0.47mm

M107
M115 U3.0.12 ; tell printer latest fw version
M83  ; extruder relative mode
M104 S255 ; set extruder temp
M140 S100 ; set bed temp
M190 S100 ; wait for bed temp
M109 S255 ; wait for extruder temp
G28 W ; home all without mesh bed level
G80 ; mesh bed leveling
G1 Y-3.0 F1000.0 ; go outside pritn area
G1 X60.0 E9.0  F1000.0 ; intro line
G1 X100.0 E12.5  F1000.0 ; intro line
; Filament gcode

G21 ; set units to millimeters
G90 ; use absolute coordinates
M83 ; use relative distances for extrusion
; Layer 0
G1 E-0.80000 F2100.00000
G1 Z0.200 F7200.000
G1 X112.345 Y93.952 F7200.000
G1 E0.80000 F2100.00000
M204 S1000
G1 F2100
G1 X112.853 Y93.119 E0.03509
G1 X113.274 Y92.727 E0.02067
G1 X113.764 Y92.427 E0.02067
G1 X114.305 Y92.232 E0.02067
G1 X114.874 Y92.149 E0.02067
G1 X135.004 Y92.146 E0.72366
G1 X136.036 Y92.340 E0.03774
G1 X136.931 Y92.898 E0.03789
G1 X137.562 Y93.742 E0.03789
G1 X137.843 Y94.753 E0.03775
G1 X137.853 Y115.088 E0.73100
G1 X137.656 Y116.044 E0.03509
G1 X137.147 Y116.881 E0.03523
G1 X136.706 Y117.288 E0.02157
G1 X136.190 Y117.594 E0.02157
G1 X135.626 Y117.785 E0.02142
G1 X135.030 Y117.854 E0.02157
G1 X114.908 Y117.853 E0.72336
G1 X113.952 Y117.655 E0.03509
G1 X113.119 Y117.147 E0.03509
G1 X112.712 Y116.706 E0.02157
G1 X112.406 Y116.190 E0.02157
G1 X112.215 Y115.626 E0.02142
G1 X112.146 Y115.030 E0.02157
G1 X112.147 Y94.908 E0.72336
G1 X112.333 Y94.011 E0.03293
G1 F5760
G1 X112.853 Y93.119 E-0.35768
G1 F5760
G1 X113.274 Y92.727 E-0.19916
G1 F5760
G1 X113.764 Y92.427 E-0.19916
G1 F5760
G1 X113.775 Y92.423 E-0.00401
G1 E-0.04000 F2100.00000
G1 X113.966 Y92.804 F7200.000
G1 E0.80000 F2100.00000
G1 F2100
G1 X114.909 Y92.575 E0.03491
G1 X135.004 Y92.573 E0.72238
G1 X135.887 Y92.741 E0.03233
G1 X136.652 Y93.222 E0.03246
G1 X137.186 Y93.945 E0.03233
G1 X137.420 Y94.817 E0.03246
G1 X137.426 Y115.065 E0.72791
G1 X137.256 Y115.894 E0.03042
G1 X136.812 Y116.615 E0.03042
G1 X136.440 Y116.954 E0.01809
G1 X136.003 Y117.210 E0.01823
G1 X135.525 Y117.370 E0.01809
G1 X135.021 Y117.427 E0.01823
G1 X114.931 Y117.426 E0.72224
G1 X114.102 Y117.255 E0.03042
G1 X113.385 Y116.812 E0.03029
G1 X113.046 Y116.440 E0.01809
G1 X112.790 Y116.003 E0.01823
G1 X112.630 Y115.525 E0.01809
G1 X112.573 Y115.021 E0.01823
G1 X112.574 Y94.931 E0.72224
G1 X112.745 Y94.102 E0.03042
G1 X113.188 Y93.385 E0.03029
G1 X113.918 Y92.840 E0.03275
G1 F5760
G1 X114.909 Y92.575 E-0.35553
G1 F5760
G1 X116.077 Y92.575 E-0.40447
G1 E-0.04000 F2100.00000
G1 X115.662 Y95.662 F7200.000
G1 E0.80000 F2100.00000
G1 F1680
G1 X134.338 Y95.662 E0.67138
G1 X134.338 Y114.338 E0.67138
G1 X115.662 Y114.338 E0.67138
G1 X115.662 Y95.722 E0.66923
G1 X115.235 Y95.235 F7200.000
G1 F1260
G1 X134.765 Y95.235 E0.70209
G1 X134.765 Y114.765 E0.70209
G1 X115.235 Y114.765 E0.70209
G1 X115.235 Y95.295 E0.69993
G1 X115.621 Y95.339 F7200.000
G1 F5760
G1 X117.429 Y95.288 E-0.76000
G1 E-0.04000 F2100.00000
G1 X115.790 Y113.345 F7200.000
G1 E0.80000 F2100.00000
G1 F1680
G1 X116.463 Y114.018 E0.03430
G1 X117.069 Y114.018 E0.02181
G1 X115.982 Y112.931 E0.05535
G1 X115.982 Y112.326 E0.02181
G1 X117.674 Y114.018 E0.08620
G1 X118.279 Y114.018 E0.02181
G1 X115.982 Y111.721 E0.11704
G1 X115.982 Y111.115 E0.02181
G1 X118.885 Y114.018 E0.14789
G1 X119.490 Y114.018 E0.02181
G1 X115.982 Y110.510 E0.17873
G1 X115.982 Y109.905 E0.02181
G1 X120.095 Y114.018 E0.20958
G1 X120.701 Y114.018 E0.02181
G1 X115.982 Y109.299 E0.24042
G1 X115.982 Y108.694 E0.02181
G1 X121.306 Y114.018 E0.27127
G1 X121.911 Y114.018 E0.02181
G1 X115.982 Y108.089 E0.30211
G1 X115.982 Y107.484 E0.02181
G1 X122.516 Y114.018 E0.33296
G1 X123.122 Y114.018 E0.02181
G1 X115.982 Y106.878 E0.36380
G1 X115.982 Y106.273 E0.02181
G1 X123.727 Y114.018 E0.39465
G1 X124.332 Y114.018 E0.02181
G1 X115.982 Y105.668 E0.42549
G1 X115.982 Y105.062 E0.02181
G1 X124.938 Y114.018 E0.45634
G1 X125.543 Y114.018 E0.02181
G1 X115.982 Y104.457 E0.48718
G1 X115.982 Y103.852 E0.02181
G1 X126.148 Y114.018 E0.51803
G1 X126.754 Y114.018 E0.02181
G1 X115.982 Y103.246 E0.54888
G1 X115.982 Y102.641 E0.02181
G1 X127.359 Y114.018 E0.57972
G1 X127.964 Y114.018 E0.02181
G1 X115.982 Y102.036 E0.61057
G1 X115.982 Y101.430 E0.02181
G1 X128.570 Y114.018 E0.64141
G1 X129.175 Y114.018 E0.02181
G1 X115.982 Y100.825 E0.67226
G1 X115.982 Y100.220 E0.02181
G1 X129.780 Y114.018 E0.70310
G1 X130.386 Y114.018 E0.02181
G1 X115.982 Y99.614 E0.73395
G1 X115.982 Y99.009 E0.02181
G1 X130.991 Y114.018 E0.76479
G1 X131.596 Y114.018 E0.02181
G1 X115.982 Y98.404 E0.79564
G1 X115.982 Y97.798 E0.02181
G1 X132.202 Y114.018 E0.82648
G1 X132.807 Y114.018 E0.02181
G1 X115.982 Y97.193 E0.85733
G1 X115.982 Y96.588 E0.02181
G1 X133.412 Y114.018 E0.88817
G1 X134.018 Y114.018 E0.02181
G1 X115.982 Y95.982 E0.91902
G1 X116.588 Y95.982 E0.02181
G1 X134.018 Y113.412 E0.88818
G1 X134.018 Y112.807 E0.02181
G1 X117.193 Y95.982 E0.85733
G1 X117.798 Y95.982 E0.02181
G1 X134.018 Y112.202 E0.82649
G1 X134.018 Y111.596 E0.02181
G1 X118.404 Y95.982 E0.79564
G1 X119.009 Y95.982 E0.02181
G1 X134.018 Y110.991 E0.76480
G1 X134.018 Y110.386 E0.02181
G1 X119.614 Y95.982 E0.73395
G1 X120.220 Y95.982 E0.02181
G1 X134.018 Y109.780 E0.70311
G1 X134.018 Y109.175 E0.02181
G1 X120.825 Y95.982 E0.67226
G1 X121.430 Y95.982 E0.02181
G1 X134.018 Y108.570 E0.64141
G1 X134.018 Y107.964 E0.02181
G1 X122.036 Y95.982 E0.61057
G1 X122.641 Y95.982 E0.02181
G1 X134.018 Y107.359 E0.57972
G1 X134.018 Y106.754 E0.02181
G1 X123.246 Y95.982 E0.54888
G1 X123.852 Y95.982 E0.02181
G1 X134.018 Y106.148 E0.51803
G1 X134.018 Y105.543 E0.02181
G1 X124.457 Y95.982 E0.48719
G1 X125.062 Y95.982 E0.02181
G1 X134.018 Y104.938 E0.45634
G1 X134.018 Y104.333 E0.02181
G1 X125.667 Y95.982 E0.42550
G1 X126.273 Y95.982 E0.02181
G1 X134.018 Y103.727 E0.39465
G1 X134.018 Y103.122 E0.02181
G1 X126.878 Y95.982 E0.36381
G1 X127.483 Y95.982 E0.02181
G1 X134.018 Y102.517 E0.33296
G1 X134.018 Y101.911 E0.02181
G1 X128.089 Y95.982 E0.30212
G1 X128.694 Y95.982 E0.02181
G1 X134.018 Y101.306 E0.27127
G1 X134.018 Y100.701 E0.02181
G1 X129.299 Y95.982 E0.24043
G1 X129.905 Y95.982 E0.02181
G1 X134.018 Y100.095 E0.20958
G1 X134.018 Y99.490 E0.02181
G1 X130.510 Y95.982 E0.17874
G1 X131.115 Y95.982 E0.02181
G1 X134.018 Y98.885 E0.14789
G1 X134.018 Y98.279 E0.02181
G1 X131.721 Y95.982 E0.11704
G1 X132.326 Y95.982 E0.02181
G1 X134.018 Y97.674 E0.08620
G1 X134.018 Y97.069 E0.02181
G1 X132.931 Y95.982 E0.05535
G1 X133.537 Y95.982 E0.02181
G1 X134.210 Y96.656 E0.03430
; Layer 1
G1 F5760
G1 X133.537 Y95.982 E-0.32973
G1 F5760
G1 X132.931 Y95.982 E-0.20966
G1 F5760
G1 X133.382 Y96.433 E-0.22062
G1 E-0.04000 F2100.00000
G1 Z0.400 F7200.000
M140 S120 ; set bed temperature
G1 X137.562 Y93.742 F7200.000
G1 E0.80000 F2100.00000
G1 F3000
G1 X137.843 Y94.753 E0.03775
G1 X137.853 Y115.088 E0.73100
G1 X137.656 Y116.044 E0.03509
G1 X137.147 Y116.881 E0.03523
G1 X136.706 Y117.288 E0.02157
G1 X136.190 Y117.594 E0.02157
G1 X135.626 Y117.785 E0.02142
G1 X135.030 Y117.854 E0.02157
G1 X114.908 Y117.853 E0.72336
G1 X113.952 Y117.655 E0.03509
G1 X113.119 Y117.147 E0.03509
G1 X112.712 Y116.706 E0.02157
G1 X112.406 Y116.190 E0.02157
G1 X112.215 Y115.626 E0.02142
G1 X112.146 Y115.030 E0.02157
G1 X112.147 Y94.908 E0.72336
G1 X112.345 Y93.952 E0.03509
G1 X112.853 Y93.119 E0.03509
G1 X113.274 Y92.727 E0.02067
G1 X113.764 Y92.427 E0.02067
G1 X114.305 Y92.232 E0.02067
G1 X114.874 Y92.149 E0.02067
G1 X135.004 Y92.146 E0.72366
G1 X136.036 Y92.340 E0.03774
G1 X136.931 Y92.898 E0.03789
G1 X137.526 Y93.694 E0.03574
G1 F5760
G1 X137.843 Y94.753 E-0.38310
G1 F5760
G1 X137.844 Y95.842 E-0.37690
G1 E-0.04000 F2100.00000
G1 X134.368 Y95.632 F7200.000
G1 E0.80000 F2100.00000
M204 S800
G1 F2400
G1 X134.368 Y114.368 E0.64082
G1 X115.632 Y114.368 E0.64082
G1 X115.632 Y95.632 E0.64082
G1 X134.308 Y95.632 E0.63877
M204 S1000
G1 X134.775 Y95.225 F7200.000
M204 S800
G1 F1800
G1 X134.775 Y114.775 E0.66867
G1 X115.225 Y114.775 E0.66867
G1 X115.225 Y95.225 E0.66867
G1 X134.715 Y95.225 E0.66662
M204 S1000
G1 X134.671 Y95.611 F7200.000
G1 F5760
G1 X134.722 Y97.419 E-0.76000
G1 E-0.04000 F2100.00000
G1 X116.681 Y95.750 F7200.000
G1 E0.80000 F2100.00000
M204 S2000
G1 F2400
G1 X115.956 Y96.475 E0.03979
G1 X115.956 Y97.126 E0.02527
G1 X117.126 Y95.956 E0.06423
G1 X117.776 Y95.956 E0.02527
G1 X115.956 Y97.776 E0.09997
G1 X115.956 Y98.427 E0.02527
G1 X118.427 Y95.956 E0.13570
G1 X119.078 Y95.956 E0.02527
G1 X115.956 Y99.078 E0.17144
G1 X115.956 Y99.729 E0.02527
G1 X119.729 Y95.956 E0.20717
G1 X120.379 Y95.956 E0.02527
G1 X115.956 Y100.379 E0.24291
G1 X115.956 Y101.030 E0.02527
G1 X121.030 Y95.956 E0.27864
G1 X121.681 Y95.956 E0.02527
G1 X115.956 Y101.681 E0.31438
G1 X115.956 Y102.331 E0.02527
G1 X122.331 Y95.956 E0.35011
G1 X122.982 Y95.956 E0.02527
G1 X115.956 Y102.982 E0.38585
G1 X115.956 Y103.633 E0.02527
G1 X123.633 Y95.956 E0.42158
G1 X124.283 Y95.956 E0.02527
G1 X115.956 Y104.283 E0.45732
G1 X115.956 Y104.934 E0.02527
G1 X124.934 Y95.956 E0.49305
G1 X125.585 Y95.956 E0.02527
G1 X115.956 Y105.585 E0.52879
G1 X115.956 Y106.235 E0.02527
G1 X126.235 Y95.956 E0.56452
G1 X126.886 Y95.956 E0.02527
G1 X115.956 Y106.886 E0.60026
G1 X115.956 Y107.537 E0.02527
G1 X127.537 Y95.956 E0.63599
G1 X128.188 Y95.956 E0.02527
G1 X115.956 Y108.188 E0.67173
G1 X115.956 Y108.838 E0.02527
G1 X128.838 Y95.956 E0.70747
G1 X129.489 Y95.956 E0.02527
G1 X115.956 Y109.489 E0.74320
G1 X115.956 Y110.140 E0.02527
G1 X130.140 Y95.956 E0.77894
G1 X130.790 Y95.956 E0.02527
G1 X115.956 Y110.790 E0.81467
G1 X115.956 Y111.441 E0.02527
G1 X131.441 Y95.956 E0.85041
G1 X132.092 Y95.956 E0.02527
G1 X115.956 Y112.092 E0.88614
G1 X115.956 Y112.742 E0.02527
G1 X132.742 Y95.956 E0.92188
G1 X133.393 Y95.956 E0.02527
G1 X115.956 Y113.393 E0.95761
G1 X115.956 Y114.044 E0.02527
G1 X134.044 Y95.956 E0.99335
G1 X134.044 Y96.607 E0.02527
G1 X116.607 Y114.044 E0.95762
G1 X117.257 Y114.044 E0.02527
G1 X134.044 Y97.257 E0.92188
G1 X134.044 Y97.908 E0.02527
G1 X117.908 Y114.044 E0.88615
G1 X118.559 Y114.044 E0.02527
G1 X134.044 Y98.559 E0.85041
G1 X134.044 Y99.210 E0.02527
G1 X119.210 Y114.044 E0.81468
G1 X119.860 Y114.044 E0.02527
G1 X134.044 Y99.860 E0.77894
G1 X134.044 Y100.511 E0.02527
G1 X120.511 Y114.044 E0.74321
G1 X121.162 Y114.044 E0.02527
G1 X134.044 Y101.162 E0.70747
G1 X134.044 Y101.812 E0.02527
G1 X121.812 Y114.044 E0.67174
G1 X122.463 Y114.044 E0.02527
G1 X134.044 Y102.463 E0.63600
G1 X134.044 Y103.114 E0.02527
G1 X123.114 Y114.044 E0.60027
G1 X123.764 Y114.044 E0.02527
G1 X134.044 Y103.764 E0.56453
G1 X134.044 Y104.415 E0.02527
G1 X124.415 Y114.044 E0.52880
G1 X125.066 Y114.044 E0.02527
G1 X134.044 Y105.066 E0.49306
G1 X134.044 Y105.716 E0.02527
G1 X125.716 Y114.044 E0.45733
G1 X126.367 Y114.044 E0.02527
G1 X134.044 Y106.367 E0.42159
G1 X134.044 Y107.018 E0.02527
G1 X127.018 Y114.044 E0.38586
G1 X127.669 Y114.044 E0.02527
G1 X134.044 Y107.669 E0.35012
G1 X134.044 Y108.319 E0.02527
G1 X128.319 Y114.044 E0.31439
G1 X128.970 Y114.044 E0.02527
G1 X134.044 Y108.970 E0.27865
G1 X134.044 Y109.621 E0.02527
G1 X129.621 Y114.044 E0.24292
G1 X130.271 Y114.044 E0.02527
G1 X134.044 Y110.271 E0.20718
G1 X134.044 Y110.922 E0.02527
G1 X130.922 Y114.044 E0.17145
G1 X131.573 Y114.044 E0.02527
G1 X134.044 Y111.573 E0.13571
G1 X134.044 Y112.223 E0.02527
G1 X132.223 Y114.044 E0.09997
G1 X132.874 Y114.044 E0.02527
G1 X134.044 Y112.874 E0.06424
G1 X134.044 Y113.525 E0.02527
G1 X133.319 Y114.250 E0.03980
M204 S1000
M106 S45.9
; Layer 2
G1 F5760
G1 X134.044 Y113.525 E-0.35498
G1 F5760
G1 X134.044 Y112.874 E-0.22537
G1 F5760
G1 X133.677 Y113.241 E-0.17965
G1 E-0.04000 F2100.00000
G1 Z0.600 F7200.000
G1 X137.656 Y116.044 F7200.000
G1 E0.80000 F2100.00000
G1 F3000
G1 X137.147 Y116.881 E0.03523
G1 X136.706 Y117.288 E0.02157
G1 X136.190 Y117.594 E0.02157
G1 X135.626 Y117.785 E0.02142
G1 X135.030 Y117.854 E0.02157
G1 X114.908 Y117.853 E0.72336
G1 X113.952 Y117.655 E0.03509
G1 X113.119 Y117.147 E0.03509
G1 X112.712 Y116.706 E0.02157
G1 X112.406 Y116.190 E0.02157
G1 X112.215 Y115.626 E0.02142
G1 X112.146 Y115.030 E0.02157
G1 X112.147 Y94.908 E0.72336
G1 X112.345 Y93.952 E0.03509
G1 X112.853 Y93.119 E0.03509
G1 X113.274 Y92.727 E0.02067
G1 X113.764 Y92.427 E0.02067
G1 X114.305 Y92.232 E0.02067
G1 X114.874 Y92.149 E0.02067
G1 X135.004 Y92.146 E0.72366
G1 X136.036 Y92.340 E0.03774
G1 X136.931 Y92.898 E0.03789
G1 X137.562 Y93.742 E0.03789
G1 X137.843 Y94.753 E0.03775
G1 X137.853 Y115.088 E0.73100
G1 X137.669 Y115.985 E0.03293
G1 F5760
G1 X137.147 Y116.881 E-0.35910
G1 F5760
G1 X136.706 Y117.288 E-0.20778
G1 F5760
G1 X136.227 Y117.573 E-0.19312
G1 E-0.04000 F2100.00000
G1 X134.368 Y114.368 F7200.000
G1 E0.80000 F2100.00000
M204 S800
G1 F2400
G1 X115.632 Y114.368 E0.64082
G1 X115.632 Y95.632 E0.64082
G1 X134.368 Y95.632 E0.64082
G1 X134.368 Y114.308 E0.63877
M204 S1000
G1 X134.775 Y114.775 F7200.000
M204 S800
G1 F1800
G1 X115.225 Y114.775 E0.66867
G1 X115.225 Y95.225 E0.66867
G1 X134.775 Y95.225 E0.66867
G1 X134.775 Y114.715 E0.66662
M204 S1000
G1 X134.389 Y114.671 F7200.000
G1 F5760
G1 X132.581 Y114.722 E-0.76000
G1 E-0.04000 F2100.00000
G1 X134.250 Y96.681 F7200.000
G1 E0.80000 F2100.00000
M204 S2000
G1 F2400
G1 X133.525 Y95.956 E0.03980
G1 X132.874 Y95.956 E0.02527
G1 X134.044 Y97.126 E0.06424
G1 X134.044 Y97.777 E0.02527
G1 X132.223 Y95.956 E0.09997
G1 X131.573 Y95.956 E0.02527
G1 X134.044 Y98.427 E0.13571
G1 X134.044 Y99.078 E0.02527
G1 X130.922 Y95.956 E0.17145
G1 X130.271 Y95.956 E0.02527
G1 X134.044 Y99.729 E0.20718
G1 X134.044 Y100.379 E0.02527
G1 X129.621 Y95.956 E0.24292
G1 X128.970 Y95.956 E0.02527
G1 X134.044 Y101.030 E0.27865
G1 X134.044 Y101.681 E0.02527
G1 X128.319 Y95.956 E0.31439
G1 X127.669 Y95.956 E0.02527
G1 X134.044 Y102.331 E0.35012
G1 X134.044 Y102.982 E0.02527
G1 X127.018 Y95.956 E0.38586
G1 X126.367 Y95.956 E0.02527
G1 X134.044 Y103.633 E0.42159
G1 X134.044 Y104.284 E0.02527
G1 X125.716 Y95.956 E0.45733
G1 X125.066 Y95.956 E0.02527
G1 X134.044 Y104.934 E0.49306
G1 X134.044 Y105.585 E0.02527
G1 X124.415 Y95.956 E0.52880
G1 X123.764 Y95.956 E0.02527
G1 X134.044 Y106.236 E0.56453
G1 X134.044 Y106.886 E0.02527
G1 X123.114 Y95.956 E0.60027
G1 X122.463 Y95.956 E0.02527
G1 X134.044 Y107.537 E0.63600
G1 X134.044 Y108.188 E0.02527
G1 X121.812 Y95.956 E0.67174
G1 X121.162 Y95.956 E0.02527
G1 X134.044 Y108.838 E0.70747
G1 X134.044 Y109.489 E0.02527
G1 X120.511 Y95.956 E0.74321
G1 X119.860 Y95.956 E0.02527
G1 X134.044 Y110.140 E0.77894
G1 X134.044 Y110.790 E0.02527
G1 X119.210 Y95.956 E0.81468
G1 X118.559 Y95.956 E0.02527
G1 X134.044 Y111.441 E0.85041
G1 X134.044 Y112.092 E0.02527
G1 X117.908 Y95.956 E0.88615
G1 X117.257 Y95.956 E0.02527
G1 X134.044 Y112.743 E0.92188
G1 X134.044 Y113.393 E0.02527
G1 X116.607 Y95.956 E0.95762
G1 X115.956 Y95.956 E0.02527
G1 X134.044 Y114.044 E0.99335
G1 X133.393 Y114.044 E0.02527
G1 X115.956 Y96.607 E0.95761
G1 X115.956 Y97.258 E0.02527
G1 X132.742 Y114.044 E0.92188
G1 X132.092 Y114.044 E0.02527
G1 X115.956 Y97.908 E0.88614
G1 X115.956 Y98.559 E0.02527
G1 X131.441 Y114.044 E0.85041
G1 X130.790 Y114.044 E0.02527
G1 X115.956 Y99.210 E0.81467
G1 X115.956 Y99.860 E0.02527
G1 X130.140 Y114.044 E0.77894
G1 X129.489 Y114.044 E0.02527
G1 X115.956 Y100.511 E0.74320
G1 X115.956 Y101.162 E0.02527
G1 X128.838 Y114.044 E0.70747
G1 X128.188 Y114.044 E0.02527
G1 X115.956 Y101.812 E0.67173
G1 X115.956 Y102.463 E0.02527
G1 X127.537 Y114.044 E0.63599
G1 X126.886 Y114.044 E0.02527
G1 X115.956 Y103.114 E0.60026
G1 X115.956 Y103.765 E0.02527
G1 X126.235 Y114.044 E0.56452
G1 X125.585 Y114.044 E0.02527
G1 X115.956 Y104.415 E0.52879
G1 X115.956 Y105.066 E0.02527
G1 X124.934 Y114.044 E0.49305
G1 X124.283 Y114.044 E0.02527
G1 X115.956 Y105.717 E0.45732
G1 X115.956 Y106.367 E0.02527
G1 X123.633 Y114.044 E0.42158
G1 X122.982 Y114.044 E0.02527
