; generated by Slic3r 1.36.2-prusa3d-stable-win64 on 2017-08-23 at 22:44:59

; 

; external perimeters extrusion width = 0.45mm
; perimeters extrusion width = 0.45mm
; infill extrusion width = 0.45mm
; solid infill extrusion width = 0.45mm
; top infill extrusion width = 0.42mm
; first layer extrusion width = 0.47mm

M115 U3.0.12 ; tell printer latest fw version
M83  ; extruder relative mode
M104 S285 ; set extruder temp
M140 S105 ; set bed temp
M190 S105 ; wait for bed temp
M109 S285 ; wait for extruder temp
G28 W ; home all without mesh bed level
G80 ; mesh bed leveling
G1 Y-3.0 F1000.0 ; go outside pritn area
G1 X60.0 E9.0  F1000.0 ; intro line
G1 X100.0 E12.5  F1000.0 ; intro line
; Filament gcode
G21 ; set units to millimeters
G90 ; use absolute coordinates
M83 ; use relative distances for extrusion
; Layer 0
G1 E-0.80000 F2100.00000
G1 Z0.150 F7200.000
G1 X20.717 Y94.312 F7200.000
G1 E0.80000 F2100.00000
M204 S1000
G1 F2100
G1 X21.657 Y94.229 E0.02508
G1 X166.517 Y94.007 E3.85127
G1 X229.154 Y94.363 E1.66532
G1 X230.178 Y94.472 E0.02738
G1 X231.163 Y94.773 E0.02738
G1 X232.420 Y95.502 E0.03863
G1 X233.439 Y96.538 E0.03863
G1 X234.146 Y97.801 E0.03848
G1 X234.495 Y99.212 E0.03863
G1 X234.526 Y119.892 E0.54981
G1 X234.415 Y120.899 E0.02692
G1 X234.116 Y121.872 E0.02707
G1 X233.764 Y122.577 E0.02097
G1 X233.309 Y123.229 E0.02112
G1 X232.769 Y123.803 E0.02097
G1 X232.151 Y124.293 E0.02097
G1 X231.469 Y124.689 E0.02097
G1 X230.732 Y124.984 E0.02112
G1 X229.965 Y125.167 E0.02097
G1 X229.173 Y125.237 E0.02112
G1 X21.634 Y125.104 E5.51767
G1 X20.694 Y125.017 E0.02509
G1 X19.784 Y124.768 E0.02509
G1 X18.931 Y124.366 E0.02509
G1 X18.159 Y123.822 E0.02509
G1 X17.494 Y123.153 E0.02509
G1 X16.954 Y122.379 E0.02509
G1 X16.556 Y121.524 E0.02509
G1 X16.312 Y120.612 E0.02509
G1 X16.229 Y119.667 E0.02524
G1 X16.229 Y99.649 E0.53218
G1 X16.304 Y98.766 E0.02356
G1 X16.505 Y97.956 E0.02219
G1 X16.827 Y97.187 E0.02219
G1 X17.264 Y96.475 E0.02219
G1 X17.804 Y95.839 E0.02219
G1 X18.435 Y95.293 E0.02219
G1 X19.142 Y94.850 E0.02219
G1 X19.909 Y94.521 E0.02219
G1 X20.659 Y94.327 E0.02059
G1 F5760
G1 X21.657 Y94.229 E-0.34731
G1 F5760
G1 X22.849 Y94.227 E-0.41269
G1 E-0.04000 F2100.00000
G1 X20.407 Y95.659 F7200.000
G1 E0.80000 F2100.00000
G1 F2100
G1 X21.228 Y95.507 E0.02218
G1 X42.156 Y95.512 E0.55639
G1 X42.962 Y95.670 E0.02186
G1 X43.678 Y95.979 E0.02073
G1 X44.202 Y96.336 E0.01686
G1 X44.905 Y97.021 E0.02609
G1 X45.452 Y97.841 E0.02621
G1 X45.699 Y98.490 E0.01845
G1 X45.819 Y99.155 E0.01796
G1 X45.826 Y120.102 E0.55691
G1 X45.710 Y120.800 E0.01881
G1 X45.453 Y121.490 E0.01958
G1 X44.919 Y122.296 E0.02570
G1 X44.311 Y122.905 E0.02288
G1 X43.681 Y123.353 E0.02054
G1 X42.926 Y123.674 E0.02182
G1 X42.106 Y123.826 E0.02217
G1 X21.231 Y123.826 E0.55498
G1 X20.533 Y123.710 E0.01881
G1 X19.843 Y123.453 E0.01958
G1 X19.037 Y122.919 E0.02570
G1 X18.429 Y122.311 E0.02288
G1 X17.980 Y121.681 E0.02054
G1 X17.659 Y120.926 E0.02182
G1 X17.507 Y120.106 E0.02217
G1 X17.507 Y99.231 E0.55498
G1 X17.623 Y98.533 E0.01881
G1 X17.880 Y97.843 E0.01958
G1 X18.414 Y97.037 E0.02570
G1 X19.023 Y96.429 E0.02288
G1 X19.652 Y95.980 E0.02054
G1 X20.352 Y95.683 E0.02023
G1 X20.523 Y96.086 F7200.000
G1 F2100
G1 X21.247 Y95.945 E0.01961
G1 X42.134 Y95.950 E0.55531
G1 X42.813 Y96.082 E0.01837
G1 X43.452 Y96.354 E0.01848
G1 X43.911 Y96.664 E0.01472
G1 X44.583 Y97.319 E0.02494
G1 X45.053 Y98.022 E0.02249
G1 X45.272 Y98.589 E0.01616
G1 X45.385 Y99.213 E0.01687
G1 X45.388 Y120.083 E0.55485
G1 X45.282 Y120.705 E0.01676
G1 X45.053 Y121.312 E0.01725
G1 X44.594 Y122.002 E0.02203
G1 X44.014 Y122.583 E0.02184
G1 X43.488 Y122.960 E0.01720
G1 X42.777 Y123.262 E0.02052
G1 X42.086 Y123.388 E0.01868
G1 X21.250 Y123.388 E0.55396
G1 X20.628 Y123.282 E0.01676
G1 X20.022 Y123.053 E0.01725
G1 X19.332 Y122.594 E0.02203
G1 X18.751 Y122.014 E0.02184
G1 X18.374 Y121.488 E0.01720
G1 X18.072 Y120.777 E0.02052
G1 X17.945 Y120.086 E0.01868
G1 X17.945 Y99.250 E0.55396
G1 X18.051 Y98.628 E0.01676
G1 X18.281 Y98.022 E0.01725
G1 X18.739 Y97.332 E0.02203
G1 X19.320 Y96.751 E0.02184
G1 X19.846 Y96.374 E0.01720
G1 X20.468 Y96.109 E0.01798
G1 X20.640 Y96.507 F7200.000
G1 F2100
G1 X21.268 Y96.383 E0.01702
G1 X42.113 Y96.387 E0.55419
G1 X42.665 Y96.495 E0.01494
G1 X43.228 Y96.731 E0.01625
G1 X43.621 Y96.992 E0.01252
G1 X44.261 Y97.616 E0.02378
G1 X44.653 Y98.202 E0.01875
G1 X44.855 Y98.726 E0.01493
G1 X44.950 Y99.270 E0.01467
G1 X44.950 Y120.064 E0.55284
G1 X44.855 Y120.607 E0.01467
G1 X44.653 Y121.131 E0.01492
G1 X44.270 Y121.707 E0.01841
G1 X43.716 Y122.261 E0.02081
G1 X43.291 Y122.568 E0.01394
G1 X42.671 Y122.836 E0.01796
G1 X42.065 Y122.950 E0.01639
G1 X21.270 Y122.950 E0.55288
G1 X20.726 Y122.855 E0.01467
G1 X20.202 Y122.653 E0.01492
G1 X19.626 Y122.270 E0.01841
G1 X19.072 Y121.716 E0.02081
G1 X18.765 Y121.291 E0.01394
G1 X18.497 Y120.671 E0.01796
G1 X18.383 Y120.065 E0.01639
G1 X18.383 Y99.270 E0.55288
G1 X18.478 Y98.726 E0.01467
G1 X18.680 Y98.202 E0.01492
G1 X19.064 Y97.626 E0.01841
G1 X19.617 Y97.072 E0.02081
G1 X20.042 Y96.765 E0.01394
G1 X20.585 Y96.530 E0.01573
G1 X20.760 Y96.927 F7200.000
G1 F2100
G1 X21.290 Y96.821 E0.01436
G1 X42.090 Y96.825 E0.55301
G1 X42.556 Y96.920 E0.01262
G1 X43.006 Y97.109 E0.01300
G1 X43.331 Y97.321 E0.01030
G1 X43.939 Y97.914 E0.02259
G1 X44.255 Y98.385 E0.01509
G1 X44.429 Y98.826 E0.01261
G1 X44.512 Y99.290 E0.01252
G1 X44.512 Y120.044 E0.55176
G1 X44.429 Y120.507 E0.01252
G1 X44.255 Y120.948 E0.01261
G1 X43.945 Y121.413 E0.01486
G1 X43.418 Y121.940 E0.01980
G1 X43.092 Y122.178 E0.01074
G1 X42.562 Y122.412 E0.01539
G1 X42.044 Y122.512 E0.01404
G1 X21.290 Y122.512 E0.55177
G1 X20.826 Y122.429 E0.01252
G1 X20.385 Y122.255 E0.01261
G1 X19.920 Y121.945 E0.01486
G1 X19.394 Y121.418 E0.01980
G1 X19.156 Y121.092 E0.01074
G1 X18.922 Y120.562 E0.01539
G1 X18.821 Y120.044 E0.01404
G1 X18.821 Y99.290 E0.55177
G1 X18.905 Y98.826 E0.01252
G1 X19.078 Y98.385 E0.01261
G1 X19.389 Y97.920 E0.01486
G1 X19.915 Y97.394 E0.01980
G1 X20.242 Y97.156 E0.01074
G1 X20.705 Y96.951 E0.01347
G1 X20.884 Y97.346 F7200.000
G1 F2100
G1 X21.312 Y97.259 E0.01163
G1 X42.068 Y97.263 E0.55181
G1 X42.409 Y97.332 E0.00923
G1 X42.789 Y97.489 E0.01094
G1 X43.042 Y97.650 E0.00798
G1 X43.617 Y98.211 E0.02135
G1 X43.858 Y98.571 E0.01150
G1 X44.003 Y98.930 E0.01031
G1 X44.075 Y99.311 E0.01030
G1 X44.075 Y120.022 E0.55063
G1 X44.003 Y120.403 E0.01030
G1 X43.858 Y120.763 E0.01032
G1 X43.620 Y121.119 E0.01138
G1 X43.120 Y121.619 E0.01880
G1 X42.889 Y121.789 E0.00763
G1 X42.449 Y121.988 E0.01283
G1 X42.021 Y122.075 E0.01162
G1 X21.311 Y122.075 E0.55060
G1 X20.930 Y122.003 E0.01030
G1 X20.570 Y121.858 E0.01032
G1 X20.215 Y121.620 E0.01138
G1 X19.715 Y121.120 E0.01880
G1 X19.544 Y120.889 E0.00763
G1 X19.345 Y120.449 E0.01283
G1 X19.259 Y120.021 E0.01162
G1 X19.259 Y99.311 E0.55060
G1 X19.331 Y98.930 E0.01030
G1 X19.476 Y98.570 E0.01032
G1 X19.713 Y98.215 E0.01138
G1 X20.213 Y97.715 E0.01880
G1 X20.444 Y97.544 E0.00763
G1 X20.829 Y97.370 E0.01123
G1 X21.038 Y97.756 F7200.000
G1 F2100
G1 X21.334 Y97.697 E0.00802
G1 X42.043 Y97.701 E0.55058
G1 X42.295 Y97.755 E0.00685
G1 X42.576 Y97.872 E0.00808
G1 X42.755 Y97.982 E0.00559
G1 X43.295 Y98.509 E0.02005
G1 X43.462 Y98.759 E0.00800
G1 X43.578 Y99.039 E0.00806
G1 X43.637 Y99.334 E0.00799
G1 X43.637 Y120.000 E0.54943
G1 X43.578 Y120.294 E0.00799
G1 X43.462 Y120.575 E0.00806
G1 X43.295 Y120.824 E0.00799
G1 X42.823 Y121.296 E0.01775
G1 X42.653 Y121.420 E0.00560
G1 X42.295 Y121.577 E0.01038
G1 X42.000 Y121.637 E0.00802
G1 X21.334 Y121.637 E0.54943
G1 X21.039 Y121.578 E0.00799
G1 X20.759 Y121.462 E0.00806
G1 X20.509 Y121.295 E0.00799
G1 X20.037 Y120.823 E0.01775
G1 X19.914 Y120.653 E0.00560
G1 X19.756 Y120.295 E0.01038
G1 X19.697 Y120.000 E0.00802
G1 X19.697 Y99.334 E0.54943
G1 X19.755 Y99.039 E0.00799
G1 X19.871 Y98.759 E0.00806
G1 X20.038 Y98.509 E0.00799
G1 X20.510 Y98.037 E0.01775
G1 X20.681 Y97.914 E0.00560
G1 X20.983 Y97.780 E0.00878
G1 X21.188 Y98.168 F7200.000
G1 F2100
G1 X21.355 Y98.134 E0.00453
G1 X42.018 Y98.139 E0.54935
G1 X42.144 Y98.167 E0.00343
G1 X42.390 Y98.268 E0.00706
G1 X42.499 Y98.338 E0.00345
G1 X42.971 Y98.804 E0.01763
G1 X43.066 Y98.946 E0.00455
G1 X43.165 Y99.187 E0.00692
G1 X43.199 Y99.355 E0.00457
G1 X43.199 Y119.978 E0.54829
G1 X43.165 Y120.147 E0.00457
G1 X43.066 Y120.387 E0.00692
G1 X42.970 Y120.530 E0.00457
G1 X42.528 Y120.972 E0.01664
G1 X42.421 Y121.047 E0.00347
G1 X42.145 Y121.166 E0.00799
G1 X41.978 Y121.199 E0.00453
G1 X21.355 Y121.199 E0.54829
G1 X21.187 Y121.165 E0.00457
G1 X20.946 Y121.066 E0.00692
G1 X20.803 Y120.970 E0.00457
G1 X20.361 Y120.528 E0.01664
G1 X20.286 Y120.421 E0.00347
G1 X20.168 Y120.145 E0.00799
G1 X20.134 Y119.978 E0.00453
G1 X20.134 Y99.355 E0.54829
G1 X20.168 Y99.187 E0.00457
G1 X20.267 Y98.946 E0.00692
G1 X20.363 Y98.803 E0.00457
G1 X20.805 Y98.361 E0.01664
G1 X20.912 Y98.286 E0.00347
G1 X21.133 Y98.191 E0.00639
G1 X21.300 Y98.595 F7200.000
G1 F2100
G1 X21.377 Y98.572 E0.00212
G1 X41.957 Y98.572 E0.54714
G1 X42.236 Y98.688 E0.00803
G1 X42.646 Y99.098 E0.01542
G1 X42.761 Y99.377 E0.00803
G1 X42.761 Y119.957 E0.54714
G1 X42.646 Y120.236 E0.00803
G1 X42.236 Y120.646 E0.01542
G1 X41.957 Y120.761 E0.00803
G1 X21.377 Y120.761 E0.54714
G1 X21.098 Y120.646 E0.00803
G1 X20.688 Y120.236 E0.01542
G1 X20.572 Y119.957 E0.00803
G1 X20.572 Y99.377 E0.54714
G1 X20.688 Y99.098 E0.00803
G1 X21.098 Y98.688 E0.01542
G1 X21.245 Y98.618 E0.00432
G1 X21.361 Y99.043 F7200.000
G1 F2100
G1 X21.442 Y99.010 E0.00232
G1 X41.892 Y99.010 E0.54368
G1 X41.972 Y99.043 E0.00232
G1 X42.290 Y99.361 E0.01196
G1 X42.323 Y99.442 E0.00232
G1 X42.323 Y119.892 E0.54368
G1 X42.290 Y119.972 E0.00232
G1 X41.972 Y120.290 E0.01196
G1 X41.892 Y120.323 E0.00232
G1 X21.442 Y120.323 E0.54368
G1 X21.361 Y120.290 E0.00232
G1 X21.043 Y119.972 E0.01196
G1 X21.010 Y119.892 E0.00232
G1 X21.010 Y99.442 E0.54368
G1 X21.043 Y99.361 E0.00232
G1 X21.319 Y99.086 E0.01036
G1 X21.576 Y99.448 F7200.000
G1 F2100
G1 X41.757 Y99.448 E0.53654
G1 X41.886 Y99.576 E0.00482
G1 X41.886 Y119.757 E0.53654
G1 X41.757 Y119.886 E0.00482
G1 X21.576 Y119.886 E0.53654
G1 X21.448 Y119.757 E0.00482
G1 X21.448 Y99.576 E0.53654
G1 X21.534 Y99.490 E0.00323
G1 F5760
G1 X23.728 Y99.486 E-0.76000
G1 E-0.04000 F2100.00000
G1 X80.458 Y97.888 F7200.000
G1 E0.80000 F2100.00000
G1 F2100
G1 X80.992 Y97.082 E0.02570
G1 X81.600 Y96.473 E0.02288
G1 X82.230 Y96.025 E0.02054
G1 X82.985 Y95.704 E0.02182
G1 X83.806 Y95.552 E0.02218
G1 X104.733 Y95.556 E0.55639
G1 X105.540 Y95.715 E0.02186
G1 X106.256 Y96.023 E0.02073
G1 X106.780 Y96.380 E0.01686
G1 X107.483 Y97.066 E0.02609
G1 X108.030 Y97.886 E0.02621
G1 X108.276 Y98.535 E0.01845
G1 X108.397 Y99.199 E0.01796
G1 X108.404 Y120.147 E0.55691
G1 X108.288 Y120.845 E0.01881
G1 X108.031 Y121.535 E0.01958
G1 X107.497 Y122.340 E0.02570
G1 X106.888 Y122.949 E0.02288
G1 X106.259 Y123.397 E0.02054
G1 X105.504 Y123.719 E0.02182
G1 X104.684 Y123.870 E0.02217
G1 X83.809 Y123.870 E0.55498
G1 X83.111 Y123.755 E0.01881
G1 X82.421 Y123.498 E0.01958
G1 X81.615 Y122.964 E0.02570
G1 X81.006 Y122.355 E0.02288
G1 X80.558 Y121.726 E0.02054
G1 X80.237 Y120.971 E0.02182
G1 X80.085 Y120.150 E0.02217
G1 X80.085 Y99.276 E0.55498
G1 X80.201 Y98.578 E0.01881
G1 X80.437 Y97.944 E0.01798
G1 X80.846 Y98.099 F7200.000
G1 F2100
G1 X81.317 Y97.376 E0.02293
G1 X81.898 Y96.795 E0.02184
G1 X82.423 Y96.418 E0.01720
G1 X83.134 Y96.116 E0.02052
G1 X83.825 Y95.990 E0.01868
G1 X104.712 Y95.994 E0.55531
G1 X105.390 Y96.127 E0.01837
G1 X106.030 Y96.399 E0.01848
G1 X106.489 Y96.708 E0.01472
G1 X107.161 Y97.363 E0.02494
G1 X107.631 Y98.066 E0.02249
G1 X107.849 Y98.634 E0.01616
G1 X107.963 Y99.258 E0.01687
G1 X107.966 Y120.128 E0.55485
G1 X107.860 Y120.749 E0.01676
G1 X107.631 Y121.356 E0.01725
G1 X107.172 Y122.046 E0.02203
G1 X106.591 Y122.627 E0.02184
G1 X106.065 Y123.004 E0.01720
G1 X105.355 Y123.306 E0.02052
G1 X104.664 Y123.432 E0.01868
G1 X83.828 Y123.432 E0.55396
G1 X83.206 Y123.327 E0.01676
G1 X82.600 Y123.097 E0.01725
G1 X81.909 Y122.639 E0.02203
G1 X81.328 Y122.058 E0.02184
G1 X80.951 Y121.532 E0.01720
G1 X80.650 Y120.822 E0.02052
G1 X80.523 Y120.131 E0.01868
G1 X80.523 Y99.294 E0.55396
G1 X80.629 Y98.673 E0.01676
G1 X80.825 Y98.155 E0.01473
G1 X81.233 Y98.312 F7200.000
G1 F2100
G1 X81.258 Y98.247 E0.00186
G1 X81.642 Y97.670 E0.01841
G1 X82.195 Y97.117 E0.02081
G1 X82.620 Y96.810 E0.01394
G1 X83.240 Y96.542 E0.01796
G1 X83.846 Y96.428 E0.01639
G1 X104.691 Y96.432 E0.55419
G1 X105.242 Y96.540 E0.01494
G1 X105.806 Y96.775 E0.01625
G1 X106.198 Y97.036 E0.01252
G1 X106.839 Y97.661 E0.02378
G1 X107.231 Y98.247 E0.01875
G1 X107.433 Y98.770 E0.01493
G1 X107.528 Y99.314 E0.01467
G1 X107.528 Y120.108 E0.55284
G1 X107.433 Y120.652 E0.01467
G1 X107.231 Y121.175 E0.01492
G1 X106.847 Y121.752 E0.01841
G1 X106.294 Y122.305 E0.02081
G1 X105.869 Y122.612 E0.01394
G1 X105.249 Y122.881 E0.01796
G1 X104.643 Y122.995 E0.01639
G1 X83.847 Y122.995 E0.55288
G1 X83.304 Y122.900 E0.01467
G1 X82.780 Y122.698 E0.01492
G1 X82.204 Y122.314 E0.01841
G1 X81.650 Y121.760 E0.02081
G1 X81.343 Y121.335 E0.01394
G1 X81.075 Y120.716 E0.01796
G1 X80.961 Y120.110 E0.01639
G1 X80.961 Y99.314 E0.55288
G1 X81.056 Y98.770 E0.01467
G1 X81.211 Y98.368 E0.01147
G1 F5760
G1 X81.258 Y98.247 E-0.04500
G1 F5760
G1 X81.642 Y97.670 E-0.23987
G1 F5760
G1 X82.195 Y97.117 E-0.27110
G1 F5760
G1 X82.620 Y96.810 E-0.18158
G1 F5760
G1 X82.680 Y96.784 E-0.02245
G1 E-0.04000 F2100.00000
G1 X83.349 Y96.966 F7200.000
G1 E0.80000 F2100.00000
G1 F2100
G1 X83.868 Y96.865 E0.01404
G1 X104.668 Y96.870 E0.55301
G1 X105.133 Y96.964 E0.01262
G1 X105.584 Y97.153 E0.01300
G1 X105.909 Y97.365 E0.01030
G1 X106.517 Y97.958 E0.02259
G1 X106.833 Y98.430 E0.01509
G1 X107.006 Y98.871 E0.01261
G1 X107.090 Y99.334 E0.01252
G1 X107.090 Y120.088 E0.55176
G1 X107.006 Y120.551 E0.01252
G1 X106.833 Y120.993 E0.01261
G1 X106.523 Y121.458 E0.01486
G1 X105.996 Y121.984 E0.01980
G1 X105.669 Y122.222 E0.01074
G1 X105.140 Y122.456 E0.01539
G1 X104.621 Y122.557 E0.01404
G1 X83.868 Y122.557 E0.55177
G1 X83.404 Y122.473 E0.01252
G1 X82.963 Y122.299 E0.01261
G1 X82.498 Y121.989 E0.01486
G1 X81.971 Y121.463 E0.01980
G1 X81.734 Y121.136 E0.01074
G1 X81.500 Y120.606 E0.01539
G1 X81.399 Y120.088 E0.01404
G1 X81.399 Y99.334 E0.55177
G1 X81.483 Y98.871 E0.01252
G1 X81.656 Y98.430 E0.01261
G1 X81.966 Y97.965 E0.01486
G1 X82.493 Y97.438 E0.01980
G1 X82.820 Y97.200 E0.01074
G1 X83.294 Y96.990 E0.01380
G1 X83.462 Y97.390 F7200.000
G1 F2100
G1 X83.890 Y97.303 E0.01162
G1 X104.646 Y97.307 E0.55181
G1 X104.986 Y97.377 E0.00923
G1 X105.367 Y97.534 E0.01094
G1 X105.620 Y97.695 E0.00798
G1 X106.195 Y98.256 E0.02135
G1 X106.436 Y98.615 E0.01150
G1 X106.581 Y98.975 E0.01031
G1 X106.652 Y99.356 E0.01030
G1 X106.652 Y120.067 E0.55063
G1 X106.581 Y120.447 E0.01030
G1 X106.436 Y120.807 E0.01032
G1 X106.198 Y121.163 E0.01138
G1 X105.698 Y121.663 E0.01880
G1 X105.467 Y121.833 E0.00763
G1 X105.027 Y122.032 E0.01283
G1 X104.599 Y122.119 E0.01162
G1 X83.889 Y122.119 E0.55060
G1 X83.508 Y122.047 E0.01030
G1 X83.148 Y121.902 E0.01032
G1 X82.792 Y121.664 E0.01138
G1 X82.292 Y121.164 E0.01880
G1 X82.122 Y120.933 E0.00763
G1 X81.923 Y120.494 E0.01283
G1 X81.836 Y120.065 E0.01162
G1 X81.836 Y99.356 E0.55060
G1 X81.908 Y98.975 E0.01030
G1 X82.053 Y98.615 E0.01032
G1 X82.291 Y98.259 E0.01138
G1 X82.791 Y97.759 E0.01880
G1 X83.022 Y97.589 E0.00763
G1 X83.407 Y97.415 E0.01123
G1 X83.616 Y97.800 F7200.000
G1 F2100
G1 X83.912 Y97.741 E0.00802
G1 X104.621 Y97.745 E0.55058
G1 X104.873 Y97.800 E0.00685
G1 X105.154 Y97.916 E0.00808
G1 X105.333 Y98.026 E0.00559
G1 X105.873 Y98.553 E0.02005
G1 X106.040 Y98.803 E0.00800
G1 X106.156 Y99.083 E0.00806
G1 X106.215 Y99.378 E0.00799
G1 X106.215 Y120.044 E0.54943
G1 X106.156 Y120.339 E0.00799
G1 X106.040 Y120.619 E0.00806
G1 X105.873 Y120.869 E0.00799
G1 X105.401 Y121.341 E0.01775
G1 X105.230 Y121.464 E0.00560
G1 X104.873 Y121.622 E0.01038
G1 X104.577 Y121.681 E0.00802
G1 X83.911 Y121.681 E0.54943
G1 X83.617 Y121.623 E0.00799
G1 X83.337 Y121.507 E0.00806
G1 X83.087 Y121.340 E0.00799
