; generated by Slic3r 1.36.2-prusa3d-stable-win64 on 2017-08-22 at 23:46:19

; 

; external perimeters extrusion width = 0.45mm
; perimeters extrusion width = 0.45mm
; infill extrusion width = 0.45mm
; solid infill extrusion width = 0.45mm
; top infill extrusion width = 0.42mm
; first layer extrusion width = 0.45mm

M115 U3.0.12 ; tell printer latest fw version
M83  ; extruder relative mode
M104 S240 ; set extruder temp
M140 S95 ; set bed temp
M190 S95 ; wait for bed temp
M109 S240 ; wait for extruder temp
G28 W ; home all without mesh bed level
G80 ; mesh bed leveling
G1 Y-3.0 F1000.0 ; go outside pritn area
G1 X60.0 E9.0  F1000.0 ; intro line
G1 X100.0 E12.5  F1000.0 ; intro line
; Filament gcode
G21 ; set units to millimeters
G90 ; use absolute coordinates
M83 ; use relative distances for extrusion
; Layer 0
G1 Z0.200 F7200.000
G1 E-1.50000 F2100.00000
G1 X112.382 Y93.968 F7200.000
G1 E1.50000 F2100.00000
M204 S1000
G1 F2100
G1 X112.885 Y93.144 E0.03143
G1 X113.299 Y92.758 E0.01846
G1 X113.783 Y92.462 E0.01846
G1 X114.316 Y92.270 E0.01846
G1 X114.877 Y92.189 E0.01846
G1 X135.004 Y92.186 E0.65562
G1 X136.024 Y92.379 E0.03383
G1 X136.905 Y92.929 E0.03383
G1 X137.527 Y93.761 E0.03383
G1 X137.804 Y94.762 E0.03383
G1 X137.813 Y115.087 E0.66209
G1 X137.618 Y116.032 E0.03143
G1 X137.115 Y116.856 E0.03143
G1 X136.684 Y117.255 E0.01914
G1 X136.176 Y117.557 E0.01927
G1 X135.619 Y117.745 E0.01914
G1 X135.032 Y117.814 E0.01927
G1 X114.909 Y117.813 E0.65548
G1 X113.968 Y117.618 E0.03130
G1 X113.144 Y117.115 E0.03143
G1 X112.745 Y116.684 E0.01914
G1 X112.443 Y116.176 E0.01927
G1 X112.255 Y115.619 E0.01914
G1 X112.186 Y115.032 E0.01927
G1 X112.187 Y94.909 E0.65548
G1 X112.370 Y94.027 E0.02935
G1 F5760
G1 X112.885 Y93.144 E-0.35387
G1 F5760
G1 X113.299 Y92.758 E-0.19632
G1 F5760
G1 X113.783 Y92.462 E-0.19632
G1 F5760
G1 X114.316 Y92.270 E-0.19632
G1 F5760
G1 X114.877 Y92.189 E-0.19632
G1 F5760
G1 X115.703 Y92.188 E-0.28585
G1 E-0.07500 F2100.00000
G1 X113.974 Y92.822 F7200.000
G1 E1.50000 F2100.00000
G1 F2100
G1 X114.910 Y92.595 E0.03138
G1 X135.004 Y92.593 E0.65454
G1 X135.880 Y92.759 E0.02905
G1 X136.638 Y93.236 E0.02917
G1 X137.169 Y93.957 E0.02917
G1 X137.400 Y94.822 E0.02917
G1 X137.406 Y115.065 E0.65940
G1 X137.238 Y115.887 E0.02733
G1 X136.795 Y116.604 E0.02745
G1 X136.427 Y116.939 E0.01620
G1 X135.994 Y117.192 E0.01633
G1 X135.519 Y117.350 E0.01633
G1 X135.021 Y117.407 E0.01633
G1 X114.931 Y117.406 E0.65441
G1 X114.109 Y117.236 E0.02733
G1 X113.396 Y116.795 E0.02733
G1 X113.061 Y116.427 E0.01620
G1 X112.808 Y115.994 E0.01633
G1 X112.650 Y115.519 E0.01633
G1 X112.593 Y115.021 E0.01633
G1 X112.594 Y94.931 E0.65441
G1 X112.764 Y94.109 E0.02733
G1 X113.205 Y93.396 E0.02733
G1 X113.926 Y92.858 E0.02930
G1 F5760
G1 X114.910 Y92.595 E-0.35282
G1 F5760
G1 X118.006 Y92.594 E-1.07218
G1 E-0.07500 F2100.00000
G1 X116.039 Y96.039 F7200.000
G1 E1.50000 F2100.00000
G1 F1680
G1 X133.961 Y96.039 E0.58379
G1 X133.961 Y113.961 E0.58379
G1 X116.039 Y113.961 E0.58379
G1 X116.039 Y96.099 E0.58183
G1 X115.632 Y95.632 F7200.000
G1 F1680
G1 X134.368 Y95.632 E0.61031
G1 X134.368 Y114.368 E0.61031
G1 X115.632 Y114.368 E0.61031
G1 X115.632 Y95.692 E0.60835
G1 X115.225 Y95.225 F7200.000
G1 F1050
G1 X134.775 Y95.225 E0.63683
G1 X134.775 Y114.775 E0.63683
G1 X115.225 Y114.775 E0.63683
G1 X115.225 Y95.285 E0.63487
G1 X115.611 Y95.329 F7200.000
G1 F5760
G1 X119.339 Y95.272 E-1.42500
G1 E-0.07500 F2100.00000
G1 X116.161 Y113.008 F7200.000
G1 E1.50000 F2100.00000
G1 F1680
G1 X116.809 Y113.656 E0.03011
G1 X117.390 Y113.656 E0.01910
G1 X116.344 Y112.610 E0.04860
G1 X116.344 Y112.029 E0.01910
G1 X117.971 Y113.656 E0.07562
G1 X118.551 Y113.656 E0.01910
G1 X116.344 Y111.449 E0.10263
G1 X116.344 Y110.868 E0.01910
G1 X119.132 Y113.656 E0.12965
G1 X119.713 Y113.656 E0.01910
G1 X116.344 Y110.287 E0.15666
G1 X116.344 Y109.706 E0.01910
G1 X120.294 Y113.656 E0.18367
G1 X120.875 Y113.656 E0.01910
G1 X116.344 Y109.125 E0.21069
G1 X116.344 Y108.544 E0.01910
G1 X121.456 Y113.656 E0.23770
G1 X122.037 Y113.656 E0.01910
G1 X116.344 Y107.963 E0.26471
G1 X116.344 Y107.382 E0.01910
G1 X122.618 Y113.656 E0.29173
G1 X123.199 Y113.656 E0.01910
G1 X116.344 Y106.801 E0.31874
G1 X116.344 Y106.220 E0.01910
G1 X123.780 Y113.656 E0.34576
G1 X124.361 Y113.656 E0.01910
G1 X116.344 Y105.639 E0.37277
G1 X116.344 Y105.058 E0.01910
G1 X124.942 Y113.656 E0.39978
G1 X125.523 Y113.656 E0.01910
G1 X116.344 Y104.477 E0.42680
G1 X116.344 Y103.897 E0.01910
G1 X126.103 Y113.656 E0.45381
G1 X126.684 Y113.656 E0.01910
G1 X116.344 Y103.316 E0.48083
G1 X116.344 Y102.735 E0.01910
G1 X127.265 Y113.656 E0.50784
G1 X127.846 Y113.656 E0.01910
G1 X116.344 Y102.154 E0.53485
G1 X116.344 Y101.573 E0.01910
G1 X128.427 Y113.656 E0.56187
G1 X129.008 Y113.656 E0.01910
G1 X116.344 Y100.992 E0.58888
G1 X116.344 Y100.411 E0.01910
G1 X129.589 Y113.656 E0.61590
G1 X130.170 Y113.656 E0.01910
G1 X116.344 Y99.830 E0.64291
G1 X116.344 Y99.249 E0.01910
G1 X130.751 Y113.656 E0.66992
G1 X131.332 Y113.656 E0.01910
G1 X116.344 Y98.668 E0.69694
G1 X116.344 Y98.087 E0.01910
G1 X131.913 Y113.656 E0.72395
G1 X132.494 Y113.656 E0.01910
G1 X116.344 Y97.506 E0.75097
G1 X116.344 Y96.925 E0.01910
G1 X133.075 Y113.656 E0.77798
G1 X133.656 Y113.656 E0.01910
G1 X116.344 Y96.344 E0.80499
G1 X116.925 Y96.344 E0.01910
G1 X133.656 Y113.075 E0.77798
G1 X133.656 Y112.494 E0.01910
G1 X117.506 Y96.344 E0.75097
G1 X118.087 Y96.344 E0.01910
G1 X133.656 Y111.913 E0.72396
G1 X133.656 Y111.332 E0.01910
G1 X118.668 Y96.344 E0.69694
G1 X119.249 Y96.344 E0.01910
G1 X133.656 Y110.751 E0.66993
G1 X133.656 Y110.170 E0.01910
G1 X119.830 Y96.344 E0.64291
G1 X120.411 Y96.344 E0.01910
G1 X133.656 Y109.589 E0.61590
G1 X133.656 Y109.008 E0.01910
G1 X120.992 Y96.344 E0.58889
G1 X121.573 Y96.344 E0.01910
G1 X133.656 Y108.427 E0.56187
G1 X133.656 Y107.846 E0.01910
G1 X122.154 Y96.344 E0.53486
G1 X122.735 Y96.344 E0.01910
G1 X133.656 Y107.265 E0.50784
G1 X133.656 Y106.685 E0.01910
G1 X123.315 Y96.344 E0.48083
G1 X123.896 Y96.344 E0.01910
G1 X133.656 Y106.104 E0.45382
G1 X133.656 Y105.523 E0.01910
G1 X124.477 Y96.344 E0.42680
G1 X125.058 Y96.344 E0.01910
G1 X133.656 Y104.942 E0.39979
G1 X133.656 Y104.361 E0.01910
G1 X125.639 Y96.344 E0.37278
G1 X126.220 Y96.344 E0.01910
G1 X133.656 Y103.780 E0.34576
G1 X133.656 Y103.199 E0.01910
G1 X126.801 Y96.344 E0.31875
G1 X127.382 Y96.344 E0.01910
G1 X133.656 Y102.618 E0.29173
G1 X133.656 Y102.037 E0.01910
G1 X127.963 Y96.344 E0.26472
G1 X128.544 Y96.344 E0.01910
G1 X133.656 Y101.456 E0.23771
G1 X133.656 Y100.875 E0.01910
G1 X129.125 Y96.344 E0.21069
G1 X129.706 Y96.344 E0.01910
G1 X133.656 Y100.294 E0.18368
G1 X133.656 Y99.713 E0.01910
G1 X130.287 Y96.344 E0.15666
G1 X130.867 Y96.344 E0.01910
G1 X133.656 Y99.133 E0.12965
G1 X133.656 Y98.552 E0.01910
G1 X131.448 Y96.344 E0.10264
G1 X132.029 Y96.344 E0.01910
G1 X133.656 Y97.971 E0.07562
G1 X133.656 Y97.390 E0.01910
G1 X132.610 Y96.344 E0.04861
G1 X133.191 Y96.344 E0.01910
G1 X133.839 Y96.992 E0.03011
; Layer 1
G1 Z0.350 F7200.000
M104 S235 ; set temperature
M140 S90 ; set bed temperature
G1 E-1.50000 F2100.00000
G1 X137.527 Y93.761 F7200.000
G1 E1.50000 F2100.00000
G1 F3000
G1 X137.804 Y94.762 E0.02631
G1 X137.813 Y115.087 E0.51503
G1 X137.618 Y116.032 E0.02445
G1 X137.115 Y116.856 E0.02445
G1 X136.684 Y117.255 E0.01488
G1 X136.176 Y117.557 E0.01499
G1 X135.619 Y117.745 E0.01488
G1 X135.032 Y117.814 E0.01499
G1 X114.909 Y117.813 E0.50989
G1 X113.968 Y117.618 E0.02435
G1 X113.144 Y117.115 E0.02445
G1 X112.745 Y116.684 E0.01488
G1 X112.443 Y116.176 E0.01499
G1 X112.255 Y115.619 E0.01488
G1 X112.186 Y115.032 E0.01499
G1 X112.187 Y94.909 E0.50989
G1 X112.382 Y93.968 E0.02435
G1 X112.885 Y93.144 E0.02445
G1 X113.299 Y92.758 E0.01436
G1 X113.783 Y92.462 E0.01436
G1 X114.316 Y92.270 E0.01436
G1 X114.877 Y92.189 E0.01436
G1 X135.004 Y92.186 E0.50999
G1 X136.024 Y92.379 E0.02631
G1 X136.905 Y92.929 E0.02631
G1 X137.491 Y93.713 E0.02479
G1 F5760
G1 X137.804 Y94.762 E-0.37910
G1 F5760
G1 X137.805 Y97.781 E-1.04590
G1 E-0.07500 F2100.00000
G1 X133.939 Y96.061 F7200.000
G1 E1.50000 F2100.00000
M204 S800
G1 F2400
G1 X133.939 Y113.939 E0.45303
G1 X116.061 Y113.939 E0.45303
G1 X116.061 Y96.061 E0.45303
G1 X133.879 Y96.061 E0.45151
M204 S1000
G1 X134.357 Y95.643 F7200.000
M204 S800
G1 F2400
G1 X134.357 Y114.357 E0.47420
G1 X115.643 Y114.357 E0.47420
G1 X115.643 Y95.643 E0.47420
G1 X134.297 Y95.643 E0.47268
M204 S1000
G1 X134.775 Y95.225 F7200.000
M204 S800
G1 F1500
G1 X134.775 Y114.775 E0.49538
G1 X115.225 Y114.775 E0.49538
G1 X115.225 Y95.225 E0.49538
G1 X134.715 Y95.225 E0.49385
M204 S1000
G1 X134.671 Y95.611 F7200.000
G1 F5760
G1 X134.728 Y99.339 E-1.42500
G1 E-0.07500 F2100.00000
G1 X117.043 Y96.186 F7200.000
G1 E1.50000 F2100.00000
M204 S2000
G1 F2400
G1 X116.374 Y96.855 E0.02430
G1 X116.374 Y97.454 E0.01539
G1 X117.454 Y96.374 E0.03923
G1 X118.053 Y96.374 E0.01539
G1 X116.374 Y98.053 E0.06100
G1 X116.374 Y98.652 E0.01539
G1 X118.652 Y96.374 E0.08277
G1 X119.250 Y96.374 E0.01539
G1 X116.374 Y99.250 E0.10453
G1 X116.374 Y99.849 E0.01539
G1 X119.849 Y96.374 E0.12630
G1 X120.448 Y96.374 E0.01539
G1 X116.374 Y100.448 E0.14807
G1 X116.374 Y101.047 E0.01539
G1 X121.047 Y96.374 E0.16983
G1 X121.646 Y96.374 E0.01539
G1 X116.374 Y101.646 E0.19160
G1 X116.374 Y102.245 E0.01539
G1 X122.245 Y96.374 E0.21337
G1 X122.844 Y96.374 E0.01539
G1 X116.374 Y102.844 E0.23513
G1 X116.374 Y103.443 E0.01539
G1 X123.443 Y96.374 E0.25690
G1 X124.042 Y96.374 E0.01539
G1 X116.374 Y104.042 E0.27867
G1 X116.374 Y104.641 E0.01539
G1 X124.641 Y96.374 E0.30044
G1 X125.240 Y96.374 E0.01539
G1 X116.374 Y105.240 E0.32220
G1 X116.374 Y105.839 E0.01539
G1 X125.839 Y96.374 E0.34397
G1 X126.438 Y96.374 E0.01539
G1 X116.374 Y106.438 E0.36574
G1 X116.374 Y107.037 E0.01539
G1 X127.037 Y96.374 E0.38750
G1 X127.636 Y96.374 E0.01539
G1 X116.374 Y107.636 E0.40927
G1 X116.374 Y108.235 E0.01539
G1 X128.235 Y96.374 E0.43104
G1 X128.834 Y96.374 E0.01539
G1 X116.374 Y108.834 E0.45280
G1 X116.374 Y109.433 E0.01539
G1 X129.433 Y96.374 E0.47457
G1 X130.032 Y96.374 E0.01539
G1 X116.374 Y110.032 E0.49634
G1 X116.374 Y110.631 E0.01539
G1 X130.631 Y96.374 E0.51811
G1 X131.230 Y96.374 E0.01539
G1 X116.374 Y111.230 E0.53987
G1 X116.374 Y111.829 E0.01539
G1 X131.829 Y96.374 E0.56164
G1 X132.428 Y96.374 E0.01539
G1 X116.374 Y112.428 E0.58341
G1 X116.374 Y113.027 E0.01539
G1 X133.027 Y96.374 E0.60517
G1 X133.626 Y96.374 E0.01539
G1 X116.374 Y113.626 E0.62694
G1 X116.973 Y113.626 E0.01539
G1 X133.626 Y96.973 E0.60518
G1 X133.626 Y97.572 E0.01539
G1 X117.572 Y113.626 E0.58341
G1 X118.171 Y113.626 E0.01539
G1 X133.626 Y98.171 E0.56164
G1 X133.626 Y98.770 E0.01539
G1 X118.770 Y113.626 E0.53988
G1 X119.369 Y113.626 E0.01539
G1 X133.626 Y99.369 E0.51811
G1 X133.626 Y99.968 E0.01539
G1 X119.968 Y113.626 E0.49634
G1 X120.567 Y113.626 E0.01539
G1 X133.626 Y100.567 E0.47458
G1 X133.626 Y101.166 E0.01539
G1 X121.166 Y113.626 E0.45281
G1 X121.765 Y113.626 E0.01539
G1 X133.626 Y101.765 E0.43104
G1 X133.626 Y102.364 E0.01539
G1 X122.364 Y113.626 E0.40928
G1 X122.963 Y113.626 E0.01539
G1 X133.626 Y102.963 E0.38751
G1 X133.626 Y103.562 E0.01539
G1 X123.562 Y113.626 E0.36574
G1 X124.161 Y113.626 E0.01539
G1 X133.626 Y104.161 E0.34397
G1 X133.626 Y104.760 E0.01539
G1 X124.760 Y113.626 E0.32221
G1 X125.359 Y113.626 E0.01539
G1 X133.626 Y105.359 E0.30044
G1 X133.626 Y105.958 E0.01539
G1 X125.958 Y113.626 E0.27867
G1 X126.557 Y113.626 E0.01539
G1 X133.626 Y106.557 E0.25691
G1 X133.626 Y107.156 E0.01539
G1 X127.156 Y113.626 E0.23514
G1 X127.754 Y113.626 E0.01539
G1 X133.626 Y107.754 E0.21337
G1 X133.626 Y108.353 E0.01539
G1 X128.353 Y113.626 E0.19161
G1 X128.952 Y113.626 E0.01539
G1 X133.626 Y108.952 E0.16984
G1 X133.626 Y109.551 E0.01539
G1 X129.551 Y113.626 E0.14807
G1 X130.150 Y113.626 E0.01539
G1 X133.626 Y110.150 E0.12630
G1 X133.626 Y110.749 E0.01539
G1 X130.749 Y113.626 E0.10454
G1 X131.348 Y113.626 E0.01539
G1 X133.626 Y111.348 E0.08277
G1 X133.626 Y111.947 E0.01539
G1 X131.947 Y113.626 E0.06100
G1 X132.546 Y113.626 E0.01539
G1 X133.626 Y112.546 E0.03924
G1 X133.626 Y113.145 E0.01539
G1 X132.957 Y113.814 E0.02430
M204 S1000
; Layer 2
G1 Z0.500 F7200.000
G1 E-1.50000 F2100.00000
G1 X137.618 Y116.032 F7200.000
G1 E1.50000 F2100.00000
G1 F3000
G1 X137.115 Y116.856 E0.02445
G1 X136.684 Y117.255 E0.01488
G1 X136.176 Y117.557 E0.01499
G1 X135.619 Y117.745 E0.01488
G1 X135.032 Y117.814 E0.01499
G1 X114.909 Y117.813 E0.50989
G1 X113.968 Y117.618 E0.02435
G1 X113.144 Y117.115 E0.02445
G1 X112.745 Y116.684 E0.01488
G1 X112.443 Y116.176 E0.01499
G1 X112.255 Y115.619 E0.01488
G1 X112.186 Y115.032 E0.01499
G1 X112.187 Y94.909 E0.50989
G1 X112.382 Y93.968 E0.02435
G1 X112.885 Y93.144 E0.02445
G1 X113.299 Y92.758 E0.01436
G1 X113.783 Y92.462 E0.01436
G1 X114.316 Y92.270 E0.01436
G1 X114.877 Y92.189 E0.01436
G1 X135.004 Y92.186 E0.50999
G1 X136.024 Y92.379 E0.02631
G1 X136.905 Y92.929 E0.02631
G1 X137.527 Y93.761 E0.02631
G1 X137.804 Y94.762 E0.02631
G1 X137.813 Y115.087 E0.51503
G1 X137.630 Y115.973 E0.02293
G1 F5760
G1 X137.115 Y116.856 E-0.35386
G1 F5760
G1 X136.684 Y117.255 E-0.20346
G1 F5760
G1 X136.176 Y117.557 E-0.20489
G1 F5760
G1 X135.619 Y117.745 E-0.20346
G1 F5760
G1 X135.032 Y117.814 E-0.20489
G1 F5760
G1 X134.297 Y117.814 E-0.25444
G1 E-0.07500 F2100.00000
G1 X133.939 Y113.939 F7200.000
G1 E1.50000 F2100.00000
M204 S800
G1 F2400
G1 X116.061 Y113.939 E0.45303
G1 X116.061 Y96.061 E0.45303
G1 X133.939 Y96.061 E0.45303
G1 X133.939 Y113.879 E0.45151
M204 S1000
G1 X134.357 Y114.357 F7200.000
M204 S800
G1 F2400
G1 X115.643 Y114.357 E0.47420
G1 X115.643 Y95.643 E0.47420
G1 X134.357 Y95.643 E0.47420
G1 X134.357 Y114.297 E0.47268
M204 S1000
G1 X134.775 Y114.775 F7200.000
M204 S800
G1 F1500
G1 X115.225 Y114.775 E0.49538
G1 X115.225 Y95.225 E0.49538
G1 X134.775 Y95.225 E0.49538
G1 X134.775 Y114.715 E0.49385
M204 S1000
G1 X134.389 Y114.671 F7200.000
G1 F5760
G1 X130.661 Y114.728 E-1.42500
G1 E-0.07500 F2100.00000
G1 X133.814 Y97.043 F7200.000
G1 E1.50000 F2100.00000
M204 S2000
G1 F2400
G1 X133.145 Y96.374 E0.02430
G1 X132.546 Y96.374 E0.01539
G1 X133.626 Y97.454 E0.03924
G1 X133.626 Y98.053 E0.01539
G1 X131.947 Y96.374 E0.06100
G1 X131.348 Y96.374 E0.01539
G1 X133.626 Y98.652 E0.08277
G1 X133.626 Y99.251 E0.01539
G1 X130.749 Y96.374 E0.10454
G1 X130.150 Y96.374 E0.01539
G1 X133.626 Y99.850 E0.12630
G1 X133.626 Y100.449 E0.01539
G1 X129.551 Y96.374 E0.14807
G1 X128.952 Y96.374 E0.01539
G1 X133.626 Y101.048 E0.16984
G1 X133.626 Y101.647 E0.01539
G1 X128.353 Y96.374 E0.19161
G1 X127.754 Y96.374 E0.01539
G1 X133.626 Y102.246 E0.21337
G1 X133.626 Y102.844 E0.01539
G1 X127.156 Y96.374 E0.23514
G1 X126.557 Y96.374 E0.01539
G1 X133.626 Y103.443 E0.25691
G1 X133.626 Y104.042 E0.01539
G1 X125.958 Y96.374 E0.27867
G1 X125.359 Y96.374 E0.01539
G1 X133.626 Y104.641 E0.30044
G1 X133.626 Y105.240 E0.01539
G1 X124.760 Y96.374 E0.32221
G1 X124.161 Y96.374 E0.01539
G1 X133.626 Y105.839 E0.34397
G1 X133.626 Y106.438 E0.01539
G1 X123.562 Y96.374 E0.36574
G1 X122.963 Y96.374 E0.01539
G1 X133.626 Y107.037 E0.38751
G1 X133.626 Y107.636 E0.01539
G1 X122.364 Y96.374 E0.40928
G1 X121.765 Y96.374 E0.01539
G1 X133.626 Y108.235 E0.43104
G1 X133.626 Y108.834 E0.01539
G1 X121.166 Y96.374 E0.45281
G1 X120.567 Y96.374 E0.01539
G1 X133.626 Y109.433 E0.47458
G1 X133.626 Y110.032 E0.01539
G1 X119.968 Y96.374 E0.49634
G1 X119.369 Y96.374 E0.01539
G1 X133.626 Y110.631 E0.51811
G1 X133.626 Y111.230 E0.01539
G1 X118.770 Y96.374 E0.53988
G1 X118.171 Y96.374 E0.01539
G1 X133.626 Y111.829 E0.56164
G1 X133.626 Y112.428 E0.01539
G1 X117.572 Y96.374 E0.58341
G1 X116.973 Y96.374 E0.01539
G1 X133.626 Y113.027 E0.60518
G1 X133.626 Y113.626 E0.01539
G1 X116.374 Y96.374 E0.62694
G1 X116.374 Y96.973 E0.01539
G1 X133.027 Y113.626 E0.60517
G1 X132.428 Y113.626 E0.01539
G1 X116.374 Y97.572 E0.58341
G1 X116.374 Y98.171 E0.01539
G1 X131.829 Y113.626 E0.56164
G1 X131.230 Y113.626 E0.01539
G1 X116.374 Y98.770 E0.53987
G1 X116.374 Y99.369 E0.01539
G1 X130.631 Y113.626 E0.51811
G1 X130.032 Y113.626 E0.01539
