; generated by Slic3r 1.36.2-prusa3d-stable-win64 on 2017-08-26 at 23:06:34

; 

; external perimeters extrusion width = 0.45mm
; perimeters extrusion width = 0.45mm
; infill extrusion width = 0.50mm
; solid infill extrusion width = 0.50mm
; top infill extrusion width = 0.40mm
; first layer extrusion width = 0.47mm

M115 U3.0.12 ; tell printer latest fw version
M83  ; extruder relative mode
M104 S255 ; set extruder temp
M140 S100 ; set bed temp
M190 S100 ; wait for bed temp
M109 S255 ; wait for extruder temp
G28 W ; home all without mesh bed level
G80 ; mesh bed leveling
G1 Y-3.0 F1000.0 ; go outside pritn area
G1 X60.0 E9.0  F1000.0 ; intro line
G1 X100.0 E12.5  F1000.0 ; intro line
; Filament gcode

G21 ; set units to millimeters
G90 ; use absolute coordinates
M83 ; use relative distances for extrusion
; Layer 0
G1 E-0.80000 F2100.00000
G1 Z0.200 F7200.000
G1 X17.564 Y18.873 F7200.000
G1 E0.80000 F2100.00000
M204 S1000
G1 F2100
G1 X18.072 Y18.039 E0.03342
G1 X18.493 Y17.647 E0.01969
G1 X18.984 Y17.347 E0.01969
G1 X19.524 Y17.152 E0.01969
G1 X20.093 Y17.069 E0.01969
G1 X40.223 Y17.066 E0.68920
G1 X41.255 Y17.261 E0.03595
G1 X42.150 Y17.818 E0.03609
G1 X42.781 Y18.662 E0.03609
G1 X43.063 Y19.674 E0.03595
G1 X43.072 Y40.008 E0.69619
G1 X42.876 Y40.964 E0.03342
G1 X42.366 Y41.801 E0.03356
G1 X41.925 Y42.208 E0.02054
G1 X41.409 Y42.514 E0.02054
G1 X40.845 Y42.705 E0.02040
G1 X40.249 Y42.774 E0.02054
G1 X20.127 Y42.773 E0.68891
G1 X19.172 Y42.575 E0.03342
G1 X18.338 Y42.067 E0.03342
G1 X17.931 Y41.627 E0.02054
G1 X17.625 Y41.111 E0.02054
G1 X17.434 Y40.546 E0.02040
G1 X17.365 Y39.950 E0.02054
G1 X17.366 Y19.829 E0.68891
G1 X17.552 Y18.932 E0.03136
G1 F5760
G1 X18.072 Y18.039 E-0.35768
G1 F5760
G1 X18.493 Y17.647 E-0.19916
G1 F5760
G1 X18.984 Y17.347 E-0.19916
G1 F5760
G1 X18.994 Y17.344 E-0.00401
G1 E-0.04000 F2100.00000
G1 X19.185 Y17.725 F7200.000
G1 E0.80000 F2100.00000
G1 F2100
G1 X20.129 Y17.495 E0.03324
G1 X40.223 Y17.493 E0.68798
G1 X41.106 Y17.661 E0.03079
G1 X41.871 Y18.142 E0.03092
G1 X42.405 Y18.865 E0.03079
G1 X42.639 Y19.738 E0.03092
G1 X42.645 Y39.986 E0.69325
G1 X42.475 Y40.815 E0.02897
G1 X42.031 Y41.535 E0.02897
G1 X41.659 Y41.874 E0.01723
G1 X41.222 Y42.131 E0.01736
G1 X40.744 Y42.290 E0.01723
G1 X40.240 Y42.347 E0.01736
G1 X20.150 Y42.346 E0.68785
G1 X19.321 Y42.175 E0.02897
G1 X18.604 Y41.732 E0.02884
G1 X18.265 Y41.360 E0.01723
G1 X18.009 Y40.923 E0.01736
G1 X17.850 Y40.446 E0.01723
G1 X17.792 Y39.942 E0.01736
G1 X17.793 Y19.851 E0.68785
G1 X17.964 Y19.022 E0.02897
G1 X18.407 Y18.306 E0.02884
G1 X19.137 Y17.760 E0.03119
G1 F5760
G1 X20.129 Y17.495 E-0.35553
G1 F5760
G1 X21.296 Y17.495 E-0.40447
G1 E-0.04000 F2100.00000
G1 X20.881 Y20.582 F7200.000
G1 E0.80000 F2100.00000
G1 F1680
G1 X39.557 Y20.582 E0.63941
G1 X39.557 Y39.258 E0.63941
G1 X20.881 Y39.258 E0.63941
G1 X20.881 Y20.642 E0.63736
G1 X20.454 Y20.155 F7200.000
G1 F1260
G1 X39.984 Y20.155 E0.66866
G1 X39.984 Y39.685 E0.66866
G1 X20.454 Y39.685 E0.66866
G1 X20.454 Y20.215 E0.66660
G1 X20.840 Y20.259 F7200.000
G1 F5760
G1 X22.648 Y20.209 E-0.76000
G1 E-0.04000 F2100.00000
G1 X21.009 Y38.265 F7200.000
G1 E0.80000 F2100.00000
G1 F1680
G1 X21.682 Y38.938 E0.03267
G1 X22.288 Y38.938 E0.02077
G1 X21.201 Y37.852 E0.05272
G1 X21.201 Y37.246 E0.02077
G1 X22.893 Y38.938 E0.08209
G1 X23.498 Y38.938 E0.02077
G1 X21.201 Y36.641 E0.11147
G1 X21.201 Y36.036 E0.02077
G1 X24.104 Y38.938 E0.14084
G1 X24.709 Y38.938 E0.02077
G1 X21.201 Y35.430 E0.17022
G1 X21.201 Y34.825 E0.02077
G1 X25.314 Y38.938 E0.19960
G1 X25.920 Y38.938 E0.02077
G1 X21.201 Y34.220 E0.22897
G1 X21.201 Y33.614 E0.02077
G1 X26.525 Y38.938 E0.25835
G1 X27.130 Y38.938 E0.02077
G1 X21.201 Y33.009 E0.28773
G1 X21.201 Y32.404 E0.02077
G1 X27.736 Y38.938 E0.31710
G1 X28.341 Y38.938 E0.02077
G1 X21.201 Y31.799 E0.34648
G1 X21.201 Y31.193 E0.02077
G1 X28.946 Y38.938 E0.37586
G1 X29.552 Y38.938 E0.02077
G1 X21.201 Y30.588 E0.40523
G1 X21.201 Y29.983 E0.02077
G1 X30.157 Y38.938 E0.43461
G1 X30.762 Y38.938 E0.02077
G1 X21.201 Y29.377 E0.46399
G1 X21.201 Y28.772 E0.02077
G1 X31.368 Y38.938 E0.49336
G1 X31.973 Y38.938 E0.02077
G1 X21.201 Y28.167 E0.52274
G1 X21.201 Y27.561 E0.02077
G1 X32.578 Y38.938 E0.55212
G1 X33.184 Y38.938 E0.02077
G1 X21.201 Y26.956 E0.58149
G1 X21.201 Y26.351 E0.02077
G1 X33.789 Y38.938 E0.61087
G1 X34.394 Y38.938 E0.02077
G1 X21.201 Y25.745 E0.64024
G1 X21.201 Y25.140 E0.02077
G1 X34.999 Y38.938 E0.66962
G1 X35.605 Y38.938 E0.02077
G1 X21.201 Y24.535 E0.69900
G1 X21.201 Y23.929 E0.02077
G1 X36.210 Y38.938 E0.72837
G1 X36.815 Y38.938 E0.02077
G1 X21.201 Y23.324 E0.75775
G1 X21.201 Y22.719 E0.02077
G1 X37.421 Y38.938 E0.78713
G1 X38.026 Y38.938 E0.02077
G1 X21.201 Y22.113 E0.81650
G1 X21.201 Y21.508 E0.02077
G1 X38.631 Y38.938 E0.84588
G1 X39.237 Y38.938 E0.02077
G1 X21.201 Y20.903 E0.87526
G1 X21.807 Y20.903 E0.02077
G1 X39.237 Y38.333 E0.84588
G1 X39.237 Y37.727 E0.02077
G1 X22.412 Y20.903 E0.81651
G1 X23.017 Y20.903 E0.02077
G1 X39.237 Y37.122 E0.78713
G1 X39.237 Y36.517 E0.02077
G1 X23.623 Y20.903 E0.75775
G1 X24.228 Y20.903 E0.02077
G1 X39.237 Y35.911 E0.72838
G1 X39.237 Y35.306 E0.02077
G1 X24.833 Y20.903 E0.69900
G1 X25.439 Y20.903 E0.02077
G1 X39.237 Y34.701 E0.66962
G1 X39.237 Y34.095 E0.02077
G1 X26.044 Y20.903 E0.64025
G1 X26.649 Y20.903 E0.02077
G1 X39.237 Y33.490 E0.61087
G1 X39.237 Y32.885 E0.02077
G1 X27.255 Y20.903 E0.58149
G1 X27.860 Y20.903 E0.02077
G1 X39.237 Y32.279 E0.55212
G1 X39.237 Y31.674 E0.02077
G1 X28.465 Y20.903 E0.52274
G1 X29.071 Y20.903 E0.02077
G1 X39.237 Y31.069 E0.49337
G1 X39.237 Y30.464 E0.02077
G1 X29.676 Y20.903 E0.46399
G1 X30.281 Y20.903 E0.02077
G1 X39.237 Y29.858 E0.43461
G1 X39.237 Y29.253 E0.02077
G1 X30.887 Y20.903 E0.40524
G1 X31.492 Y20.903 E0.02077
G1 X39.237 Y28.648 E0.37586
G1 X39.237 Y28.042 E0.02077
G1 X32.097 Y20.903 E0.34648
G1 X32.703 Y20.903 E0.02077
G1 X39.237 Y27.437 E0.31711
G1 X39.237 Y26.832 E0.02077
G1 X33.308 Y20.903 E0.28773
G1 X33.913 Y20.903 E0.02077
G1 X39.237 Y26.226 E0.25835
G1 X39.237 Y25.621 E0.02077
G1 X34.519 Y20.903 E0.22898
G1 X35.124 Y20.903 E0.02077
G1 X39.237 Y25.016 E0.19960
G1 X39.237 Y24.410 E0.02077
G1 X35.729 Y20.903 E0.17022
G1 X36.334 Y20.903 E0.02077
G1 X39.237 Y23.805 E0.14085
G1 X39.237 Y23.200 E0.02077
G1 X36.940 Y20.903 E0.11147
G1 X37.545 Y20.903 E0.02077
G1 X39.237 Y22.594 E0.08209
G1 X39.237 Y21.989 E0.02077
G1 X38.150 Y20.903 E0.05272
G1 X38.756 Y20.903 E0.02077
G1 X39.429 Y21.576 E0.03267
; Layer 1
G1 F5760
G1 X38.756 Y20.903 E-0.32973
G1 F5760
G1 X38.150 Y20.903 E-0.20966
G1 F5760
G1 X38.601 Y21.353 E-0.22062
G1 E-0.04000 F2100.00000
G1 Z0.400 F7200.000
M104 S250 ; set temperature
G1 X42.781 Y18.662 F7200.000
G1 E0.80000 F2100.00000
G1 F3000
G1 X43.063 Y19.674 E0.03595
G1 X43.072 Y40.008 E0.69619
G1 X42.876 Y40.964 E0.03342
G1 X42.366 Y41.801 E0.03356
G1 X41.925 Y42.208 E0.02054
G1 X41.409 Y42.514 E0.02054
G1 X40.845 Y42.705 E0.02040
G1 X40.249 Y42.774 E0.02054
G1 X20.127 Y42.773 E0.68891
G1 X19.172 Y42.575 E0.03342
G1 X18.338 Y42.067 E0.03342
G1 X17.931 Y41.627 E0.02054
G1 X17.625 Y41.111 E0.02054
G1 X17.434 Y40.546 E0.02040
G1 X17.365 Y39.950 E0.02054
G1 X17.366 Y19.829 E0.68891
G1 X17.564 Y18.873 E0.03342
G1 X18.072 Y18.039 E0.03342
G1 X18.493 Y17.647 E0.01969
G1 X18.984 Y17.347 E0.01969
G1 X19.524 Y17.152 E0.01969
G1 X20.093 Y17.069 E0.01969
G1 X40.223 Y17.066 E0.68920
G1 X41.255 Y17.261 E0.03595
G1 X42.150 Y17.818 E0.03609
G1 X42.745 Y18.614 E0.03403
G1 F5760
G1 X43.063 Y19.674 E-0.38310
G1 F5760
G1 X43.063 Y20.762 E-0.37690
G1 E-0.04000 F2100.00000
G1 X39.587 Y20.552 F7200.000
G1 E0.80000 F2100.00000
M204 S800
G1 F2400
G1 X39.587 Y39.288 E0.61031
G1 X20.851 Y39.288 E0.61031
G1 X20.851 Y20.552 E0.61031
G1 X39.527 Y20.552 E0.60835
M204 S1000
G1 X39.994 Y20.145 F7200.000
M204 S800
G1 F1800
G1 X39.994 Y39.695 E0.63683
G1 X20.444 Y39.695 E0.63683
G1 X20.444 Y20.145 E0.63683
G1 X39.934 Y20.145 E0.63487
M204 S1000
G1 X39.891 Y20.532 F7200.000
G1 F5760
G1 X39.941 Y22.340 E-0.76000
G1 E-0.04000 F2100.00000
G1 X21.900 Y20.671 F7200.000
G1 E0.80000 F2100.00000
M204 S2000
G1 F2400
G1 X21.175 Y21.395 E0.03790
G1 X21.175 Y22.046 E0.02407
G1 X22.345 Y20.876 E0.06117
G1 X22.996 Y20.876 E0.02407
G1 X21.175 Y22.697 E0.09521
G1 X21.175 Y23.347 E0.02407
G1 X23.646 Y20.876 E0.12924
G1 X24.297 Y20.876 E0.02407
G1 X21.175 Y23.998 E0.16327
G1 X21.175 Y24.649 E0.02407
G1 X24.948 Y20.876 E0.19731
G1 X25.598 Y20.876 E0.02407
G1 X21.175 Y25.300 E0.23134
G1 X21.175 Y25.950 E0.02407
G1 X26.249 Y20.876 E0.26538
G1 X26.900 Y20.876 E0.02407
G1 X21.175 Y26.601 E0.29941
G1 X21.175 Y27.252 E0.02407
G1 X27.550 Y20.876 E0.33344
G1 X28.201 Y20.876 E0.02407
G1 X21.175 Y27.902 E0.36748
G1 X21.175 Y28.553 E0.02407
G1 X28.852 Y20.876 E0.40151
G1 X29.503 Y20.876 E0.02407
G1 X21.175 Y29.204 E0.43554
G1 X21.175 Y29.854 E0.02407
G1 X30.153 Y20.876 E0.46958
G1 X30.804 Y20.876 E0.02407
G1 X21.175 Y30.505 E0.50361
G1 X21.175 Y31.156 E0.02407
G1 X31.455 Y20.876 E0.53764
G1 X32.105 Y20.876 E0.02407
G1 X21.175 Y31.807 E0.57168
G1 X21.175 Y32.457 E0.02407
G1 X32.756 Y20.876 E0.60571
G1 X33.407 Y20.876 E0.02407
G1 X21.175 Y33.108 E0.63974
G1 X21.175 Y33.759 E0.02407
G1 X34.057 Y20.876 E0.67378
G1 X34.708 Y20.876 E0.02407
G1 X21.175 Y34.409 E0.70781
G1 X21.175 Y35.060 E0.02407
G1 X35.359 Y20.876 E0.74184
G1 X36.009 Y20.876 E0.02407
G1 X21.175 Y35.711 E0.77588
G1 X21.175 Y36.361 E0.02407
G1 X36.660 Y20.876 E0.80991
G1 X37.311 Y20.876 E0.02407
G1 X21.175 Y37.012 E0.84394
G1 X21.175 Y37.663 E0.02407
G1 X37.962 Y20.876 E0.87798
G1 X38.612 Y20.876 E0.02407
G1 X21.175 Y38.313 E0.91201
G1 X21.175 Y38.964 E0.02407
G1 X39.263 Y20.876 E0.94605
G1 X39.263 Y21.527 E0.02406
G1 X21.826 Y38.964 E0.91202
G1 X22.477 Y38.964 E0.02407
G1 X39.263 Y22.178 E0.87798
G1 X39.263 Y22.828 E0.02407
G1 X23.127 Y38.964 E0.84395
G1 X23.778 Y38.964 E0.02407
G1 X39.263 Y23.479 E0.80992
G1 X39.263 Y24.130 E0.02407
G1 X24.429 Y38.964 E0.77588
G1 X25.079 Y38.964 E0.02407
G1 X39.263 Y24.781 E0.74185
G1 X39.263 Y25.431 E0.02407
G1 X25.730 Y38.964 E0.70782
G1 X26.381 Y38.964 E0.02407
G1 X39.263 Y26.082 E0.67378
G1 X39.263 Y26.733 E0.02407
G1 X27.031 Y38.964 E0.63975
G1 X27.682 Y38.964 E0.02407
G1 X39.263 Y27.383 E0.60572
G1 X39.263 Y28.034 E0.02407
G1 X28.333 Y38.964 E0.57168
G1 X28.984 Y38.964 E0.02407
G1 X39.263 Y28.685 E0.53765
G1 X39.263 Y29.335 E0.02407
G1 X29.634 Y38.964 E0.50362
G1 X30.285 Y38.964 E0.02407
G1 X39.263 Y29.986 E0.46958
G1 X39.263 Y30.637 E0.02407
G1 X30.936 Y38.964 E0.43555
G1 X31.586 Y38.964 E0.02407
G1 X39.263 Y31.288 E0.40152
G1 X39.263 Y31.938 E0.02407
G1 X32.237 Y38.964 E0.36748
G1 X32.888 Y38.964 E0.02407
G1 X39.263 Y32.589 E0.33345
G1 X39.263 Y33.240 E0.02407
G1 X33.538 Y38.964 E0.29941
G1 X34.189 Y38.964 E0.02407
G1 X39.263 Y33.890 E0.26538
G1 X39.263 Y34.541 E0.02407
G1 X34.840 Y38.964 E0.23135
G1 X35.490 Y38.964 E0.02407
G1 X39.263 Y35.192 E0.19731
G1 X39.263 Y35.842 E0.02407
G1 X36.141 Y38.964 E0.16328
G1 X36.792 Y38.964 E0.02407
G1 X39.263 Y36.493 E0.12925
G1 X39.263 Y37.144 E0.02407
G1 X37.443 Y38.964 E0.09521
G1 X38.093 Y38.964 E0.02407
G1 X39.263 Y37.794 E0.06118
G1 X39.263 Y38.445 E0.02407
G1 X38.538 Y39.170 E0.03791
M204 S1000
; Layer 2
G1 F5760
G1 X39.263 Y38.445 E-0.35498
G1 F5760
G1 X39.263 Y37.794 E-0.22537
G1 F5760
G1 X38.896 Y38.161 E-0.17965
G1 E-0.04000 F2100.00000
G1 Z0.600 F7200.000
G1 X42.876 Y40.964 F7200.000
G1 E0.80000 F2100.00000
G1 F3000
G1 X42.366 Y41.801 E0.03356
G1 X41.925 Y42.208 E0.02054
G1 X41.409 Y42.514 E0.02054
G1 X40.845 Y42.705 E0.02040
G1 X40.249 Y42.774 E0.02054
G1 X20.127 Y42.773 E0.68891
G1 X19.172 Y42.575 E0.03342
G1 X18.338 Y42.067 E0.03342
G1 X17.931 Y41.627 E0.02054
G1 X17.625 Y41.111 E0.02054
G1 X17.434 Y40.546 E0.02040
G1 X17.365 Y39.950 E0.02054
G1 X17.366 Y19.829 E0.68891
G1 X17.564 Y18.873 E0.03342
G1 X18.072 Y18.039 E0.03342
G1 X18.493 Y17.647 E0.01969
G1 X18.984 Y17.347 E0.01969
G1 X19.524 Y17.152 E0.01969
G1 X20.093 Y17.069 E0.01969
G1 X40.223 Y17.066 E0.68920
G1 X41.255 Y17.261 E0.03595
G1 X42.150 Y17.818 E0.03609
G1 X42.781 Y18.662 E0.03609
G1 X43.063 Y19.674 E0.03595
G1 X43.072 Y40.008 E0.69619
G1 X42.888 Y40.905 E0.03136
G1 F5760
G1 X42.366 Y41.801 E-0.35910
G1 F5760
G1 X41.925 Y42.208 E-0.20778
G1 F5760
G1 X41.446 Y42.493 E-0.19312
G1 E-0.04000 F2100.00000
G1 X39.587 Y39.288 F7200.000
G1 E0.80000 F2100.00000
M204 S800
G1 F2400
G1 X20.851 Y39.288 E0.61031
G1 X20.851 Y20.552 E0.61031
G1 X39.587 Y20.552 E0.61031
G1 X39.587 Y39.228 E0.60835
M204 S1000
G1 X39.994 Y39.695 F7200.000
M204 S800
G1 F1800
G1 X20.444 Y39.695 E0.63683
G1 X20.444 Y20.145 E0.63683
G1 X39.994 Y20.145 E0.63683
G1 X39.994 Y39.635 E0.63487
M204 S1000
G1 X39.608 Y39.592 F7200.000
G1 F5760
G1 X37.800 Y39.642 E-0.76000
G1 E-0.04000 F2100.00000
G1 X39.469 Y21.601 F7200.000
G1 E0.80000 F2100.00000
M204 S2000
G1 F2400
G1 X38.744 Y20.876 E0.03791
G1 X38.093 Y20.876 E0.02407
G1 X39.263 Y22.046 E0.06118
G1 X39.263 Y22.697 E0.02407
G1 X37.443 Y20.876 E0.09521
G1 X36.792 Y20.876 E0.02407
G1 X39.263 Y23.348 E0.12925
G1 X39.263 Y23.998 E0.02407
G1 X36.141 Y20.876 E0.16328
G1 X35.490 Y20.876 E0.02407
G1 X39.263 Y24.649 E0.19731
G1 X39.263 Y25.300 E0.02407
G1 X34.840 Y20.876 E0.23135
G1 X34.189 Y20.876 E0.02407
G1 X39.263 Y25.950 E0.26538
G1 X39.263 Y26.601 E0.02407
G1 X33.538 Y20.876 E0.29941
G1 X32.888 Y20.876 E0.02407
G1 X39.263 Y27.252 E0.33345
G1 X39.263 Y27.902 E0.02407
G1 X32.237 Y20.876 E0.36748
G1 X31.586 Y20.876 E0.02407
G1 X39.263 Y28.553 E0.40151
G1 X39.263 Y29.204 E0.02407
G1 X30.936 Y20.876 E0.43555
G1 X30.285 Y20.876 E0.02407
G1 X39.263 Y29.855 E0.46958
G1 X39.263 Y30.505 E0.02407
G1 X29.634 Y20.876 E0.50362
G1 X28.984 Y20.876 E0.02407
G1 X39.263 Y31.156 E0.53765
G1 X39.263 Y31.807 E0.02407
G1 X28.333 Y20.876 E0.57168
G1 X27.682 Y20.876 E0.02407
G1 X39.263 Y32.457 E0.60572
G1 X39.263 Y33.108 E0.02407
G1 X27.031 Y20.876 E0.63975
G1 X26.381 Y20.876 E0.02407
G1 X39.263 Y33.759 E0.67378
G1 X39.263 Y34.409 E0.02407
G1 X25.730 Y20.876 E0.70782
G1 X25.079 Y20.876 E0.02407
G1 X39.263 Y35.060 E0.74185
G1 X39.263 Y35.711 E0.02407
G1 X24.429 Y20.876 E0.77588
G1 X23.778 Y20.876 E0.02407
G1 X39.263 Y36.361 E0.80992
G1 X39.263 Y37.012 E0.02407
G1 X23.127 Y20.876 E0.84395
G1 X22.477 Y20.876 E0.02407
G1 X39.263 Y37.663 E0.87798
G1 X39.263 Y38.314 E0.02407
G1 X21.826 Y20.876 E0.91202
G1 X21.175 Y20.876 E0.02406
G1 X39.263 Y38.964 E0.94605
G1 X38.612 Y38.964 E0.02407
G1 X21.175 Y21.527 E0.91201
G1 X21.175 Y22.178 E0.02407
G1 X37.962 Y38.964 E0.87798
G1 X37.311 Y38.964 E0.02407
G1 X21.175 Y22.829 E0.84394
G1 X21.175 Y23.479 E0.02407
G1 X36.660 Y38.964 E0.80991
G1 X36.009 Y38.964 E0.02407
G1 X21.175 Y24.130 E0.77588
G1 X21.175 Y24.781 E0.02407
G1 X35.359 Y38.964 E0.74184
G1 X34.708 Y38.964 E0.02407
G1 X21.175 Y25.431 E0.70781
G1 X21.175 Y26.082 E0.02407
G1 X34.057 Y38.964 E0.67378
G1 X33.407 Y38.964 E0.02407
G1 X21.175 Y26.733 E0.63974
G1 X21.175 Y27.383 E0.02407
G1 X32.756 Y38.964 E0.60571
G1 X32.105 Y38.964 E0.02407
G1 X21.175 Y28.034 E0.57168
G1 X21.175 Y28.685 E0.02407
G1 X31.455 Y38.964 E0.53764
G1 X30.804 Y38.964 E0.02407
G1 X21.175 Y29.336 E0.50361
G1 X21.175 Y29.986 E0.02407
G1 X30.153 Y38.964 E0.46958
G1 X29.503 Y38.964 E0.02407
G1 X21.175 Y30.637 E0.43554
G1 X21.175 Y31.288 E0.02407
G1 X28.852 Y38.964 E0.40151
G1 X28.201 Y38.964 E0.02407
G1 X21.175 Y31.938 E0.36748
G1 X21.175 Y32.589 E0.02407
G1 X27.550 Y38.964 E0.33344
G1 X26.900 Y38.964 E0.02407
G1 X21.175 Y33.240 E0.29941
G1 X21.175 Y33.890 E0.02407
G1 X26.249 Y38.964 E0.26538
G1 X25.598 Y38.964 E0.02407
G1 X21.175 Y34.541 E0.23134
G1 X21.175 Y35.192 E0.02407
G1 X24.948 Y38.964 E0.19731
G1 X24.297 Y38.964 E0.02407
G1 X21.175 Y35.843 E0.16327
G1 X21.175 Y36.493 E0.02407
G1 X23.646 Y38.964 E0.12924
G1 X22.996 Y38.964 E0.02407
G1 X21.175 Y37.144 E0.09521
G1 X21.175 Y37.795 E0.02407
G1 X22.345 Y38.964 E0.06117
G1 X21.694 Y38.964 E0.02407
G1 X20.970 Y38.240 E0.03790
M204 S1000
; Layer 3
G1 F5760
G1 X21.694 Y38.964 E-0.35492
G1 F5760
G1 X22.345 Y38.964 E-0.22537
G1 F5760
G1 X21.978 Y38.597 E-0.17970
G1 E-0.04000 F2100.00000
G1 Z0.800 F7200.000
