; generated by Slic3r 1.37.2-prusa3d-win64 on 2018-03-22 at 22:06:31

; 

; external perimeters extrusion width = 0.50mm
; perimeters extrusion width = 0.50mm
; infill extrusion width = 0.60mm
; solid infill extrusion width = 0.50mm
; top infill extrusion width = 0.45mm

M107
M115 U3.1.0 ; tell printer latest fw version
M83  ; extruder relative mode
M104 S150
M140 S110 ; set bed temp
G28 W ; home all without mesh bed level
G1 X125 Z80 F1000
M190 S110 ; wait for bed temp
M104 S295 ; set extruder temp
G80 ; mesh bed leveling
M109 S295 ; wait for extruder temp
G1 Y-3.0 F1000.0 ; go outside print area
G92 E0.0
G1 X60.0 E9.0  F1000.0 ; intro line
G1 X100.0 E12.5  F1000.0 ; intro line
G92 E0.0
M900 K30 ; Filament gcode
G21 ; set units to millimeters
G90 ; use absolute coordinates
M83 ; use relative distances for extrusion
;BEFORE_LAYER_CHANGE
;0.2


G1 E-0.80000 F2100.00000
G1 Z0.200 F7200.000
;AFTER_LAYER_CHANGE
;0.2
G1 X79.260 Y91.137 F7200.000
G1 E0.80000 F2100.00000
M204 S1000
G1 F1800
G1 X80.833 Y89.848 E0.06885
G1 X82.427 Y88.818 E0.06422
G1 X84.515 Y87.791 E0.07877
G1 X86.304 Y87.158 E0.06422
G1 X88.277 Y86.700 E0.06857
G1 X90.285 Y86.469 E0.06843
G1 X92.174 Y86.464 E0.06394
G1 X94.494 Y86.729 E0.07905
G1 X96.341 Y87.164 E0.06422
G1 X98.249 Y87.845 E0.06857
G1 X100.063 Y88.736 E0.06843
G1 X101.662 Y89.758 E0.06422
G1 X103.474 Y91.241 E0.07927
G1 X104.783 Y92.595 E0.06372
G1 X106.019 Y94.199 E0.06857
G1 X107.066 Y95.934 E0.06857
G1 X107.862 Y97.665 E0.06450
G1 X108.536 Y99.702 E0.07262
G1 X108.919 Y101.560 E0.06422
G1 X109.121 Y103.899 E0.07947
G1 X109.062 Y105.787 E0.06394
G1 X108.773 Y107.792 E0.06857
G1 X108.258 Y109.751 E0.06857
G1 X107.576 Y111.517 E0.06408
G1 X106.490 Y113.576 E0.07877
G1 X105.415 Y115.139 E0.06422
G1 X104.076 Y116.681 E0.06913
G1 X102.590 Y118.045 E0.06829
G1 X100.954 Y119.233 E0.06843
G1 X99.184 Y120.235 E0.06885
G1 X97.442 Y120.977 E0.06408
G1 X95.197 Y121.635 E0.07919
G1 X93.327 Y121.953 E0.06422
G1 X91.238 Y122.067 E0.07081
G1 X89.278 Y121.951 E0.06646
G1 X87.286 Y121.606 E0.06843
G1 X85.338 Y121.035 E0.06871
G1 X83.596 Y120.305 E0.06394
G1 X81.562 Y119.158 E0.07905
G1 X80.030 Y118.038 E0.06422
G1 X78.535 Y116.665 E0.06871
G1 X77.214 Y115.141 E0.06829
G1 X76.138 Y113.578 E0.06422
G1 X75.047 Y111.506 E0.07927
G1 X74.369 Y109.750 E0.06372
G1 X73.852 Y107.782 E0.06885
G1 X73.565 Y105.777 E0.06857
G1 X73.507 Y103.752 E0.06857
G1 X73.679 Y101.730 E0.06871
G1 X74.051 Y99.869 E0.06422
G1 X74.775 Y97.644 E0.07919
G1 X75.562 Y95.932 E0.06380
G1 X76.614 Y94.191 E0.06885
G1 X77.851 Y92.587 E0.06857
G1 X79.218 Y91.180 E0.06640
G1 X79.509 Y91.463 F7200.000
G1 F1800
G1 X81.076 Y90.175 E0.06865
G1 X82.643 Y89.163 E0.06312
G1 X84.656 Y88.173 E0.07594
G1 X86.417 Y87.549 E0.06325
G1 X88.346 Y87.101 E0.06702
G1 X90.313 Y86.875 E0.06701
G1 X92.174 Y86.871 E0.06300
G1 X94.406 Y87.126 E0.07607
G1 X96.226 Y87.554 E0.06325
G1 X98.090 Y88.220 E0.06702
G1 X99.867 Y89.093 E0.06702
G1 X101.441 Y90.099 E0.06326
G1 X103.182 Y91.525 E0.07616
G1 X104.474 Y92.860 E0.06290
G1 X105.683 Y94.429 E0.06701
G1 X106.706 Y96.124 E0.06702
G1 X107.489 Y97.829 E0.06351
G1 X108.144 Y99.810 E0.07064
G1 X108.520 Y101.641 E0.06325
G1 X108.714 Y103.887 E0.07632
G1 X108.656 Y105.751 E0.06313
G1 X108.374 Y107.711 E0.06701
G1 X107.871 Y109.626 E0.06702
G1 X107.198 Y111.365 E0.06312
G1 X106.152 Y113.349 E0.07594
G1 X105.093 Y114.890 E0.06326
G1 X103.788 Y116.394 E0.06740
G1 X102.332 Y117.729 E0.06689
G1 X100.731 Y118.893 E0.06702
G1 X99.000 Y119.871 E0.06727
G1 X97.288 Y120.600 E0.06300
G1 X95.128 Y121.234 E0.07619
G1 X93.286 Y121.548 E0.06325
G1 X91.252 Y121.660 E0.06896
G1 X89.325 Y121.547 E0.06533
G1 X87.374 Y121.209 E0.06702
G1 X85.471 Y120.651 E0.06715
G1 X83.755 Y119.930 E0.06300
G1 X81.798 Y118.826 E0.07606
G1 X80.288 Y117.724 E0.06325
G1 X78.827 Y116.382 E0.06715
G1 X77.529 Y114.883 E0.06714
G1 X76.411 Y113.249 E0.06702
G1 X75.483 Y111.491 E0.06727
G1 X74.805 Y109.762 E0.06287
G1 X74.231 Y107.585 E0.07619
G1 X73.970 Y105.735 E0.06325
G1 X73.914 Y103.760 E0.06689
G1 X74.083 Y101.783 E0.06714
G1 X74.450 Y99.951 E0.06325
G1 X75.145 Y97.814 E0.07606
G1 X75.922 Y96.123 E0.06300
G1 X76.949 Y94.421 E0.06727
G1 X78.159 Y92.854 E0.06702
G1 X79.468 Y91.506 E0.06360
G1 F5760
G1 X81.076 Y90.175 E-0.72316
G1 F5760
G1 X81.166 Y90.117 E-0.03684
G1 E-0.04000 F2100.00000
G1 X83.152 Y95.230 F7200.000
G1 E0.80000 F2100.00000
G1 F1800
G1 X84.428 Y94.223 E0.06177
G1 X85.815 Y93.401 E0.06128
G1 X87.322 Y92.760 E0.06223
G1 X88.890 Y92.330 E0.06180
G1 X90.501 Y92.114 E0.06177
G1 X92.126 Y92.114 E0.06177
G1 X93.737 Y92.330 E0.06177
G1 X95.305 Y92.760 E0.06177
G1 X96.801 Y93.394 E0.06177
G1 X98.199 Y94.223 E0.06177
G1 X99.475 Y95.230 E0.06177
G1 X100.605 Y96.398 E0.06177
G1 X101.569 Y97.707 E0.06177
G1 X102.350 Y99.132 E0.06177
G1 X102.934 Y100.649 E0.06177
G1 X103.311 Y102.230 E0.06177
G1 X103.474 Y103.847 E0.06177
G1 X103.419 Y105.471 E0.06177
G1 X103.149 Y107.074 E0.06177
G1 X102.667 Y108.626 E0.06177
G1 X101.983 Y110.101 E0.06177
G1 X101.109 Y111.471 E0.06177
G1 X100.059 Y112.712 E0.06177
G1 X98.854 Y113.802 E0.06177
G1 X97.514 Y114.722 E0.06177
G1 X96.063 Y115.455 E0.06177
G1 X94.528 Y115.988 E0.06177
G1 X92.935 Y116.312 E0.06177
G1 X91.314 Y116.420 E0.06177
G1 X89.692 Y116.312 E0.06177
G1 X88.099 Y115.988 E0.06177
G1 X86.564 Y115.455 E0.06177
G1 X85.113 Y114.722 E0.06177
G1 X83.773 Y113.802 E0.06177
G1 X82.568 Y112.712 E0.06177
G1 X81.519 Y111.471 E0.06177
G1 X80.651 Y110.111 E0.06128
G1 X79.960 Y108.627 E0.06223
G1 X79.478 Y107.074 E0.06180
G1 X79.208 Y105.471 E0.06177
G1 X79.154 Y103.847 E0.06177
G1 X79.316 Y102.230 E0.06177
G1 X79.693 Y100.649 E0.06177
G1 X80.277 Y99.132 E0.06177
G1 X81.058 Y97.707 E0.06177
G1 X82.022 Y96.398 E0.06177
G1 X83.111 Y95.273 E0.05949
G1 X83.439 Y95.591 F7200.000
G1 F1800
G1 X84.687 Y94.600 E0.06055
G1 X86.022 Y93.810 E0.05897
G1 X87.473 Y93.193 E0.05991
G1 X88.981 Y92.779 E0.05946
G1 X90.532 Y92.571 E0.05945
G1 X92.096 Y92.571 E0.05945
G1 X93.646 Y92.779 E0.05945
G1 X95.154 Y93.193 E0.05945
G1 X96.594 Y93.803 E0.05945
G1 X97.940 Y94.600 E0.05945
G1 X99.168 Y95.570 E0.05945
G1 X100.255 Y96.694 E0.05945
G1 X101.183 Y97.953 E0.05945
G1 X101.934 Y99.325 E0.05945
G1 X102.497 Y100.784 E0.05945
G1 X102.859 Y102.306 E0.05945
G1 X103.016 Y103.862 E0.05945
G1 X102.963 Y105.425 E0.05945
G1 X102.703 Y106.968 E0.05945
G1 X102.240 Y108.462 E0.05945
G1 X101.582 Y109.880 E0.05945
G1 X100.740 Y111.199 E0.05945
G1 X99.730 Y112.393 E0.05945
G1 X98.570 Y113.442 E0.05945
G1 X97.281 Y114.328 E0.05945
G1 X95.885 Y115.033 E0.05945
G1 X94.407 Y115.546 E0.05945
G1 X92.874 Y115.858 E0.05945
G1 X91.314 Y115.962 E0.05945
G1 X89.753 Y115.858 E0.05945
G1 X88.220 Y115.546 E0.05945
G1 X86.743 Y115.033 E0.05945
G1 X85.347 Y114.328 E0.05945
G1 X84.057 Y113.442 E0.05945
G1 X82.897 Y112.393 E0.05945
G1 X81.887 Y111.199 E0.05945
G1 X81.053 Y109.891 E0.05897
G1 X80.387 Y108.462 E0.05991
G1 X79.924 Y106.968 E0.05946
G1 X79.664 Y105.425 E0.05945
G1 X79.611 Y103.862 E0.05945
G1 X79.768 Y102.306 E0.05945
G1 X80.131 Y100.784 E0.05945
G1 X80.693 Y99.325 E0.05945
G1 X81.444 Y97.953 E0.05945
G1 X82.372 Y96.694 E0.05945
G1 X83.397 Y95.634 E0.05605
G1 X83.726 Y95.952 F7200.000
G1 F1800
G1 X84.946 Y94.978 E0.05934
G1 X86.229 Y94.218 E0.05665
G1 X87.623 Y93.625 E0.05758
G1 X89.073 Y93.228 E0.05713
G1 X90.562 Y93.028 E0.05712
G1 X92.065 Y93.028 E0.05712
G1 X93.555 Y93.228 E0.05712
G1 X95.004 Y93.625 E0.05712
G1 X96.388 Y94.212 E0.05712
G1 X97.681 Y94.978 E0.05712
G1 X98.860 Y95.909 E0.05712
G1 X99.905 Y96.990 E0.05712
G1 X100.797 Y98.200 E0.05712
G1 X101.519 Y99.518 E0.05712
G1 X102.059 Y100.920 E0.05712
G1 X102.407 Y102.382 E0.05712
G1 X102.558 Y103.878 E0.05712
G1 X102.508 Y105.380 E0.05712
G1 X102.258 Y106.862 E0.05712
G1 X101.812 Y108.297 E0.05712
G1 X101.180 Y109.660 E0.05712
G1 X100.371 Y110.927 E0.05712
G1 X99.401 Y112.075 E0.05712
G1 X98.286 Y113.083 E0.05712
G1 X97.047 Y113.933 E0.05712
G1 X95.706 Y114.611 E0.05712
G1 X94.286 Y115.104 E0.05712
G1 X92.813 Y115.404 E0.05712
G1 X91.314 Y115.504 E0.05712
G1 X89.814 Y115.404 E0.05712
G1 X88.341 Y115.104 E0.05712
G1 X86.922 Y114.611 E0.05712
G1 X85.580 Y113.933 E0.05712
G1 X84.341 Y113.083 E0.05712
G1 X83.226 Y112.075 E0.05712
G1 X82.256 Y110.927 E0.05712
G1 X81.454 Y109.671 E0.05665
G1 X80.815 Y108.297 E0.05758
G1 X80.370 Y106.862 E0.05713
G1 X80.120 Y105.380 E0.05712
G1 X80.069 Y103.878 E0.05712
G1 X80.220 Y102.382 E0.05712
G1 X80.568 Y100.920 E0.05712
G1 X81.108 Y99.518 E0.05712
G1 X81.831 Y98.200 E0.05712
G1 X82.722 Y96.990 E0.05712
G1 X83.684 Y95.995 E0.05260
G1 X83.641 Y95.561 F7200.000
G1 F5760
G1 X84.946 Y94.978 E-0.56135
G1 F5760
G1 X85.440 Y94.686 E-0.19865
G1 E-0.04000 F2100.00000
G1 X81.831 Y94.194 F7200.000
G1 E0.80000 F2100.00000
G1 F1800
G1 X81.959 Y94.061 E0.00701
G1 X83.182 Y93.062 E0.06003
G1 X84.511 Y92.208 E0.06003
G1 X85.928 Y91.511 E0.06003
G1 X87.416 Y90.980 E0.06003
G1 X88.955 Y90.622 E0.06003
G1 X90.524 Y90.442 E0.06003
G1 X92.103 Y90.442 E0.06003
G1 X93.591 Y90.613 E0.05690
G1 X95.214 Y90.981 E0.06327
G1 X96.699 Y91.511 E0.05991
G1 X98.116 Y92.208 E0.06003
G1 X99.445 Y93.062 E0.06003
G1 X100.604 Y94.009 E0.05690
G1 X101.771 Y95.197 E0.06327
G1 X102.733 Y96.445 E0.05991
G1 X103.549 Y97.798 E0.06003
G1 X104.205 Y99.234 E0.06003
G1 X104.693 Y100.737 E0.06003
G1 X105.007 Y102.285 E0.06003
G1 X105.142 Y103.858 E0.06003
G1 X105.097 Y105.437 E0.06003
G1 X104.872 Y107.001 E0.06003
G1 X104.470 Y108.528 E0.06003
G1 X103.897 Y110.000 E0.06003
G1 X103.199 Y111.324 E0.05690
G1 X102.267 Y112.704 E0.06327
G1 X101.234 Y113.895 E0.05991
G1 X100.071 Y114.963 E0.06003
G1 X98.793 Y115.891 E0.06003
G1 X97.417 Y116.668 E0.06003
G1 X95.962 Y117.283 E0.06003
G1 X94.447 Y117.728 E0.06003
G1 X92.891 Y117.997 E0.06003
G1 X91.314 Y118.087 E0.06003
G1 X89.737 Y117.997 E0.06003
G1 X88.180 Y117.728 E0.06003
G1 X86.665 Y117.283 E0.06003
G1 X85.210 Y116.668 E0.06003
G1 X83.834 Y115.891 E0.06003
G1 X82.557 Y114.963 E0.06003
G1 X81.454 Y113.951 E0.05690
G1 X80.357 Y112.699 E0.06327
G1 X79.467 Y111.397 E0.05991
G1 X78.730 Y110.000 E0.06003
G1 X78.157 Y108.528 E0.06003
G1 X77.755 Y107.001 E0.06003
G1 X77.530 Y105.437 E0.06003
G1 X77.485 Y103.858 E0.06003
G1 X77.620 Y102.285 E0.06003
G1 X77.934 Y100.737 E0.06003
G1 X78.422 Y99.234 E0.06003
G1 X79.078 Y97.798 E0.06003
G1 X79.894 Y96.445 E0.06003
G1 X80.859 Y95.194 E0.06003
G1 X81.789 Y94.237 E0.05074
G1 X81.650 Y93.724 F7200.000
G1 F1800
G1 X82.913 Y92.691 E0.06202
G1 X84.286 Y91.809 E0.06202
G1 X85.750 Y91.089 E0.06202
G1 X87.287 Y90.541 E0.06202
G1 X88.877 Y90.171 E0.06202
G1 X90.498 Y89.985 E0.06202
G1 X92.130 Y89.985 E0.06202
G1 X93.668 Y90.161 E0.05884
G1 X95.342 Y90.541 E0.06525
G1 X96.877 Y91.089 E0.06195
G1 X98.341 Y91.809 E0.06202
G1 X99.714 Y92.691 E0.06202
G1 X100.913 Y93.671 E0.05884
G1 X102.116 Y94.896 E0.06525
G1 X103.111 Y96.187 E0.06195
G1 X103.954 Y97.584 E0.06202
G1 X104.632 Y99.068 E0.06202
G1 X105.136 Y100.620 E0.06202
G1 X105.460 Y102.220 E0.06202
G1 X105.600 Y103.845 E0.06202
G1 X105.553 Y105.476 E0.06202
G1 X105.321 Y107.092 E0.06202
G1 X104.906 Y108.670 E0.06202
G1 X104.314 Y110.190 E0.06202
G1 X103.591 Y111.560 E0.05884
G1 X102.630 Y112.982 E0.06525
G1 X101.563 Y114.214 E0.06195
G1 X100.360 Y115.317 E0.06202
G1 X99.040 Y116.276 E0.06202
G1 X97.619 Y117.079 E0.06202
G1 X96.116 Y117.714 E0.06202
G1 X94.551 Y118.174 E0.06202
G1 X92.943 Y118.452 E0.06202
G1 X91.314 Y118.545 E0.06202
G1 X89.684 Y118.452 E0.06202
G1 X88.077 Y118.174 E0.06202
G1 X86.511 Y117.714 E0.06202
G1 X85.008 Y117.079 E0.06202
G1 X83.587 Y116.276 E0.06202
G1 X82.267 Y115.317 E0.06202
G1 X81.126 Y114.271 E0.05884
G1 X79.995 Y112.979 E0.06525
G1 X79.075 Y111.634 E0.06195
G1 X78.313 Y110.190 E0.06202
G1 X77.721 Y108.670 E0.06202
G1 X77.307 Y107.092 E0.06202
G1 X77.074 Y105.476 E0.06202
G1 X77.028 Y103.845 E0.06202
G1 X77.167 Y102.220 E0.06202
G1 X77.491 Y100.620 E0.06202
G1 X77.996 Y99.068 E0.06202
G1 X78.674 Y97.584 E0.06202
G1 X79.516 Y96.187 E0.06202
G1 X80.513 Y94.894 E0.06202
G1 X81.608 Y93.767 E0.05974
G1 X81.280 Y93.449 F7200.000
G1 F1800
G1 X82.644 Y92.321 E0.06726
G1 X84.061 Y91.410 E0.06401
G1 X85.572 Y90.667 E0.06401
G1 X87.158 Y90.101 E0.06401
G1 X88.798 Y89.720 E0.06401
G1 X90.472 Y89.528 E0.06401
G1 X92.156 Y89.528 E0.06401
G1 X93.744 Y89.710 E0.06078
G1 X95.470 Y90.102 E0.06724
G1 X97.055 Y90.667 E0.06398
G1 X98.566 Y91.410 E0.06401
G1 X99.983 Y92.321 E0.06401
G1 X101.221 Y93.333 E0.06078
G1 X102.461 Y94.595 E0.06724
G1 X103.489 Y95.928 E0.06398
G1 X104.359 Y97.370 E0.06401
G1 X105.058 Y98.902 E0.06401
G1 X105.579 Y100.504 E0.06401
G1 X105.913 Y102.154 E0.06401
G1 X106.057 Y103.832 E0.06401
G1 X106.009 Y105.516 E0.06401
G1 X105.769 Y107.183 E0.06401
G1 X105.341 Y108.811 E0.06401
G1 X104.730 Y110.381 E0.06401
G1 X103.984 Y111.795 E0.06078
G1 X102.993 Y113.261 E0.06724
G1 X101.891 Y114.533 E0.06398
G1 X100.650 Y115.672 E0.06401
G1 X99.288 Y116.662 E0.06401
G1 X97.821 Y117.490 E0.06401
G1 X96.270 Y118.145 E0.06401
G1 X94.654 Y118.620 E0.06401
G1 X92.995 Y118.907 E0.06401
G1 X91.314 Y119.003 E0.06401
G1 X89.632 Y118.907 E0.06401
G1 X87.973 Y118.620 E0.06401
G1 X86.357 Y118.145 E0.06401
G1 X84.806 Y117.490 E0.06401
G1 X83.339 Y116.662 E0.06401
G1 X81.977 Y115.672 E0.06401
G1 X80.799 Y114.590 E0.06078
G1 X79.633 Y113.260 E0.06724
G1 X78.683 Y111.870 E0.06398
G1 X77.897 Y110.381 E0.06401
G1 X77.286 Y108.811 E0.06401
G1 X76.858 Y107.183 E0.06401
G1 X76.618 Y105.516 E0.06401
G1 X76.570 Y103.832 E0.06401
G1 X76.714 Y102.154 E0.06401
G1 X77.049 Y100.504 E0.06401
G1 X77.569 Y98.902 E0.06401
G1 X78.269 Y97.370 E0.06401
G1 X79.138 Y95.928 E0.06401
G1 X80.167 Y94.595 E0.06401
G1 X81.238 Y93.492 E0.05845
G1 X81.662 Y93.567 F7200.000
G1 F5760
G1 X82.644 Y92.321 E-0.63360
G1 F5760
G1 X82.951 Y92.123 E-0.12640
G1 E-0.04000 F2100.00000
G1 X96.663 Y93.187 F7200.000
G1 E0.80000 F2100.00000
G1 F1800
G1 X94.690 Y91.213 E0.10783
G1 X93.840 Y91.021 E0.03367
G1 X95.193 Y92.374 E0.07393
G1 X94.288 Y92.126 E0.03625
G1 X93.059 Y90.897 E0.06716
G1 X92.316 Y90.812 E0.02886
G1 X93.451 Y91.946 E0.06199
G1 X92.692 Y91.844 E0.02959
G1 X91.633 Y90.785 E0.05787
G1 X90.976 Y90.785 E0.02539
G1 X91.962 Y91.771 E0.05388
G1 X91.305 Y91.771 E0.02539
G1 X90.342 Y90.808 E0.05262
G1 X89.752 Y90.876 E0.02292
G1 X90.648 Y91.771 E0.04892
G1 X90.478 Y91.771 E0.00655
G1 X90.048 Y91.829 E0.01675
G1 X89.163 Y90.943 E0.04839
G1 X89.013 Y90.960 E0.00581
G1 X88.615 Y91.053 E0.01578
G1 X89.469 Y91.907 E0.04665
G1 X88.890 Y91.985 E0.02258
G1 X88.082 Y91.177 E0.04413
G1 X87.549 Y91.301 E0.02115
G1 X88.367 Y92.118 E0.04467
G1 X87.851 Y92.260 E0.02066
G1 X87.061 Y91.470 E0.04313
G1 X86.577 Y91.643 E0.01987
G1 X87.335 Y92.401 E0.04141
G1 X87.209 Y92.436 E0.00504
G1 X86.861 Y92.584 E0.01463
G1 X86.093 Y91.816 E0.04195
G1 X86.062 Y91.827 E0.00126
G1 X85.650 Y92.030 E0.01776
G1 X86.400 Y92.780 E0.04098
G1 X85.939 Y92.976 E0.01935
G1 X85.209 Y92.246 E0.03986
G1 X84.769 Y92.463 E0.01896
G1 X85.497 Y93.191 E0.03979
G1 X85.084 Y93.436 E0.01853
G1 X84.360 Y92.712 E0.03954
G1 X83.960 Y92.969 E0.01837
G1 X84.671 Y93.680 E0.03885
G1 X84.259 Y93.924 E0.01853
G1 X83.560 Y93.226 E0.03816
G1 X83.384 Y93.339 E0.00810
G1 X83.182 Y93.505 E0.01009
G1 X83.889 Y94.212 E0.03862
G1 X83.522 Y94.502 E0.01807
G1 X82.820 Y93.800 E0.03832
G1 X82.459 Y94.096 E0.01804
G1 X83.155 Y94.791 E0.03801
G1 X82.922 Y94.975 E0.01145
G1 X82.804 Y95.098 E0.00658
G1 X82.107 Y94.401 E0.03804
G1 X81.783 Y94.734 E0.01795
G1 X82.480 Y95.432 E0.03809
G1 X82.157 Y95.766 E0.01795
G1 X81.459 Y95.068 E0.03813
G1 X81.136 Y95.401 E0.01795
G1 X81.834 Y96.100 E0.03818
G1 X81.545 Y96.468 E0.01808
G1 X80.848 Y95.770 E0.03813
G1 X80.561 Y96.141 E0.01810
G1 X81.267 Y96.846 E0.03853
G1 X80.988 Y97.224 E0.01816
G1 X80.275 Y96.512 E0.03893
G1 X80.015 Y96.909 E0.01833
G1 X80.719 Y97.613 E0.03847
G1 X80.486 Y98.037 E0.01870
G1 X79.768 Y97.318 E0.03927
G1 X79.520 Y97.728 E0.01849
G1 X80.254 Y98.462 E0.04006
G1 X80.021 Y98.886 E0.01870
G1 X79.291 Y98.156 E0.03987
G1 X79.085 Y98.607 E0.01916
G1 X79.827 Y99.349 E0.04049
G1 X79.644 Y99.823 E0.01964
G1 X78.879 Y99.059 E0.04177
