; generated by Slic3r 1.37.2-prusa3d-win64 on 2018-03-22 at 22:11:10

; 

; external perimeters extrusion width = 0.50mm
; perimeters extrusion width = 0.50mm
; infill extrusion width = 0.60mm
; solid infill extrusion width = 0.50mm
; top infill extrusion width = 0.45mm

M107
M115 U3.1.0 ; tell printer latest fw version
M83  ; extruder relative mode
M104 S150
M140 S110 ; set bed temp
G28 W ; home all without mesh bed level
G1 X125 Z80 F1000
M190 S110 ; wait for bed temp
M104 S295 ; set extruder temp
G80 ; mesh bed leveling
M109 S295 ; wait for extruder temp
G1 Y-3.0 F1000.0 ; go outside print area
G92 E0.0
G1 X60.0 E9.0  F1000.0 ; intro line
G1 X100.0 E12.5  F1000.0 ; intro line
G92 E0.0
M900 K30 ; Filament gcode
G21 ; set units to millimeters
G90 ; use absolute coordinates
M83 ; use relative distances for extrusion
;BEFORE_LAYER_CHANGE
;0.2


G1 E-0.80000 F2100.00000
G1 Z0.200 F7200.000
;AFTER_LAYER_CHANGE
;0.2
G1 X75.528 Y61.062 F7200.000
G1 E0.80000 F2100.00000
M204 S1000
G1 F1800
G1 X76.936 Y59.612 E0.06843
G1 X78.510 Y58.323 E0.06885
G1 X80.103 Y57.293 E0.06422
G1 X82.192 Y56.266 E0.07877
G1 X83.980 Y55.633 E0.06422
G1 X85.953 Y55.175 E0.06857
G1 X87.962 Y54.944 E0.06843
G1 X89.851 Y54.938 E0.06394
G1 X92.171 Y55.204 E0.07905
G1 X94.018 Y55.638 E0.06422
G1 X95.926 Y56.319 E0.06857
G1 X97.740 Y57.211 E0.06843
G1 X99.339 Y58.232 E0.06422
G1 X101.151 Y59.716 E0.07927
G1 X102.459 Y61.069 E0.06372
G1 X103.696 Y62.674 E0.06857
G1 X104.742 Y64.408 E0.06857
G1 X105.538 Y66.140 E0.06450
G1 X106.213 Y68.176 E0.07262
G1 X106.596 Y70.035 E0.06422
G1 X106.797 Y72.374 E0.07947
G1 X106.738 Y74.262 E0.06394
G1 X106.449 Y76.267 E0.06857
G1 X105.935 Y78.226 E0.06857
G1 X105.253 Y79.992 E0.06408
G1 X104.167 Y82.050 E0.07877
G1 X103.092 Y83.614 E0.06422
G1 X101.753 Y85.156 E0.06913
G1 X100.266 Y86.519 E0.06829
G1 X98.631 Y87.708 E0.06843
G1 X96.861 Y88.709 E0.06885
G1 X95.119 Y89.451 E0.06408
G1 X92.874 Y90.110 E0.07919
G1 X91.004 Y90.428 E0.06422
G1 X88.915 Y90.541 E0.07081
G1 X86.955 Y90.426 E0.06646
G1 X84.963 Y90.081 E0.06843
G1 X83.015 Y89.510 E0.06871
G1 X81.273 Y88.780 E0.06394
G1 X79.238 Y87.632 E0.07905
G1 X77.707 Y86.513 E0.06422
G1 X76.212 Y85.140 E0.06871
G1 X74.890 Y83.615 E0.06829
G1 X73.815 Y82.052 E0.06422
G1 X72.723 Y79.980 E0.07927
G1 X72.045 Y78.224 E0.06372
G1 X71.529 Y76.257 E0.06885
G1 X71.241 Y74.252 E0.06857
G1 X71.183 Y72.227 E0.06857
G1 X71.356 Y70.204 E0.06871
G1 X71.727 Y68.344 E0.06422
G1 X72.451 Y66.119 E0.07919
G1 X73.239 Y64.407 E0.06380
G1 X74.290 Y62.665 E0.06885
G1 X75.491 Y61.109 E0.06654
G1 X75.813 Y61.357 F7200.000
G1 F1800
G1 X77.212 Y59.911 E0.06811
G1 X78.753 Y58.650 E0.06740
G1 X80.319 Y57.638 E0.06312
G1 X82.332 Y56.648 E0.07594
G1 X84.094 Y56.024 E0.06325
G1 X86.022 Y55.576 E0.06702
G1 X87.989 Y55.350 E0.06701
G1 X89.850 Y55.346 E0.06300
G1 X92.083 Y55.601 E0.07607
G1 X93.902 Y56.028 E0.06325
G1 X95.767 Y56.694 E0.06702
G1 X97.544 Y57.567 E0.06702
G1 X99.118 Y58.574 E0.06326
G1 X100.859 Y59.999 E0.07616
G1 X102.151 Y61.335 E0.06290
G1 X103.360 Y62.903 E0.06701
G1 X104.382 Y64.599 E0.06702
G1 X105.166 Y66.304 E0.06351
G1 X105.821 Y68.285 E0.07064
G1 X106.197 Y70.115 E0.06325
G1 X106.390 Y72.362 E0.07632
G1 X106.333 Y74.226 E0.06313
G1 X106.050 Y76.186 E0.06701
G1 X105.548 Y78.100 E0.06702
G1 X104.875 Y79.840 E0.06312
G1 X103.828 Y81.824 E0.07594
G1 X102.770 Y83.364 E0.06326
G1 X101.465 Y84.868 E0.06740
G1 X100.009 Y86.204 E0.06689
G1 X98.407 Y87.368 E0.06702
G1 X96.677 Y88.346 E0.06727
G1 X94.964 Y89.075 E0.06300
G1 X92.805 Y89.709 E0.07619
G1 X90.963 Y90.023 E0.06325
G1 X88.928 Y90.134 E0.06896
G1 X87.002 Y90.021 E0.06533
G1 X85.051 Y89.684 E0.06702
G1 X83.147 Y89.125 E0.06715
G1 X81.431 Y88.405 E0.06300
G1 X79.474 Y87.300 E0.07606
G1 X77.965 Y86.199 E0.06325
G1 X76.504 Y84.857 E0.06715
G1 X75.205 Y83.357 E0.06714
G1 X74.087 Y81.723 E0.06702
G1 X73.159 Y79.966 E0.06727
G1 X72.481 Y78.237 E0.06287
G1 X71.908 Y76.060 E0.07619
G1 X71.646 Y74.210 E0.06325
G1 X71.590 Y72.234 E0.06689
G1 X71.759 Y70.258 E0.06714
G1 X72.126 Y68.426 E0.06325
G1 X72.822 Y66.289 E0.07606
G1 X73.599 Y64.598 E0.06300
G1 X74.626 Y62.896 E0.06727
G1 X75.776 Y61.405 E0.06375
G1 F5760
G1 X77.212 Y59.911 E-0.71761
G1 F5760
G1 X77.307 Y59.834 E-0.04239
G1 E-0.04000 F2100.00000
G1 X79.699 Y64.873 F7200.000
G1 E0.80000 F2100.00000
G1 F1800
G1 X80.829 Y63.705 E0.06177
G1 X82.104 Y62.697 E0.06177
G1 X83.492 Y61.876 E0.06128
G1 X84.999 Y61.235 E0.06223
G1 X86.567 Y60.805 E0.06180
G1 X88.178 Y60.589 E0.06177
G1 X89.803 Y60.589 E0.06177
G1 X91.414 Y60.805 E0.06177
G1 X92.981 Y61.235 E0.06177
G1 X94.478 Y61.869 E0.06177
G1 X95.876 Y62.697 E0.06177
G1 X97.151 Y63.705 E0.06177
G1 X98.281 Y64.873 E0.06177
G1 X99.245 Y66.181 E0.06177
G1 X100.027 Y67.607 E0.06177
G1 X100.611 Y69.123 E0.06177
G1 X100.987 Y70.704 E0.06177
G1 X101.150 Y72.322 E0.06177
G1 X101.096 Y73.946 E0.06177
G1 X100.826 Y75.549 E0.06177
G1 X100.344 Y77.101 E0.06177
G1 X99.660 Y78.575 E0.06177
G1 X98.785 Y79.945 E0.06177
G1 X97.736 Y81.186 E0.06177
G1 X96.531 Y82.277 E0.06177
G1 X95.191 Y83.196 E0.06177
G1 X93.740 Y83.929 E0.06177
G1 X92.205 Y84.463 E0.06177
G1 X90.612 Y84.786 E0.06177
G1 X88.990 Y84.895 E0.06177
G1 X87.369 Y84.786 E0.06177
G1 X85.776 Y84.463 E0.06177
G1 X84.240 Y83.929 E0.06177
G1 X82.790 Y83.196 E0.06177
G1 X81.450 Y82.277 E0.06177
G1 X80.244 Y81.186 E0.06177
G1 X79.195 Y79.945 E0.06177
G1 X78.328 Y78.586 E0.06128
G1 X77.637 Y77.102 E0.06223
G1 X77.155 Y75.549 E0.06180
G1 X76.885 Y73.946 E0.06177
G1 X76.830 Y72.322 E0.06177
G1 X76.993 Y70.704 E0.06177
G1 X77.370 Y69.123 E0.06177
G1 X77.954 Y67.607 E0.06177
G1 X78.735 Y66.181 E0.06177
G1 X79.663 Y64.921 E0.05949
G1 X80.031 Y65.192 F7200.000
G1 F1800
G1 X81.136 Y64.044 E0.06055
G1 X82.364 Y63.075 E0.05945
G1 X83.699 Y62.284 E0.05897
G1 X85.149 Y61.667 E0.05991
G1 X86.658 Y61.254 E0.05946
G1 X88.208 Y61.046 E0.05945
G1 X89.772 Y61.046 E0.05945
G1 X91.322 Y61.254 E0.05945
G1 X92.831 Y61.667 E0.05945
G1 X94.271 Y62.278 E0.05945
G1 X95.617 Y63.075 E0.05945
G1 X96.844 Y64.044 E0.05945
G1 X97.932 Y65.169 E0.05945
G1 X98.859 Y66.428 E0.05945
G1 X99.611 Y67.800 E0.05945
G1 X100.173 Y69.259 E0.05945
G1 X100.536 Y70.781 E0.05945
G1 X100.692 Y72.337 E0.05945
G1 X100.640 Y73.900 E0.05945
G1 X100.380 Y75.442 E0.05945
G1 X99.917 Y76.936 E0.05945
G1 X99.258 Y78.355 E0.05945
G1 X98.416 Y79.673 E0.05945
G1 X97.407 Y80.868 E0.05945
G1 X96.247 Y81.917 E0.05945
G1 X94.957 Y82.802 E0.05945
G1 X93.561 Y83.508 E0.05945
G1 X92.084 Y84.021 E0.05945
G1 X90.551 Y84.332 E0.05945
G1 X88.990 Y84.437 E0.05945
G1 X87.430 Y84.332 E0.05945
G1 X85.897 Y84.021 E0.05945
G1 X84.419 Y83.508 E0.05945
G1 X83.023 Y82.802 E0.05945
G1 X81.734 Y81.917 E0.05945
G1 X80.574 Y80.868 E0.05945
G1 X79.564 Y79.673 E0.05945
G1 X78.729 Y78.366 E0.05897
G1 X78.064 Y76.937 E0.05991
G1 X77.601 Y75.442 E0.05946
G1 X77.340 Y73.900 E0.05945
G1 X77.288 Y72.337 E0.05945
G1 X77.445 Y70.781 E0.05945
G1 X77.807 Y69.259 E0.05945
G1 X78.369 Y67.800 E0.05945
G1 X79.121 Y66.428 E0.05945
G1 X79.996 Y65.241 E0.05605
G1 X80.364 Y65.512 F7200.000
G1 F1800
G1 X81.444 Y64.384 E0.05934
G1 X82.623 Y63.453 E0.05712
G1 X83.905 Y62.693 E0.05665
G1 X85.300 Y62.100 E0.05758
G1 X86.749 Y61.703 E0.05713
G1 X88.239 Y61.503 E0.05712
G1 X89.742 Y61.503 E0.05712
G1 X91.231 Y61.703 E0.05712
G1 X92.681 Y62.100 E0.05712
G1 X94.064 Y62.687 E0.05712
G1 X95.357 Y63.453 E0.05712
G1 X96.537 Y64.384 E0.05712
G1 X97.582 Y65.464 E0.05712
G1 X98.473 Y66.674 E0.05712
G1 X99.195 Y67.992 E0.05712
G1 X99.736 Y69.395 E0.05712
G1 X100.084 Y70.857 E0.05712
G1 X100.234 Y72.352 E0.05712
G1 X100.184 Y73.854 E0.05712
G1 X99.934 Y75.336 E0.05712
G1 X99.489 Y76.772 E0.05712
G1 X98.856 Y78.135 E0.05712
G1 X98.048 Y79.402 E0.05712
G1 X97.077 Y80.549 E0.05712
G1 X95.963 Y81.558 E0.05712
G1 X94.724 Y82.408 E0.05712
G1 X93.382 Y83.086 E0.05712
G1 X91.963 Y83.579 E0.05712
G1 X90.490 Y83.878 E0.05712
G1 X88.990 Y83.979 E0.05712
G1 X87.491 Y83.878 E0.05712
G1 X86.018 Y83.579 E0.05712
G1 X84.598 Y83.086 E0.05712
G1 X83.257 Y82.408 E0.05712
G1 X82.018 Y81.558 E0.05712
G1 X80.903 Y80.549 E0.05712
G1 X79.933 Y79.402 E0.05712
G1 X79.131 Y78.145 E0.05665
G1 X78.491 Y76.772 E0.05758
G1 X78.046 Y75.336 E0.05713
G1 X77.796 Y73.854 E0.05712
G1 X77.746 Y72.352 E0.05712
G1 X77.896 Y70.857 E0.05712
G1 X78.245 Y69.395 E0.05712
G1 X78.785 Y67.992 E0.05712
G1 X79.507 Y66.674 E0.05712
G1 X80.328 Y65.560 E0.05260
G1 X80.227 Y65.136 F7200.000
G1 F5760
G1 X81.444 Y64.384 E-0.56135
G1 F5760
G1 X81.894 Y64.029 E-0.19865
G1 E-0.04000 F2100.00000
G1 X78.535 Y63.669 F7200.000
G1 E0.80000 F2100.00000
G1 F1800
G1 X79.636 Y62.536 E0.06003
G1 X80.859 Y61.536 E0.06003
G1 X82.188 Y60.682 E0.06003
G1 X83.605 Y59.985 E0.06003
G1 X85.093 Y59.455 E0.06003
G1 X86.631 Y59.097 E0.06003
G1 X88.200 Y58.917 E0.06003
G1 X89.780 Y58.917 E0.06003
G1 X91.267 Y59.087 E0.05690
G1 X92.891 Y59.456 E0.06327
G1 X94.375 Y59.985 E0.05991
G1 X95.793 Y60.682 E0.06003
G1 X97.122 Y61.536 E0.06003
G1 X98.281 Y62.484 E0.05690
G1 X99.447 Y63.671 E0.06327
G1 X100.410 Y64.920 E0.05991
G1 X101.225 Y66.272 E0.06003
G1 X101.882 Y67.709 E0.06003
G1 X102.370 Y69.211 E0.06003
G1 X102.683 Y70.759 E0.06003
G1 X102.819 Y72.333 E0.06003
G1 X102.773 Y73.912 E0.06003
G1 X102.549 Y75.475 E0.06003
G1 X102.147 Y77.003 E0.06003
G1 X101.574 Y78.475 E0.06003
G1 X100.875 Y79.799 E0.05690
G1 X99.943 Y81.178 E0.06327
G1 X98.911 Y82.370 E0.05991
G1 X97.747 Y83.438 E0.06003
G1 X96.469 Y84.366 E0.06003
G1 X95.094 Y85.143 E0.06003
G1 X93.639 Y85.758 E0.06003
G1 X92.124 Y86.203 E0.06003
G1 X90.567 Y86.472 E0.06003
G1 X88.990 Y86.562 E0.06003
G1 X87.413 Y86.472 E0.06003
G1 X85.857 Y86.203 E0.06003
G1 X84.341 Y85.758 E0.06003
G1 X82.886 Y85.143 E0.06003
G1 X81.511 Y84.366 E0.06003
G1 X80.233 Y83.438 E0.06003
G1 X79.130 Y82.425 E0.05690
G1 X78.033 Y81.173 E0.06327
G1 X77.144 Y79.872 E0.05991
G1 X76.406 Y78.475 E0.06003
G1 X75.833 Y77.003 E0.06003
G1 X75.432 Y75.475 E0.06003
G1 X75.207 Y73.912 E0.06003
G1 X75.162 Y72.333 E0.06003
G1 X75.297 Y70.759 E0.06003
G1 X75.611 Y69.211 E0.06003
G1 X76.099 Y67.709 E0.06003
G1 X76.755 Y66.272 E0.06003
G1 X77.571 Y64.920 E0.06003
G1 X78.499 Y63.716 E0.05775
G1 X78.137 Y63.437 F7200.000
G1 F1800
G1 X79.326 Y62.199 E0.06527
G1 X80.590 Y61.166 E0.06202
G1 X81.962 Y60.284 E0.06202
G1 X83.427 Y59.564 E0.06202
G1 X84.964 Y59.015 E0.06202
G1 X86.553 Y58.646 E0.06202
G1 X88.174 Y58.460 E0.06202
G1 X89.806 Y58.460 E0.06202
G1 X91.344 Y58.636 E0.05884
G1 X93.018 Y59.016 E0.06525
G1 X94.554 Y59.564 E0.06195
G1 X96.018 Y60.284 E0.06202
G1 X97.391 Y61.166 E0.06202
G1 X98.589 Y62.146 E0.05884
G1 X99.792 Y63.371 E0.06525
G1 X100.788 Y64.661 E0.06195
G1 X101.630 Y66.059 E0.06202
G1 X102.308 Y67.543 E0.06202
G1 X102.812 Y69.095 E0.06202
G1 X103.137 Y70.694 E0.06202
G1 X103.276 Y72.320 E0.06202
G1 X103.230 Y73.951 E0.06202
G1 X102.997 Y75.566 E0.06202
G1 X102.582 Y77.145 E0.06202
G1 X101.990 Y78.665 E0.06202
G1 X101.268 Y80.034 E0.05884
G1 X100.307 Y81.457 E0.06525
G1 X99.239 Y82.689 E0.06195
G1 X98.037 Y83.792 E0.06202
G1 X96.717 Y84.751 E0.06202
G1 X95.296 Y85.554 E0.06202
G1 X93.793 Y86.189 E0.06202
G1 X92.227 Y86.648 E0.06202
G1 X90.619 Y86.927 E0.06202
G1 X88.990 Y87.020 E0.06202
G1 X87.361 Y86.927 E0.06202
G1 X85.753 Y86.648 E0.06202
G1 X84.187 Y86.189 E0.06202
G1 X82.684 Y85.554 E0.06202
G1 X81.263 Y84.751 E0.06202
G1 X79.943 Y83.792 E0.06202
G1 X78.803 Y82.745 E0.05884
G1 X77.671 Y81.454 E0.06525
G1 X76.751 Y80.108 E0.06195
G1 X75.990 Y78.665 E0.06202
G1 X75.398 Y77.145 E0.06202
G1 X74.983 Y75.566 E0.06202
G1 X74.751 Y73.951 E0.06202
G1 X74.704 Y72.320 E0.06202
G1 X74.844 Y70.694 E0.06202
G1 X75.168 Y69.095 E0.06202
G1 X75.672 Y67.543 E0.06202
G1 X76.350 Y66.059 E0.06202
G1 X77.193 Y64.661 E0.06202
G1 X78.100 Y63.485 E0.05646
G1 X77.738 Y63.206 F7200.000
G1 F1800
G1 X77.843 Y63.069 E0.00655
G1 X79.017 Y61.862 E0.06401
G1 X80.321 Y60.795 E0.06401
G1 X81.737 Y59.885 E0.06401
G1 X83.249 Y59.142 E0.06401
G1 X84.835 Y58.576 E0.06401
G1 X86.475 Y58.195 E0.06401
G1 X88.148 Y58.003 E0.06401
G1 X89.832 Y58.003 E0.06401
G1 X91.421 Y58.185 E0.06078
G1 X93.146 Y58.576 E0.06724
G1 X94.732 Y59.142 E0.06398
G1 X96.243 Y59.885 E0.06401
G1 X97.660 Y60.795 E0.06401
G1 X98.898 Y61.808 E0.06078
G1 X100.138 Y63.070 E0.06724
G1 X101.166 Y64.403 E0.06398
G1 X102.035 Y65.845 E0.06401
G1 X102.735 Y67.377 E0.06401
G1 X103.255 Y68.979 E0.06401
G1 X103.590 Y70.629 E0.06401
G1 X103.734 Y72.307 E0.06401
G1 X103.686 Y73.990 E0.06401
G1 X103.446 Y75.657 E0.06401
G1 X103.018 Y77.286 E0.06401
G1 X102.407 Y78.855 E0.06401
G1 X101.661 Y80.270 E0.06078
G1 X100.670 Y81.735 E0.06724
G1 X99.568 Y83.008 E0.06398
G1 X98.327 Y84.146 E0.06401
G1 X96.964 Y85.136 E0.06401
G1 X95.498 Y85.964 E0.06401
G1 X93.947 Y86.620 E0.06401
G1 X92.331 Y87.094 E0.06401
G1 X90.672 Y87.382 E0.06401
G1 X88.990 Y87.478 E0.06401
G1 X87.309 Y87.382 E0.06401
G1 X85.649 Y87.094 E0.06401
G1 X84.034 Y86.620 E0.06401
G1 X82.482 Y85.964 E0.06401
G1 X81.016 Y85.136 E0.06401
G1 X79.654 Y84.146 E0.06401
G1 X78.475 Y83.065 E0.06078
G1 X77.310 Y81.734 E0.06724
G1 X76.359 Y80.345 E0.06398
G1 X75.574 Y78.855 E0.06401
G1 X74.963 Y77.286 E0.06401
G1 X74.534 Y75.657 E0.06401
G1 X74.295 Y73.990 E0.06401
G1 X74.247 Y72.307 E0.06401
G1 X74.391 Y70.629 E0.06401
G1 X74.725 Y68.979 E0.06401
G1 X75.246 Y67.377 E0.06401
G1 X75.945 Y65.845 E0.06401
G1 X76.815 Y64.403 E0.06401
G1 X77.701 Y63.253 E0.05518
G1 X77.909 Y63.225 F7200.000
G1 F5760
G1 X77.843 Y63.069 E-0.08045
G1 F5760
G1 X79.017 Y61.862 E-0.58329
G1 F5760
G1 X79.232 Y61.686 E-0.09627
G1 E-0.04000 F2100.00000
G1 X76.279 Y77.769 F7200.000
G1 E0.80000 F2100.00000
G1 F1800
G1 X83.568 Y85.059 E0.39826
G1 X84.457 Y85.434 E0.03727
G1 X84.660 Y85.494 E0.00821
G1 X82.703 Y83.537 E0.10694
G1 X83.566 Y83.742 F7200.000
G1 F1800
G1 X85.591 Y85.767 E0.11064
G1 X85.935 Y85.868 E0.01385
G1 X86.435 Y85.955 E0.01964
G1 X85.056 Y84.576 E0.07535
G1 X85.685 Y84.794 E0.02571
G1 X85.995 Y84.857 E0.01221
G1 X87.230 Y86.092 E0.06750
G1 X87.452 Y86.131 E0.00872
G1 X87.954 Y86.160 E0.01942
G1 X86.819 Y85.025 E0.06201
G1 X87.323 Y85.127 E0.01985
G1 X87.597 Y85.145 E0.01062
G1 X88.651 Y86.199 E0.05760
G1 X88.990 Y86.219 E0.01312
G1 X89.309 Y86.200 E0.01236
G1 X88.301 Y85.192 E0.05508
G1 X89.004 Y85.238 E0.02719
G1 X89.931 Y86.165 E0.05067
G1 X90.550 Y86.127 E0.02396
G1 X89.620 Y85.196 E0.05085
G1 X90.235 Y85.155 E0.02385
G1 X91.110 Y86.030 E0.04780
G1 X91.670 Y85.933 E0.02196
G1 X90.829 Y85.092 E0.04596
G1 X91.375 Y84.981 E0.02153
G1 X92.213 Y85.819 E0.04578
G1 X92.721 Y85.670 E0.02045
G1 X91.921 Y84.870 E0.04370
G1 X92.295 Y84.794 E0.01474
G1 X92.449 Y84.741 E0.00629
G1 X93.229 Y85.521 E0.04262
G1 X93.524 Y85.434 E0.01186
G1 X93.718 Y85.352 E0.00814
G1 X92.937 Y84.571 E0.04267
G1 X93.425 Y84.402 E0.01995
G1 X94.180 Y85.157 E0.04126
G1 X94.642 Y84.962 E0.01937
G1 X93.908 Y84.228 E0.04006
G1 X94.345 Y84.008 E0.01890
G1 X95.089 Y84.752 E0.04065
G1 X95.509 Y84.515 E0.01863
G1 X94.781 Y83.787 E0.03975
G1 X95.218 Y83.567 E0.01890
G1 X95.929 Y84.278 E0.03884
G1 X96.343 Y84.034 E0.01855
G1 X95.623 Y83.315 E0.03930
G1 X96.013 Y83.048 E0.01826
G1 X96.723 Y83.758 E0.03880
G1 X97.104 Y83.481 E0.01817
G1 X96.403 Y82.780 E0.03831
G1 X96.787 Y82.507 E0.01821
G1 X97.484 Y83.205 E0.03812
G1 X97.530 Y83.172 E0.00217
G1 X97.832 Y82.895 E0.01582
G1 X97.132 Y82.195 E0.03824
G1 X97.477 Y81.883 E0.01797
G1 X98.174 Y82.580 E0.03811
G1 X98.517 Y82.266 E0.01797
G1 X97.822 Y81.571 E0.03798
G1 X97.983 Y81.425 E0.00839
G1 X98.143 Y81.235 E0.00960
G1 X98.838 Y81.930 E0.03796
G1 X99.143 Y81.578 E0.01800
G1 X98.444 Y80.879 E0.03818
G1 X98.745 Y80.523 E0.01801
G1 X99.448 Y81.226 E0.03840
G1 X99.742 Y80.863 E0.01805
G1 X99.046 Y80.167 E0.03802
G1 X99.305 Y79.769 E0.01836
G1 X100.007 Y80.471 E0.03839
G1 X100.272 Y80.079 E0.01828
G1 X99.561 Y79.367 E0.03888
G1 X99.817 Y78.966 E0.01838
G1 X100.537 Y79.687 E0.03937
G1 X100.581 Y79.623 E0.00300
G1 X100.771 Y79.263 E0.01570
G1 X100.052 Y78.545 E0.03926
G1 X100.260 Y78.096 E0.01912
G1 X100.998 Y78.833 E0.04028
G1 X101.224 Y78.403 E0.01879
G1 X100.469 Y77.647 E0.04130
G1 X100.674 Y77.195 E0.01917
