; generated by Slic3r 1.37.2-prusa3d-win64 on 2018-01-11 at 19:52:33

; 

; external perimeters extrusion width = 0.45mm
; perimeters extrusion width = 0.45mm
; infill extrusion width = 0.45mm
; solid infill extrusion width = 0.45mm
; top infill extrusion width = 0.40mm
; support material extrusion width = 0.35mm
; first layer extrusion width = 0.42mm

M107
M115 U3.1.0 ; tell printer latest fw version
M83  ; extruder relative mode
M104 S150
M140 S75 ; set bed temp
G28 W ; home all without mesh bed level
G1 X125 Z80 F1000
M190 S75 ; wait for bed temp
M104 S230 ; set extruder temp
G80 ; mesh bed leveling
M109 S230 ; wait for extruder temp
G1 Y-3.0 F1000.0 ; go outside print area
G92 E0.0
G1 X60.0 E9.0  F1000.0 ; intro line
G1 X100.0 E12.5  F1000.0 ; intro line
G92 E0.0
M900 K45 ; Filament gcode
G21 ; set units to millimeters
G90 ; use absolute coordinates
M83 ; use relative distances for extrusion
;BEFORE_LAYER_CHANGE
;0.2


G1 E-0.80000 F2100.00000
G1 Z0.200 F7200.000
;AFTER_LAYER_CHANGE
;0.2
G1 X97.395 Y79.780 F7200.000
G1 E0.80000 F2100.00000
M204 S1000
G1 F1800
G1 X98.181 Y79.442 E0.02684
G1 X113.841 Y76.473 E0.49976
G1 X135.926 Y76.461 E0.69244
G1 X151.885 Y79.458 E0.50914
G1 X152.436 Y79.677 E0.01858
G1 X152.918 Y80.028 E0.01870
G1 X153.296 Y80.485 E0.01858
G1 X153.550 Y81.024 E0.01870
G1 X153.666 Y81.755 E0.02319
G1 X153.666 Y128.256 E1.45801
G1 X153.549 Y128.979 E0.02296
G1 X153.219 Y129.629 E0.02284
G1 X152.628 Y130.205 E0.02590
G1 X151.878 Y130.544 E0.02579
G1 X143.743 Y132.057 E0.25945
G1 X106.186 Y132.055 E1.17757
G1 X98.215 Y130.566 E0.25425
G1 X97.748 Y130.414 E0.01538
G1 X97.323 Y130.171 E0.01538
G1 X96.913 Y129.796 E0.01740
G1 X96.602 Y129.337 E0.01740
G1 X96.405 Y128.818 E0.01740
G1 X96.334 Y128.268 E0.01740
G1 X96.334 Y81.736 E1.45897
G1 X96.451 Y81.021 E0.02272
G1 X96.781 Y80.371 E0.02284
G1 X97.351 Y79.821 E0.02484
G1 F5760
G1 X98.181 Y79.442 E-0.31605
G1 F5760
G1 X99.440 Y79.203 E-0.44395
G1 E-0.04000 F2100.00000
G1 X114.548 Y93.508 F7200.000
G1 E0.80000 F2100.00000
G1 F1800
G1 X114.548 Y86.917 E0.20667
G1 X115.302 Y86.917 E0.02365
G1 X115.302 Y93.338 E0.20135
G1 X116.057 Y93.338 E0.02365
G1 X116.057 Y86.917 E0.20135
G1 X116.811 Y86.917 E0.02365
G1 X116.811 Y93.338 E0.20135
G1 X117.565 Y93.338 E0.02365
G1 X117.565 Y86.917 E0.20135
G1 X118.319 Y86.917 E0.02365
G1 X118.319 Y93.338 E0.20135
G1 X119.073 Y93.338 E0.02365
G1 X119.073 Y86.917 E0.20135
G1 X119.827 Y86.917 E0.02365
G1 X119.827 Y93.338 E0.20135
G1 X120.582 Y93.338 E0.02365
G1 X120.582 Y86.917 E0.20135
G1 X121.336 Y86.917 E0.02365
G1 X121.336 Y93.338 E0.20135
G1 X122.090 Y93.338 E0.02365
G1 X122.090 Y86.917 E0.20135
G1 X122.844 Y86.917 E0.02365
G1 X122.844 Y93.338 E0.20135
G1 X123.598 Y93.338 E0.02365
G1 X123.598 Y86.917 E0.20135
G1 X124.352 Y86.917 E0.02365
G1 X124.352 Y93.338 E0.20135
G1 X125.107 Y93.338 E0.02365
G1 X125.107 Y86.917 E0.20135
G1 X125.861 Y86.917 E0.02365
G1 X125.861 Y93.338 E0.20135
G1 X126.615 Y93.338 E0.02365
G1 X126.615 Y86.917 E0.20135
G1 X127.369 Y86.917 E0.02365
G1 X127.369 Y93.338 E0.20135
G1 X128.123 Y93.338 E0.02365
G1 X128.123 Y86.917 E0.20135
G1 X128.877 Y86.917 E0.02365
G1 X128.877 Y93.338 E0.20135
G1 X129.632 Y93.338 E0.02365
G1 X129.632 Y86.917 E0.20135
G1 X130.386 Y86.917 E0.02365
G1 X130.386 Y93.338 E0.20135
G1 X131.140 Y93.338 E0.02365
G1 X131.140 Y86.917 E0.20135
G1 X131.894 Y86.917 E0.02365
G1 X131.894 Y93.338 E0.20135
G1 X132.648 Y93.338 E0.02365
G1 X132.648 Y86.917 E0.20135
G1 X133.402 Y86.917 E0.02365
G1 X133.402 Y93.508 E0.20667
G1 F5760
G1 X133.402 Y91.314 E-0.76000
G1 E-0.04000 F2100.00000
G1 X144.673 Y131.534 F7200.000
G1 X134.911 Y123.253 F7200.000
G1 E0.80000 F2100.00000
G1 F1800
G1 X134.911 Y108.172 E0.47285
G1 X134.156 Y108.172 E0.02365
G1 X134.156 Y123.083 E0.46753
G1 X133.402 Y123.083 E0.02365
G1 X133.402 Y108.172 E0.46753
G1 X132.648 Y108.172 E0.02365
G1 X132.648 Y123.083 E0.46753
G1 X131.894 Y123.083 E0.02365
G1 X131.894 Y108.172 E0.46753
G1 X131.140 Y108.172 E0.02365
G1 X131.140 Y123.083 E0.46753
G1 X130.386 Y123.083 E0.02365
G1 X130.386 Y108.172 E0.46753
G1 X129.632 Y108.172 E0.02365
G1 X129.632 Y123.083 E0.46753
G1 X128.877 Y123.083 E0.02365
G1 X128.877 Y108.172 E0.46753
G1 X128.123 Y108.172 E0.02365
G1 X128.123 Y123.083 E0.46753
G1 X127.369 Y123.083 E0.02365
G1 X127.369 Y108.172 E0.46753
G1 X126.615 Y108.172 E0.02365
G1 X126.615 Y123.083 E0.46753
G1 X125.861 Y123.083 E0.02365
G1 X125.861 Y108.172 E0.46753
G1 X125.107 Y108.172 E0.02365
G1 X125.107 Y123.083 E0.46753
G1 X124.352 Y123.083 E0.02365
G1 X124.352 Y108.172 E0.46753
G1 X123.598 Y108.172 E0.02365
G1 X123.598 Y123.083 E0.46753
G1 X122.844 Y123.083 E0.02365
G1 X122.844 Y108.172 E0.46753
G1 X122.090 Y108.172 E0.02365
G1 X122.090 Y123.083 E0.46753
G1 X121.336 Y123.083 E0.02365
G1 X121.336 Y108.172 E0.46753
G1 X120.582 Y108.172 E0.02365
G1 X120.582 Y123.083 E0.46753
G1 X119.827 Y123.083 E0.02365
G1 X119.827 Y108.172 E0.46753
G1 X119.073 Y108.172 E0.02365
G1 X119.073 Y123.083 E0.46753
G1 X118.319 Y123.083 E0.02365
G1 X118.319 Y108.172 E0.46753
G1 X117.565 Y108.172 E0.02365
G1 X117.565 Y123.083 E0.46753
G1 X116.811 Y123.083 E0.02365
G1 X116.811 Y108.172 E0.46753
G1 X116.057 Y108.172 E0.02365
G1 X116.057 Y123.083 E0.46753
G1 X115.302 Y123.083 E0.02365
G1 X115.302 Y108.172 E0.46753
G1 X114.548 Y108.172 E0.02365
G1 X114.548 Y123.253 E0.47285
G1 F5760
G1 X114.548 Y121.059 E-0.76000
G1 E-0.04000 F2100.00000
G1 X113.890 Y76.838 F7200.000
G1 X113.114 Y85.494 F7200.000
G1 E0.80000 F2100.00000
G1 F1800
G1 X136.886 Y85.494 E0.74536
G1 X136.886 Y124.506 E1.22320
G1 X113.114 Y124.506 E0.74536
G1 X113.114 Y85.554 E1.22132
G1 X113.491 Y85.871 F7200.000
G1 F1800
G1 X136.509 Y85.871 E0.72172
G1 X136.509 Y124.129 E1.19956
G1 X113.491 Y124.129 E0.72172
G1 X113.491 Y85.931 E1.19768
G1 X113.868 Y86.248 F7200.000
G1 F1800
G1 X136.132 Y86.248 E0.69807
G1 X136.132 Y123.752 E1.17591
G1 X113.868 Y123.752 E0.69807
G1 X113.868 Y86.308 E1.17403
G1 X113.797 Y85.854 F7200.000
G1 F5760
G1 X116.062 Y86.302 E-0.76000
G1 E-0.04000 F2100.00000
G1 X99.675 Y82.557 F7200.000
G1 E0.80000 F2100.00000
G1 F1800
G1 X114.169 Y79.802 E0.46258
G1 X135.831 Y79.802 E0.67921
G1 X150.325 Y82.557 E0.46258
G1 X150.325 Y127.443 E1.40736
G1 X144.394 Y128.570 E0.18928
G1 X105.606 Y128.570 E1.21618
G1 X99.675 Y127.443 E0.18928
G1 X99.675 Y82.617 E1.40548
G1 X99.298 Y82.245 F7200.000
G1 F1800
G1 X114.133 Y79.425 E0.47348
G1 X135.867 Y79.425 E0.68144
G1 X150.702 Y82.245 E0.47348
G1 X150.702 Y127.755 E1.42693
G1 X144.430 Y128.947 E0.20018
G1 X105.570 Y128.947 E1.21841
G1 X99.298 Y127.755 E0.20018
G1 X99.298 Y82.305 E1.42505
G1 X98.921 Y81.933 F7200.000
G1 F1800
G1 X114.098 Y79.048 E0.48438
G1 X135.902 Y79.048 E0.68366
G1 X151.079 Y81.933 E0.48438
G1 X151.079 Y128.067 E1.44651
G1 X144.465 Y129.324 E0.21108
G1 X105.535 Y129.324 E1.22064
G1 X98.921 Y128.067 E0.21108
G1 X98.921 Y81.993 E1.44463
G1 X99.296 Y82.071 F7200.000
G1 F5760
G1 X101.075 Y81.575 E-0.76000
G1 E-0.04000 F2100.00000
G1 X100.736 Y127.529 F7200.000
G1 E0.80000 F2100.00000
G1 F1800
G1 X99.958 Y126.751 E0.03461
G1 X99.958 Y126.216 E0.01682
G1 X101.183 Y127.442 E0.05449
G1 X101.844 Y127.567 E0.02113
G1 X99.958 Y125.682 E0.08385
G1 X99.958 Y125.147 E0.01682
G1 X102.504 Y127.693 E0.11321
G1 X103.164 Y127.818 E0.02113
G1 X99.958 Y124.612 E0.14257
G1 X99.958 Y124.077 E0.01682
G1 X103.824 Y127.944 E0.17193
G1 X104.485 Y128.069 E0.02113
G1 X99.958 Y123.542 E0.20129
G1 X99.958 Y123.008 E0.01682
G1 X105.145 Y128.195 E0.23065
G1 X105.632 Y128.287 E0.01560
G1 X105.772 Y128.287 E0.00440
G1 X99.958 Y122.473 E0.25855
G1 X99.958 Y121.938 E0.01682
G1 X106.307 Y128.287 E0.28233
G1 X106.842 Y128.287 E0.01682
G1 X99.958 Y121.403 E0.30611
G1 X99.958 Y120.869 E0.01682
G1 X107.377 Y128.287 E0.32989
G1 X107.912 Y128.287 E0.01682
G1 X99.958 Y120.334 E0.35367
G1 X99.958 Y119.799 E0.01682
G1 X108.446 Y128.287 E0.37745
G1 X108.981 Y128.287 E0.01682
G1 X99.958 Y119.264 E0.40123
G1 X99.958 Y118.729 E0.01682
G1 X109.516 Y128.287 E0.42501
G1 X110.051 Y128.287 E0.01682
G1 X99.958 Y118.195 E0.44879
G1 X99.958 Y117.660 E0.01682
G1 X110.585 Y128.287 E0.47257
G1 X111.120 Y128.287 E0.01682
G1 X99.958 Y117.125 E0.49635
G1 X99.958 Y116.590 E0.01682
G1 X111.655 Y128.287 E0.52013
G1 X112.190 Y128.287 E0.01682
G1 X99.958 Y116.056 E0.54391
G1 X99.958 Y115.521 E0.01682
G1 X112.725 Y128.287 E0.56769
G1 X113.259 Y128.287 E0.01682
G1 X99.958 Y114.986 E0.59147
G1 X99.958 Y114.451 E0.01682
G1 X113.794 Y128.287 E0.61525
G1 X114.329 Y128.287 E0.01682
G1 X99.958 Y113.916 E0.63903
G1 X99.958 Y113.382 E0.01682
G1 X114.864 Y128.287 E0.66281
G1 X115.398 Y128.287 E0.01682
G1 X99.958 Y112.847 E0.68659
G1 X99.958 Y112.312 E0.01682
G1 X116.103 Y128.457 E0.71792
G1 F5760
G1 X114.551 Y126.905 E-0.76000
G1 E-0.04000 F2100.00000
G1 X113.078 Y126.538 F7200.000
G1 X136.922 Y126.538 F7200.000
G1 X140.914 Y124.542 F7200.000
G1 X143.606 Y121.851 F7200.000
G1 X143.606 Y88.120 F7200.000
G1 X150.212 Y98.927 F7200.000
G1 E0.80000 F2100.00000
G1 F1800
G1 X137.169 Y85.884 E0.57997
G1 X137.169 Y86.419 E0.01682
G1 X150.042 Y99.292 E0.57243
G1 X150.042 Y99.827 E0.01682
G1 X137.169 Y86.954 E0.57243
G1 X137.169 Y87.489 E0.01682
G1 X150.042 Y100.362 E0.57243
G1 X150.042 Y100.897 E0.01682
G1 X137.169 Y88.023 E0.57243
G1 X137.169 Y88.558 E0.01682
G1 X150.042 Y101.431 E0.57243
G1 X150.042 Y101.966 E0.01682
G1 X137.169 Y89.093 E0.57243
G1 X137.169 Y89.628 E0.01682
G1 X150.042 Y102.501 E0.57243
G1 X150.042 Y103.036 E0.01682
G1 X137.169 Y90.163 E0.57243
G1 X137.169 Y90.697 E0.01682
G1 X150.042 Y103.570 E0.57243
G1 X150.042 Y104.105 E0.01682
G1 X137.169 Y91.232 E0.57243
G1 X137.169 Y91.767 E0.01682
G1 X150.042 Y104.640 E0.57243
G1 X150.042 Y105.175 E0.01682
G1 X137.169 Y92.302 E0.57243
G1 X137.169 Y92.836 E0.01682
G1 X150.042 Y105.710 E0.57243
G1 X150.042 Y106.244 E0.01682
G1 X137.169 Y93.371 E0.57243
G1 X137.169 Y93.906 E0.01682
G1 X150.042 Y106.779 E0.57243
G1 X150.042 Y107.314 E0.01682
G1 X137.169 Y94.441 E0.57243
G1 X137.169 Y94.976 E0.01682
G1 X150.042 Y107.849 E0.57243
G1 X150.042 Y108.383 E0.01682
G1 X137.169 Y95.510 E0.57243
G1 X137.169 Y96.045 E0.01682
G1 X150.042 Y108.918 E0.57243
G1 X150.042 Y109.453 E0.01682
G1 X137.169 Y96.580 E0.57243
G1 X137.169 Y97.115 E0.01682
G1 X150.042 Y109.988 E0.57243
G1 X150.042 Y110.523 E0.01682
G1 X137.169 Y97.650 E0.57243
G1 X137.169 Y98.184 E0.01682
G1 X150.042 Y111.057 E0.57243
G1 X150.042 Y111.592 E0.01682
G1 X137.169 Y98.719 E0.57243
G1 X137.169 Y99.254 E0.01682
G1 X150.042 Y112.127 E0.57243
G1 X150.042 Y112.662 E0.01682
G1 X137.169 Y99.789 E0.57243
G1 X137.169 Y100.323 E0.01682
G1 X150.042 Y113.197 E0.57243
G1 X150.042 Y113.731 E0.01682
G1 X137.169 Y100.858 E0.57243
G1 X137.169 Y101.393 E0.01682
G1 X150.042 Y114.266 E0.57243
G1 X150.042 Y114.801 E0.01682
G1 X137.169 Y101.928 E0.57243
G1 X137.169 Y102.463 E0.01682
G1 X150.042 Y115.336 E0.57243
G1 X150.042 Y115.870 E0.01682
G1 X137.169 Y102.997 E0.57243
G1 X137.169 Y103.532 E0.01682
G1 X150.042 Y116.405 E0.57243
G1 X150.042 Y116.940 E0.01682
G1 X137.169 Y104.067 E0.57243
G1 X137.169 Y104.602 E0.01682
G1 X150.042 Y117.475 E0.57243
G1 X150.042 Y118.010 E0.01682
G1 X137.169 Y105.136 E0.57243
G1 X137.169 Y105.671 E0.01682
G1 X150.042 Y118.544 E0.57243
G1 X150.042 Y119.079 E0.01682
G1 X137.169 Y106.206 E0.57243
G1 X137.169 Y106.741 E0.01682
G1 X150.042 Y119.614 E0.57243
G1 X150.042 Y120.149 E0.01682
G1 X137.169 Y107.276 E0.57243
G1 X137.169 Y107.810 E0.01682
G1 X150.042 Y120.683 E0.57243
G1 X150.042 Y121.218 E0.01682
G1 X137.169 Y108.345 E0.57243
G1 X137.169 Y108.880 E0.01682
G1 X150.042 Y121.753 E0.57243
G1 X150.042 Y122.288 E0.01682
G1 X137.169 Y109.415 E0.57243
G1 X137.169 Y109.949 E0.01682
G1 X150.042 Y122.823 E0.57243
G1 X150.042 Y123.357 E0.01682
G1 X137.169 Y110.484 E0.57243
G1 X137.169 Y111.019 E0.01682
G1 X150.042 Y123.892 E0.57243
G1 X150.042 Y124.427 E0.01682
G1 X137.169 Y111.554 E0.57243
G1 X137.169 Y112.089 E0.01682
G1 X150.042 Y124.962 E0.57243
G1 X150.042 Y125.496 E0.01682
G1 X137.169 Y112.623 E0.57243
G1 X137.169 Y113.158 E0.01682
G1 X150.042 Y126.031 E0.57243
G1 X150.042 Y126.566 E0.01682
G1 X137.169 Y113.693 E0.57243
G1 X137.169 Y114.228 E0.01682
G1 X150.042 Y127.101 E0.57243
G1 X150.042 Y127.209 E0.00340
G1 X149.683 Y127.277 E0.01148
G1 X137.169 Y114.762 E0.55648
G1 X137.169 Y115.297 E0.01682
G1 X149.234 Y127.362 E0.53650
G1 X148.785 Y127.448 E0.01438
G1 X137.169 Y115.832 E0.51652
G1 X137.169 Y116.367 E0.01682
G1 X148.335 Y127.533 E0.49654
G1 X147.886 Y127.619 E0.01438
G1 X137.169 Y116.902 E0.47655
G1 X137.169 Y117.436 E0.01682
G1 X147.437 Y127.704 E0.45657
G1 X146.987 Y127.789 E0.01438
G1 X137.169 Y117.971 E0.43659
G1 X137.169 Y118.506 E0.01682
G1 X146.538 Y127.875 E0.41661
G1 X146.089 Y127.960 E0.01438
G1 X137.169 Y119.041 E0.39663
G1 X137.169 Y119.575 E0.01682
G1 X145.639 Y128.046 E0.37665
G1 X145.190 Y128.131 E0.01438
G1 X137.169 Y120.110 E0.35666
G1 X137.169 Y120.645 E0.01682
G1 X144.740 Y128.216 E0.33668
G1 X144.368 Y128.287 E0.01194
G1 X144.277 Y128.287 E0.00286
G1 X137.169 Y121.180 E0.31605
G1 X137.169 Y121.715 E0.01682
G1 X143.742 Y128.287 E0.29227
G1 X143.207 Y128.287 E0.01682
G1 X137.169 Y122.249 E0.26849
G1 X137.169 Y122.784 E0.01682
G1 X142.672 Y128.287 E0.24471
G1 X142.137 Y128.287 E0.01682
G1 X137.169 Y123.319 E0.22093
G1 X137.169 Y123.854 E0.01682
G1 X141.603 Y128.287 E0.19715
G1 X141.068 Y128.287 E0.01682
G1 X137.169 Y124.388 E0.17337
G1 X137.169 Y124.789 E0.01259
G1 X137.035 Y124.789 E0.00422
G1 X140.533 Y128.287 E0.15556
G1 X139.998 Y128.287 E0.01682
G1 X136.500 Y124.789 E0.15556
G1 X135.965 Y124.789 E0.01682
G1 X139.464 Y128.287 E0.15556
G1 X138.929 Y128.287 E0.01682
G1 X135.430 Y124.789 E0.15556
G1 X134.896 Y124.789 E0.01682
G1 X138.394 Y128.287 E0.15556
G1 X137.859 Y128.287 E0.01682
G1 X134.361 Y124.789 E0.15556
G1 X133.826 Y124.789 E0.01682
G1 X137.324 Y128.287 E0.15556
G1 X136.790 Y128.287 E0.01682
G1 X133.291 Y124.789 E0.15556
G1 X132.756 Y124.789 E0.01682
G1 X136.255 Y128.287 E0.15556
G1 X135.720 Y128.287 E0.01682
G1 X132.222 Y124.789 E0.15556
G1 X131.687 Y124.789 E0.01682
G1 X135.185 Y128.287 E0.15556
G1 X134.651 Y128.287 E0.01682
G1 X131.152 Y124.789 E0.15556
G1 X130.617 Y124.789 E0.01682
G1 X134.116 Y128.287 E0.15556
G1 X133.581 Y128.287 E0.01682
G1 X130.083 Y124.789 E0.15556
G1 X129.548 Y124.789 E0.01682
G1 X133.046 Y128.287 E0.15556
G1 X132.511 Y128.287 E0.01682
G1 X129.013 Y124.789 E0.15556
G1 X128.478 Y124.789 E0.01682
G1 X131.977 Y128.287 E0.15556
G1 X131.442 Y128.287 E0.01682
G1 X127.943 Y124.789 E0.15556
G1 X127.409 Y124.789 E0.01682
G1 X130.907 Y128.287 E0.15556
G1 X130.372 Y128.287 E0.01682
G1 X126.874 Y124.789 E0.15556
G1 X126.339 Y124.789 E0.01682
G1 X129.837 Y128.287 E0.15556
G1 X129.303 Y128.287 E0.01682
G1 X125.804 Y124.789 E0.15556
G1 X125.270 Y124.789 E0.01682
G1 X128.768 Y128.287 E0.15556
G1 X128.233 Y128.287 E0.01682
G1 X124.735 Y124.789 E0.15556
G1 X124.200 Y124.789 E0.01682
G1 X127.698 Y128.287 E0.15556
G1 X127.164 Y128.287 E0.01682
G1 X123.665 Y124.789 E0.15556
G1 X123.130 Y124.789 E0.01682
G1 X126.629 Y128.287 E0.15556
G1 X126.094 Y128.287 E0.01682
G1 X122.596 Y124.789 E0.15556
G1 X122.061 Y124.789 E0.01682
G1 X125.559 Y128.287 E0.15556
G1 X125.024 Y128.287 E0.01682
G1 X121.526 Y124.789 E0.15556
G1 X120.991 Y124.789 E0.01682
G1 X124.490 Y128.287 E0.15556
G1 X123.955 Y128.287 E0.01682
G1 X120.456 Y124.789 E0.15556
G1 X119.922 Y124.789 E0.01682
G1 X123.420 Y128.287 E0.15556
G1 X122.885 Y128.287 E0.01682
G1 X119.387 Y124.789 E0.15556
G1 X118.852 Y124.789 E0.01682
G1 X122.351 Y128.287 E0.15556
G1 X121.816 Y128.287 E0.01682
G1 X118.317 Y124.789 E0.15556
G1 X117.783 Y124.789 E0.01682
G1 X121.281 Y128.287 E0.15556
G1 X120.746 Y128.287 E0.01682
G1 X117.248 Y124.789 E0.15556
G1 X116.713 Y124.789 E0.01682
G1 X120.211 Y128.287 E0.15556
G1 X119.677 Y128.287 E0.01682
G1 X116.178 Y124.789 E0.15556
G1 X115.643 Y124.789 E0.01682
G1 X119.142 Y128.287 E0.15556
G1 X118.607 Y128.287 E0.01682
G1 X115.109 Y124.789 E0.15556
G1 X114.574 Y124.789 E0.01682
G1 X118.072 Y128.287 E0.15556
G1 X117.538 Y128.287 E0.01682
G1 X114.039 Y124.789 E0.15556
