; generated by Slic3r 1.37.2-prusa3d-win64 on 2018-01-11 at 00:04:51

; 

; external perimeters extrusion width = 0.45mm
; perimeters extrusion width = 0.45mm
; infill extrusion width = 0.45mm
; solid infill extrusion width = 0.45mm
; top infill extrusion width = 0.40mm
; support material extrusion width = 0.35mm
; first layer extrusion width = 0.42mm

M107
M115 U3.1.0 ; tell printer latest fw version
M83  ; extruder relative mode
M104 S150
M140 S55 ; set bed temp
G28 W ; home all without mesh bed level
G1 X125 Z80 F1000
M190 S55 ; wait for bed temp
M104 S215 ; set extruder temp
G80 ; mesh bed leveling
M109 S215 ; wait for extruder temp
G1 Y-3.0 F1000.0 ; go outside print area
G92 E0.0
G1 X60.0 E9.0  F1000.0 ; intro line
G1 X100.0 E12.5  F1000.0 ; intro line
G92 E0.0
M900 K30 ; Filament gcode
G21 ; set units to millimeters
G90 ; use absolute coordinates
M83 ; use relative distances for extrusion
;BEFORE_LAYER_CHANGE
;0.2


G1 E-0.80000 F2100.00000
G1 Z0.200 F7200.000
;AFTER_LAYER_CHANGE
;0.2
G1 X97.401 Y79.776 F7200.000
G1 E0.80000 F2100.00000
M204 S1000
G1 F1800
G1 X98.196 Y79.438 E0.02708
G1 X113.849 Y76.599 E0.49879
G1 X135.926 Y76.588 E0.69221
G1 X151.867 Y79.453 E0.50783
G1 X152.423 Y79.670 E0.01870
G1 X152.910 Y80.020 E0.01882
G1 X153.294 Y80.482 E0.01882
G1 X153.549 Y81.021 E0.01870
G1 X153.666 Y81.755 E0.02331
G1 X153.666 Y128.256 E1.45801
G1 X153.549 Y128.979 E0.02296
G1 X153.217 Y129.632 E0.02296
G1 X152.624 Y130.208 E0.02590
G1 X151.871 Y130.546 E0.02590
G1 X144.097 Y131.930 E0.24756
G1 X105.839 Y131.928 E1.19956
G1 X98.230 Y130.569 E0.24236
G1 X97.755 Y130.417 E0.01562
G1 X97.323 Y130.171 E0.01562
G1 X96.913 Y129.796 E0.01740
G1 X96.602 Y129.337 E0.01740
G1 X96.405 Y128.818 E0.01740
G1 X96.334 Y128.268 E0.01740
G1 X96.334 Y81.736 E1.45897
G1 X96.451 Y81.021 E0.02272
G1 X96.781 Y80.371 E0.02284
G1 X97.358 Y79.817 E0.02508
G1 F5760
G1 X98.196 Y79.438 E-0.31862
G1 F5760
G1 X99.450 Y79.211 E-0.44138
G1 E-0.04000 F2100.00000
G1 X114.548 Y93.635 F7200.000
G1 E0.80000 F2100.00000
G1 F1800
G1 X114.548 Y86.044 E0.23802
G1 X115.302 Y86.044 E0.02365
G1 X115.302 Y93.465 E0.23270
G1 X116.057 Y93.465 E0.02365
G1 X116.057 Y86.044 E0.23270
G1 X116.811 Y86.044 E0.02365
G1 X116.811 Y93.465 E0.23270
G1 X117.565 Y93.465 E0.02365
G1 X117.565 Y86.044 E0.23270
G1 X118.319 Y86.044 E0.02365
G1 X118.319 Y93.465 E0.23270
G1 X119.073 Y93.465 E0.02365
G1 X119.073 Y86.044 E0.23270
G1 X119.827 Y86.044 E0.02365
G1 X119.827 Y93.465 E0.23270
G1 X120.582 Y93.465 E0.02365
G1 X120.582 Y86.044 E0.23270
G1 X121.336 Y86.044 E0.02365
G1 X121.336 Y93.465 E0.23270
G1 X122.090 Y93.465 E0.02365
G1 X122.090 Y86.044 E0.23270
G1 X122.844 Y86.044 E0.02365
G1 X122.844 Y93.465 E0.23270
G1 X123.598 Y93.465 E0.02365
G1 X123.598 Y86.044 E0.23270
G1 X124.352 Y86.044 E0.02365
G1 X124.352 Y93.465 E0.23270
G1 X125.107 Y93.465 E0.02365
G1 X125.107 Y86.044 E0.23270
G1 X125.861 Y86.044 E0.02365
G1 X125.861 Y93.465 E0.23270
G1 X126.615 Y93.465 E0.02365
G1 X126.615 Y86.044 E0.23270
G1 X127.369 Y86.044 E0.02365
G1 X127.369 Y93.465 E0.23270
G1 X128.123 Y93.465 E0.02365
G1 X128.123 Y86.044 E0.23270
G1 X128.877 Y86.044 E0.02365
G1 X128.877 Y93.465 E0.23270
G1 X129.632 Y93.465 E0.02365
G1 X129.632 Y86.044 E0.23270
G1 X130.386 Y86.044 E0.02365
G1 X130.386 Y93.465 E0.23270
G1 X131.140 Y93.465 E0.02365
G1 X131.140 Y86.044 E0.23270
G1 X131.894 Y86.044 E0.02365
G1 X131.894 Y93.465 E0.23270
G1 X132.648 Y93.465 E0.02365
G1 X132.648 Y86.044 E0.23270
G1 X133.402 Y86.044 E0.02365
G1 X133.402 Y93.635 E0.23802
G1 F5760
G1 X133.402 Y91.441 E-0.76000
G1 E-0.04000 F2100.00000
G1 X105.036 Y130.407 F7200.000
G1 X113.794 Y108.129 F7200.000
G1 E0.80000 F2100.00000
G1 F1800
G1 X113.794 Y123.956 E0.49624
G1 X114.548 Y123.956 E0.02365
G1 X114.548 Y108.299 E0.49092
G1 X115.302 Y108.299 E0.02365
G1 X115.302 Y123.956 E0.49092
G1 X116.057 Y123.956 E0.02365
G1 X116.057 Y108.299 E0.49092
G1 X116.811 Y108.299 E0.02365
G1 X116.811 Y123.956 E0.49092
G1 X117.565 Y123.956 E0.02365
G1 X117.565 Y108.299 E0.49092
G1 X118.319 Y108.299 E0.02365
G1 X118.319 Y123.956 E0.49092
G1 X119.073 Y123.956 E0.02365
G1 X119.073 Y108.299 E0.49092
G1 X119.827 Y108.299 E0.02365
G1 X119.827 Y123.956 E0.49092
G1 X120.582 Y123.956 E0.02365
G1 X120.582 Y108.299 E0.49092
G1 X121.336 Y108.299 E0.02365
G1 X121.336 Y123.956 E0.49092
G1 X122.090 Y123.956 E0.02365
G1 X122.090 Y108.299 E0.49092
G1 X122.844 Y108.299 E0.02365
G1 X122.844 Y123.956 E0.49092
G1 X123.598 Y123.956 E0.02365
G1 X123.598 Y108.299 E0.49092
G1 X124.352 Y108.299 E0.02365
G1 X124.352 Y123.956 E0.49092
G1 X125.107 Y123.956 E0.02365
G1 X125.107 Y108.299 E0.49092
G1 X125.861 Y108.299 E0.02365
G1 X125.861 Y123.956 E0.49092
G1 X126.615 Y123.956 E0.02365
G1 X126.615 Y108.299 E0.49092
G1 X127.369 Y108.299 E0.02365
G1 X127.369 Y123.956 E0.49092
G1 X128.123 Y123.956 E0.02365
G1 X128.123 Y108.299 E0.49092
G1 X128.877 Y108.299 E0.02365
G1 X128.877 Y123.956 E0.49092
G1 X129.632 Y123.956 E0.02365
G1 X129.632 Y108.299 E0.49092
G1 X130.386 Y108.299 E0.02365
G1 X130.386 Y123.956 E0.49092
G1 X131.140 Y123.956 E0.02365
G1 X131.140 Y108.299 E0.49092
G1 X131.894 Y108.299 E0.02365
G1 X131.894 Y123.956 E0.49092
G1 X132.648 Y123.956 E0.02365
G1 X132.648 Y108.299 E0.49092
G1 X133.402 Y108.299 E0.02365
G1 X133.402 Y123.956 E0.49092
G1 X134.156 Y123.956 E0.02365
G1 X134.156 Y108.299 E0.49092
G1 X134.911 Y108.299 E0.02365
G1 X134.911 Y123.956 E0.49092
G1 X135.665 Y123.956 E0.02365
G1 X135.665 Y108.299 E0.49092
G1 X136.419 Y108.299 E0.02365
G1 X136.419 Y124.126 E0.49624
G1 F5760
G1 X136.419 Y121.932 E-0.76000
G1 E-0.04000 F2100.00000
G1 X113.988 Y77.965 F7200.000
G1 X112.114 Y84.621 F7200.000
G1 E0.80000 F2100.00000
G1 F1800
G1 X137.886 Y84.621 E0.80807
G1 X137.886 Y125.379 E1.27795
G1 X112.114 Y125.379 E0.80807
G1 X112.114 Y84.681 E1.27607
G1 X112.491 Y84.998 F7200.000
G1 F1800
G1 X137.509 Y84.998 E0.78443
G1 X137.509 Y125.002 E1.25430
G1 X112.491 Y125.002 E0.78443
G1 X112.491 Y85.058 E1.25242
G1 X112.868 Y85.375 F7200.000
G1 F1800
G1 X137.132 Y85.375 E0.76078
G1 X137.132 Y124.625 E1.23066
G1 X112.868 Y124.625 E0.76078
G1 X112.868 Y85.435 E1.22877
G1 X112.795 Y84.982 F7200.000
G1 F5760
G1 X115.062 Y85.430 E-0.76000
G1 E-0.04000 F2100.00000
G1 X100.675 Y83.398 F7200.000
G1 E0.80000 F2100.00000
G1 F1800
G1 X114.255 Y80.929 E0.43277
G1 X135.745 Y80.929 E0.67380
G1 X149.325 Y83.398 E0.43277
G1 X149.325 Y126.602 E1.35462
G1 X144.697 Y127.443 E0.14748
G1 X105.303 Y127.443 E1.23518
G1 X100.675 Y126.602 E0.14748
G1 X100.675 Y83.458 E1.35273
G1 X100.298 Y83.084 F7200.000
G1 F1800
G1 X114.221 Y80.552 E0.44370
G1 X135.779 Y80.552 E0.67593
G1 X149.702 Y83.084 E0.44370
G1 X149.702 Y126.916 E1.37435
G1 X144.731 Y127.820 E0.15841
G1 X105.269 Y127.820 E1.23731
G1 X100.298 Y126.916 E0.15841
G1 X100.298 Y83.144 E1.37247
G1 X99.921 Y82.769 F7200.000
G1 F1800
G1 X114.187 Y80.175 E0.45464
G1 X135.813 Y80.175 E0.67806
G1 X150.079 Y82.769 E0.45464
G1 X150.079 Y127.231 E1.39409
G1 X144.765 Y128.197 E0.16934
G1 X105.235 Y128.197 E1.23944
G1 X99.921 Y127.231 E0.16934
G1 X99.921 Y82.829 E1.39220
G1 X100.295 Y82.912 F7200.000
G1 F5760
G1 X102.078 Y82.428 E-0.76000
G1 E-0.04000 F2100.00000
G1 X137.686 Y84.508 F7200.000
G1 E0.80000 F2100.00000
G1 F1800
G1 X134.390 Y81.212 E0.14665
G1 X133.855 Y81.212 E0.01684
G1 X136.981 Y84.338 E0.13910
G1 X136.446 Y84.338 E0.01684
G1 X133.320 Y81.212 E0.13910
G1 X132.785 Y81.212 E0.01684
G1 X135.911 Y84.338 E0.13910
G1 X135.376 Y84.338 E0.01684
G1 X132.250 Y81.212 E0.13910
G1 X131.714 Y81.212 E0.01684
G1 X134.840 Y84.338 E0.13910
G1 X134.305 Y84.338 E0.01684
G1 X131.179 Y81.212 E0.13910
G1 X130.644 Y81.212 E0.01684
G1 X133.770 Y84.338 E0.13910
G1 X133.235 Y84.338 E0.01684
G1 X130.109 Y81.212 E0.13910
G1 X129.574 Y81.212 E0.01684
G1 X132.700 Y84.338 E0.13910
G1 X132.165 Y84.338 E0.01684
G1 X129.039 Y81.212 E0.13910
G1 X128.504 Y81.212 E0.01684
G1 X131.630 Y84.338 E0.13910
G1 X131.095 Y84.338 E0.01684
G1 X127.968 Y81.212 E0.13910
G1 X127.433 Y81.212 E0.01684
G1 X130.559 Y84.338 E0.13910
G1 X130.024 Y84.338 E0.01684
G1 X126.898 Y81.212 E0.13910
G1 X126.363 Y81.212 E0.01684
G1 X129.489 Y84.338 E0.13910
G1 X128.954 Y84.338 E0.01684
G1 X125.828 Y81.212 E0.13910
G1 X125.293 Y81.212 E0.01684
G1 X128.419 Y84.338 E0.13910
G1 X127.884 Y84.338 E0.01684
G1 X124.758 Y81.212 E0.13910
G1 X124.223 Y81.212 E0.01684
G1 X127.349 Y84.338 E0.13910
G1 X126.814 Y84.338 E0.01684
G1 X123.687 Y81.212 E0.13910
G1 X123.152 Y81.212 E0.01684
G1 X126.278 Y84.338 E0.13910
G1 X125.743 Y84.338 E0.01684
G1 X122.617 Y81.212 E0.13910
G1 X122.082 Y81.212 E0.01684
G1 X125.208 Y84.338 E0.13910
G1 X124.673 Y84.338 E0.01684
G1 X121.547 Y81.212 E0.13910
G1 X121.012 Y81.212 E0.01684
G1 X124.138 Y84.338 E0.13910
G1 X123.603 Y84.338 E0.01684
G1 X120.477 Y81.212 E0.13910
G1 X119.942 Y81.212 E0.01684
G1 X123.068 Y84.338 E0.13910
G1 X122.532 Y84.338 E0.01684
G1 X119.406 Y81.212 E0.13910
G1 X118.871 Y81.212 E0.01684
G1 X121.997 Y84.338 E0.13910
G1 X121.462 Y84.338 E0.01684
G1 X118.336 Y81.212 E0.13910
G1 X117.801 Y81.212 E0.01684
G1 X120.927 Y84.338 E0.13910
G1 X120.392 Y84.338 E0.01684
G1 X117.266 Y81.212 E0.13910
G1 X116.731 Y81.212 E0.01684
G1 X119.857 Y84.338 E0.13910
G1 X119.322 Y84.338 E0.01684
G1 X116.196 Y81.212 E0.13910
G1 X115.660 Y81.212 E0.01684
G1 X118.787 Y84.338 E0.13910
G1 X118.251 Y84.338 E0.01684
G1 X115.125 Y81.212 E0.13910
G1 X114.590 Y81.212 E0.01684
G1 X117.716 Y84.338 E0.13910
G1 X117.181 Y84.338 E0.01684
G1 X114.090 Y81.247 E0.13756
G1 X113.637 Y81.329 E0.01448
G1 X116.646 Y84.338 E0.13389
G1 X116.111 Y84.338 E0.01684
G1 X113.184 Y81.411 E0.13023
G1 X112.731 Y81.494 E0.01448
G1 X115.576 Y84.338 E0.12657
G1 X115.041 Y84.338 E0.01684
G1 X112.279 Y81.576 E0.12290
G1 X111.826 Y81.658 E0.01448
G1 X114.506 Y84.338 E0.11924
G1 X113.970 Y84.338 E0.01684
G1 X111.373 Y81.741 E0.11558
G1 X110.920 Y81.823 E0.01448
G1 X113.435 Y84.338 E0.11191
G1 X112.900 Y84.338 E0.01684
G1 X110.467 Y81.905 E0.10825
G1 X110.015 Y81.988 E0.01448
G1 X112.365 Y84.338 E0.10459
G1 X111.831 Y84.339 E0.01680
G1 X109.562 Y82.070 E0.10098
G1 X109.109 Y82.152 E0.01448
G1 X111.831 Y84.874 E0.12112
G1 X111.831 Y85.409 E0.01684
G1 X108.656 Y82.235 E0.14127
G1 X108.203 Y82.317 E0.01448
G1 X111.831 Y85.945 E0.16142
G1 X111.831 Y86.480 E0.01684
G1 X107.751 Y82.399 E0.18157
G1 X107.298 Y82.482 E0.01448
G1 X111.831 Y87.015 E0.20172
G1 X111.831 Y87.550 E0.01684
G1 X106.845 Y82.564 E0.22186
G1 X106.392 Y82.646 E0.01448
G1 X111.831 Y88.085 E0.24201
G1 X111.831 Y88.620 E0.01684
G1 X105.939 Y82.729 E0.26216
G1 X105.487 Y82.811 E0.01448
G1 X111.831 Y89.155 E0.28231
G1 X111.831 Y89.691 E0.01684
G1 X105.034 Y82.893 E0.30246
G1 X104.581 Y82.976 E0.01448
G1 X111.831 Y90.226 E0.32260
G1 X111.831 Y90.761 E0.01684
G1 X104.128 Y83.058 E0.34275
G1 X103.675 Y83.140 E0.01448
G1 X111.831 Y91.296 E0.36290
G1 X111.831 Y91.831 E0.01684
G1 X103.223 Y83.223 E0.38305
G1 X102.770 Y83.305 E0.01448
G1 X111.831 Y92.366 E0.40320
G1 X111.831 Y92.901 E0.01684
G1 X102.317 Y83.387 E0.42334
G1 X101.864 Y83.469 E0.01448
G1 X111.831 Y93.436 E0.44349
G1 X111.831 Y93.972 E0.01684
G1 X101.411 Y83.552 E0.46364
G1 X100.959 Y83.634 E0.01448
G1 X111.831 Y94.507 E0.48379
G1 X111.831 Y95.042 E0.01684
G1 X100.958 Y84.169 E0.48381
G1 X100.958 Y84.704 E0.01684
G1 X111.831 Y95.577 E0.48381
G1 X111.831 Y96.112 E0.01684
G1 X100.958 Y85.239 E0.48381
G1 X100.958 Y85.774 E0.01684
G1 X111.831 Y96.647 E0.48381
G1 X111.831 Y97.182 E0.01684
G1 X100.958 Y86.309 E0.48381
G1 X100.958 Y86.844 E0.01684
G1 X111.831 Y97.717 E0.48381
G1 X111.831 Y98.253 E0.01684
G1 X100.958 Y87.379 E0.48381
G1 X100.958 Y87.915 E0.01684
G1 X111.831 Y98.788 E0.48381
G1 X111.831 Y99.323 E0.01684
G1 X100.958 Y88.450 E0.48381
G1 X100.958 Y88.985 E0.01684
G1 X111.831 Y99.858 E0.48381
G1 X111.831 Y100.393 E0.01684
G1 X100.958 Y89.520 E0.48381
G1 X100.958 Y90.055 E0.01684
G1 X111.831 Y100.928 E0.48381
G1 X111.831 Y101.463 E0.01684
G1 X100.958 Y90.590 E0.48381
G1 X100.958 Y91.125 E0.01684
G1 X111.831 Y101.999 E0.48381
G1 X111.831 Y102.534 E0.01684
G1 X100.958 Y91.661 E0.48381
G1 X100.958 Y92.196 E0.01684
G1 X111.831 Y103.069 E0.48381
G1 X111.831 Y103.604 E0.01684
G1 X100.958 Y92.731 E0.48381
G1 X100.958 Y93.266 E0.01684
G1 X111.831 Y104.139 E0.48381
G1 X111.831 Y104.674 E0.01684
G1 X100.958 Y93.801 E0.48381
G1 X100.958 Y94.336 E0.01684
G1 X111.831 Y105.209 E0.48381
G1 X111.831 Y105.744 E0.01684
G1 X100.958 Y94.871 E0.48381
G1 X100.958 Y95.406 E0.01684
G1 X111.831 Y106.280 E0.48381
G1 X111.831 Y106.815 E0.01684
G1 X100.958 Y95.942 E0.48381
G1 X100.958 Y96.477 E0.01684
G1 X111.831 Y107.350 E0.48381
G1 X111.831 Y107.885 E0.01684
G1 X100.958 Y97.012 E0.48381
G1 X100.958 Y97.547 E0.01684
G1 X111.831 Y108.420 E0.48381
G1 X111.831 Y108.955 E0.01684
G1 X100.958 Y98.082 E0.48381
G1 X100.958 Y98.617 E0.01684
G1 X111.831 Y109.490 E0.48381
G1 X111.831 Y110.025 E0.01684
G1 X100.958 Y99.152 E0.48381
G1 X100.958 Y99.687 E0.01684
G1 X111.831 Y110.561 E0.48381
G1 X111.831 Y111.096 E0.01684
G1 X100.958 Y100.223 E0.48381
G1 X100.958 Y100.758 E0.01684
G1 X111.831 Y111.631 E0.48381
G1 X111.831 Y112.166 E0.01684
G1 X100.958 Y101.293 E0.48381
G1 X100.958 Y101.828 E0.01684
G1 X111.831 Y112.701 E0.48381
G1 X111.831 Y113.236 E0.01684
G1 X100.958 Y102.363 E0.48381
G1 X100.958 Y102.898 E0.01684
G1 X111.831 Y113.771 E0.48381
G1 X111.831 Y114.306 E0.01684
G1 X100.958 Y103.433 E0.48381
G1 X100.958 Y103.969 E0.01684
G1 X111.831 Y114.842 E0.48381
G1 X111.831 Y115.377 E0.01684
G1 X100.958 Y104.504 E0.48381
G1 X100.958 Y105.039 E0.01684
G1 X111.831 Y115.912 E0.48381
G1 X111.831 Y116.447 E0.01684
G1 X100.958 Y105.574 E0.48381
G1 X100.958 Y106.109 E0.01684
G1 X111.831 Y116.982 E0.48381
G1 X111.831 Y117.517 E0.01684
G1 X100.958 Y106.644 E0.48381
G1 X100.958 Y107.179 E0.01684
G1 X111.831 Y118.052 E0.48381
G1 X111.831 Y118.588 E0.01684
G1 X100.958 Y107.714 E0.48381
G1 X100.958 Y108.250 E0.01684
G1 X111.831 Y119.123 E0.48381
G1 X111.831 Y119.658 E0.01684
G1 X100.958 Y108.785 E0.48381
G1 X100.958 Y109.320 E0.01684
G1 X111.831 Y120.193 E0.48381
G1 X111.831 Y120.728 E0.01684
G1 X100.958 Y109.855 E0.48381
G1 X100.958 Y110.390 E0.01684
G1 X111.831 Y121.263 E0.48381
G1 X111.831 Y121.798 E0.01684
G1 X100.958 Y110.925 E0.48381
G1 X100.958 Y111.460 E0.01684
G1 X111.831 Y122.333 E0.48381
G1 X111.831 Y122.869 E0.01684
G1 X100.958 Y111.995 E0.48381
G1 X100.958 Y112.531 E0.01684
G1 X111.831 Y123.404 E0.48381
G1 X111.831 Y123.939 E0.01684
G1 X100.958 Y113.066 E0.48381
G1 X100.958 Y113.601 E0.01684
G1 X111.831 Y124.474 E0.48381
G1 X111.831 Y125.009 E0.01684
G1 X100.958 Y114.136 E0.48381
G1 X100.958 Y114.671 E0.01684
G1 X113.447 Y127.160 E0.55573
G1 X112.912 Y127.160 E0.01684
G1 X100.958 Y115.206 E0.53191
G1 X100.958 Y115.741 E0.01684
G1 X112.377 Y127.160 E0.50810
G1 X111.842 Y127.160 E0.01684
G1 X100.958 Y116.277 E0.48429
G1 X100.958 Y116.812 E0.01684
G1 X111.307 Y127.160 E0.46048
G1 X110.772 Y127.160 E0.01684
G1 X100.958 Y117.347 E0.43667
G1 X100.958 Y117.882 E0.01684
G1 X110.236 Y127.160 E0.41286
G1 X109.701 Y127.160 E0.01684
G1 X100.958 Y118.417 E0.38905
G1 X100.958 Y118.952 E0.01684
G1 X109.166 Y127.160 E0.36524
G1 X108.631 Y127.160 E0.01684
G1 X100.958 Y119.487 E0.34142
G1 X100.958 Y120.022 E0.01684
G1 X108.096 Y127.160 E0.31761
G1 X107.561 Y127.160 E0.01684
G1 X100.958 Y120.558 E0.29380
G1 X100.958 Y121.093 E0.01684
G1 X107.026 Y127.160 E0.26999
G1 X106.491 Y127.160 E0.01684
G1 X100.958 Y121.628 E0.24618
G1 X100.958 Y122.163 E0.01684
G1 X105.955 Y127.160 E0.22237
G1 X105.420 Y127.160 E0.01684
G1 X100.958 Y122.698 E0.19856
G1 X100.958 Y123.233 E0.01684
G1 X104.787 Y127.062 E0.17036
G1 X104.133 Y126.943 E0.02092
G1 X100.958 Y123.768 E0.14126
G1 X100.958 Y124.303 E0.01684
G1 X103.479 Y126.824 E0.11216
G1 X102.824 Y126.705 E0.02092
G1 X100.958 Y124.839 E0.08305
G1 X100.958 Y125.374 E0.01684
G1 X102.170 Y126.586 E0.05395
G1 X101.516 Y126.467 E0.02092
G1 X100.788 Y125.739 E0.03240
G1 F5760
G1 X101.516 Y126.467 E-0.35665
G1 F5760
G1 X102.170 Y126.586 E-0.23025
G1 F5760
G1 X101.817 Y126.233 E-0.17310
G1 E-0.04000 F2100.00000
G1 X112.314 Y125.492 F7200.000
G1 E0.80000 F2100.00000
