; generated by Slic3r 1.37.2-prusa3d-win64 on 2018-01-10 at 19:32:31

; 

; external perimeters extrusion width = 0.45mm
; perimeters extrusion width = 0.45mm
; infill extrusion width = 0.45mm
; solid infill extrusion width = 0.45mm
; top infill extrusion width = 0.40mm
; support material extrusion width = 0.35mm
; first layer extrusion width = 0.42mm

M107
M115 U3.1.0 ; tell printer latest fw version
M83  ; extruder relative mode
M104 S150
M140 S55 ; set bed temp
G28 W ; home all without mesh bed level
G1 X125 Z80 F1000
M190 S55 ; wait for bed temp
M104 S215 ; set extruder temp
G80 ; mesh bed leveling
M109 S215 ; wait for extruder temp
G1 Y-3.0 F1000.0 ; go outside print area
G92 E0.0
G1 X60.0 E9.0  F1000.0 ; intro line
G1 X100.0 E12.5  F1000.0 ; intro line
G92 E0.0
M900 K30 ; Filament gcode
G21 ; set units to millimeters
G90 ; use absolute coordinates
M83 ; use relative distances for extrusion
;BEFORE_LAYER_CHANGE
;0.2


G1 E-0.80000 F2100.00000
G1 Z0.200 F7200.000
;AFTER_LAYER_CHANGE
;0.2
G1 X97.401 Y79.776 F7200.000
G1 E0.80000 F2100.00000
M204 S1000
G1 F1800
G1 X98.196 Y79.438 E0.02708
G1 X113.849 Y76.599 E0.49879
G1 X135.926 Y76.588 E0.69221
G1 X151.867 Y79.453 E0.50783
G1 X152.423 Y79.670 E0.01870
G1 X152.910 Y80.020 E0.01882
G1 X153.294 Y80.482 E0.01882
G1 X153.549 Y81.021 E0.01870
G1 X153.666 Y81.755 E0.02331
G1 X153.666 Y128.256 E1.45801
G1 X153.549 Y128.979 E0.02296
G1 X153.217 Y129.632 E0.02296
G1 X152.650 Y130.190 E0.02496
G1 X151.930 Y130.530 E0.02496
G1 X146.640 Y131.468 E0.16845
G1 X103.323 Y131.467 E1.35815
G1 X98.211 Y130.565 E0.16277
G1 X97.748 Y130.414 E0.01526
G1 X97.323 Y130.171 E0.01538
G1 X96.913 Y129.796 E0.01740
G1 X96.602 Y129.337 E0.01740
G1 X96.405 Y128.818 E0.01740
G1 X96.334 Y128.268 E0.01740
G1 X96.334 Y81.736 E1.45897
G1 X96.451 Y81.021 E0.02272
G1 X96.781 Y80.371 E0.02284
G1 X97.358 Y79.817 E0.02508
G1 F5760
G1 X98.196 Y79.438 E-0.31862
G1 F5760
G1 X99.450 Y79.211 E-0.44138
G1 E-0.04000 F2100.00000
G1 X114.548 Y93.635 F7200.000
G1 E0.80000 F2100.00000
G1 F1800
G1 X114.548 Y87.044 E0.20667
G1 X115.302 Y87.044 E0.02365
G1 X115.302 Y93.465 E0.20135
G1 X116.057 Y93.465 E0.02365
G1 X116.057 Y87.044 E0.20135
G1 X116.811 Y87.044 E0.02365
G1 X116.811 Y93.465 E0.20135
G1 X117.565 Y93.465 E0.02365
G1 X117.565 Y87.044 E0.20135
G1 X118.319 Y87.044 E0.02365
G1 X118.319 Y93.465 E0.20135
G1 X119.073 Y93.465 E0.02365
G1 X119.073 Y87.044 E0.20135
G1 X119.827 Y87.044 E0.02365
G1 X119.827 Y93.465 E0.20135
G1 X120.582 Y93.465 E0.02365
G1 X120.582 Y87.044 E0.20135
G1 X121.336 Y87.044 E0.02365
G1 X121.336 Y93.465 E0.20135
G1 X122.090 Y93.465 E0.02365
G1 X122.090 Y87.044 E0.20135
G1 X122.844 Y87.044 E0.02365
G1 X122.844 Y93.465 E0.20135
G1 X123.598 Y93.465 E0.02365
G1 X123.598 Y87.044 E0.20135
G1 X124.352 Y87.044 E0.02365
G1 X124.352 Y93.465 E0.20135
G1 X125.107 Y93.465 E0.02365
G1 X125.107 Y87.044 E0.20135
G1 X125.861 Y87.044 E0.02365
G1 X125.861 Y93.465 E0.20135
G1 X126.615 Y93.465 E0.02365
G1 X126.615 Y87.044 E0.20135
G1 X127.369 Y87.044 E0.02365
G1 X127.369 Y93.465 E0.20135
G1 X128.123 Y93.465 E0.02365
G1 X128.123 Y87.044 E0.20135
G1 X128.877 Y87.044 E0.02365
G1 X128.877 Y93.465 E0.20135
G1 X129.632 Y93.465 E0.02365
G1 X129.632 Y87.044 E0.20135
G1 X130.386 Y87.044 E0.02365
G1 X130.386 Y93.465 E0.20135
G1 X131.140 Y93.465 E0.02365
G1 X131.140 Y87.044 E0.20135
G1 X131.894 Y87.044 E0.02365
G1 X131.894 Y93.465 E0.20135
G1 X132.648 Y93.465 E0.02365
G1 X132.648 Y87.044 E0.20135
G1 X133.402 Y87.044 E0.02365
G1 X133.402 Y93.465 E0.20135
G1 X134.156 Y93.465 E0.02365
G1 X134.156 Y87.044 E0.20135
G1 X134.911 Y87.044 E0.02365
G1 X134.911 Y93.635 E0.20667
G1 F5760
G1 X134.911 Y91.441 E-0.76000
G1 E-0.04000 F2100.00000
G1 X147.597 Y130.945 F7200.000
G1 X134.911 Y123.126 F7200.000
G1 E0.80000 F2100.00000
G1 F1800
G1 X134.911 Y108.299 E0.46489
G1 X134.156 Y108.299 E0.02365
G1 X134.156 Y122.956 E0.45957
G1 X133.402 Y122.956 E0.02365
G1 X133.402 Y108.299 E0.45957
G1 X132.648 Y108.299 E0.02365
G1 X132.648 Y122.956 E0.45957
G1 X131.894 Y122.956 E0.02365
G1 X131.894 Y108.299 E0.45957
G1 X131.140 Y108.299 E0.02365
G1 X131.140 Y122.956 E0.45957
G1 X130.386 Y122.956 E0.02365
G1 X130.386 Y108.299 E0.45957
G1 X129.632 Y108.299 E0.02365
G1 X129.632 Y122.956 E0.45957
G1 X128.877 Y122.956 E0.02365
G1 X128.877 Y108.299 E0.45957
G1 X128.123 Y108.299 E0.02365
G1 X128.123 Y122.956 E0.45957
G1 X127.369 Y122.956 E0.02365
G1 X127.369 Y108.299 E0.45957
G1 X126.615 Y108.299 E0.02365
G1 X126.615 Y122.956 E0.45957
G1 X125.861 Y122.956 E0.02365
G1 X125.861 Y108.299 E0.45957
G1 X125.107 Y108.299 E0.02365
G1 X125.107 Y122.956 E0.45957
G1 X124.352 Y122.956 E0.02365
G1 X124.352 Y108.299 E0.45957
G1 X123.598 Y108.299 E0.02365
G1 X123.598 Y122.956 E0.45957
G1 X122.844 Y122.956 E0.02365
G1 X122.844 Y108.299 E0.45957
G1 X122.090 Y108.299 E0.02365
G1 X122.090 Y122.956 E0.45957
G1 X121.336 Y122.956 E0.02365
G1 X121.336 Y108.299 E0.45957
G1 X120.582 Y108.299 E0.02365
G1 X120.582 Y122.956 E0.45957
G1 X119.827 Y122.956 E0.02365
G1 X119.827 Y108.299 E0.45957
G1 X119.073 Y108.299 E0.02365
G1 X119.073 Y122.956 E0.45957
G1 X118.319 Y122.956 E0.02365
G1 X118.319 Y108.299 E0.45957
G1 X117.565 Y108.299 E0.02365
G1 X117.565 Y122.956 E0.45957
G1 X116.811 Y122.956 E0.02365
G1 X116.811 Y108.299 E0.45957
G1 X116.057 Y108.299 E0.02365
G1 X116.057 Y122.956 E0.45957
G1 X115.302 Y122.956 E0.02365
G1 X115.302 Y108.299 E0.45957
G1 X114.548 Y108.299 E0.02365
G1 X114.548 Y123.126 E0.46489
G1 F5760
G1 X114.548 Y120.932 E-0.76000
G1 E-0.04000 F2100.00000
G1 X113.898 Y76.965 F7200.000
G1 X113.114 Y85.621 F7200.000
G1 E0.80000 F2100.00000
G1 F1800
G1 X136.886 Y85.621 E0.74536
G1 X136.886 Y124.379 E1.21524
G1 X113.114 Y124.379 E0.74536
G1 X113.114 Y85.681 E1.21336
G1 X113.491 Y85.998 F7200.000
G1 F1800
G1 X136.509 Y85.998 E0.72172
G1 X136.509 Y124.002 E1.19159
G1 X113.491 Y124.002 E0.72172
G1 X113.491 Y86.058 E1.18971
G1 X113.868 Y86.375 F7200.000
G1 F1800
G1 X136.132 Y86.375 E0.69807
G1 X136.132 Y123.625 E1.16795
G1 X113.868 Y123.625 E0.69807
G1 X113.868 Y86.435 E1.16607
G1 X113.797 Y85.981 F7200.000
G1 F5760
G1 X116.062 Y86.429 E-0.76000
G1 E-0.04000 F2100.00000
G1 X99.675 Y82.564 F7200.000
G1 E0.80000 F2100.00000
G1 F1800
G1 X114.165 Y79.929 E0.46177
G1 X135.835 Y79.929 E0.67945
G1 X150.325 Y82.564 E0.46177
G1 X150.325 Y127.436 E1.40695
G1 X147.330 Y127.981 E0.09545
G1 X102.670 Y127.981 E1.40026
G1 X99.675 Y127.436 E0.09545
G1 X99.675 Y82.624 E1.40507
G1 X99.298 Y82.249 F7200.000
G1 F1800
G1 X114.131 Y79.552 E0.47270
G1 X135.869 Y79.552 E0.68158
G1 X150.702 Y82.249 E0.47270
G1 X150.702 Y127.751 E1.42669
G1 X147.364 Y128.358 E0.10639
G1 X102.636 Y128.358 E1.40239
G1 X99.298 Y127.751 E0.10639
G1 X99.298 Y82.309 E1.42480
G1 X98.921 Y81.934 F7200.000
G1 F1800
G1 X114.097 Y79.175 E0.48363
G1 X135.903 Y79.175 E0.68372
G1 X151.079 Y81.934 E0.48363
G1 X151.079 Y128.066 E1.44642
G1 X147.398 Y128.735 E0.11732
G1 X102.602 Y128.735 E1.40452
G1 X98.921 Y128.066 E0.11732
G1 X98.921 Y81.994 E1.44454
G1 X99.293 Y82.082 F7200.000
G1 F5760
G1 X101.078 Y81.593 E-0.76000
G1 E-0.04000 F2100.00000
G1 X100.726 Y127.513 F7200.000
G1 E0.80000 F2100.00000
G1 F1800
G1 X99.958 Y126.744 E0.03417
G1 X99.958 Y126.209 E0.01681
G1 X101.169 Y127.421 E0.05385
G1 X101.823 Y127.539 E0.02088
G1 X99.958 Y125.675 E0.08291
G1 X99.958 Y125.140 E0.01681
G1 X102.476 Y127.658 E0.11196
G1 X102.696 Y127.698 E0.00702
G1 X103.051 Y127.698 E0.01116
G1 X99.958 Y124.605 E0.13751
G1 X99.958 Y124.071 E0.01681
G1 X103.586 Y127.698 E0.16128
G1 X104.120 Y127.698 E0.01681
G1 X99.958 Y123.536 E0.18506
G1 X99.958 Y123.001 E0.01681
G1 X104.655 Y127.698 E0.20883
G1 X105.190 Y127.698 E0.01681
G1 X99.958 Y122.466 E0.23260
G1 X99.958 Y121.932 E0.01681
G1 X105.724 Y127.698 E0.25638
G1 X106.259 Y127.698 E0.01681
G1 X99.958 Y121.397 E0.28015
G1 X99.958 Y120.862 E0.01681
G1 X106.794 Y127.698 E0.30392
G1 X107.328 Y127.698 E0.01681
G1 X99.958 Y120.328 E0.32769
G1 X99.958 Y119.793 E0.01681
G1 X107.863 Y127.698 E0.35147
G1 X108.398 Y127.698 E0.01681
G1 X99.958 Y119.258 E0.37524
G1 X99.958 Y118.724 E0.01681
G1 X108.933 Y127.698 E0.39901
G1 X109.467 Y127.698 E0.01681
G1 X99.958 Y118.189 E0.42279
G1 X99.958 Y117.654 E0.01681
G1 X110.002 Y127.698 E0.44656
G1 X110.537 Y127.698 E0.01681
G1 X99.958 Y117.119 E0.47033
G1 X99.958 Y116.585 E0.01681
G1 X111.071 Y127.698 E0.49410
G1 X111.606 Y127.698 E0.01681
G1 X99.958 Y116.050 E0.51788
G1 X99.958 Y115.515 E0.01681
G1 X112.141 Y127.698 E0.54165
G1 X112.675 Y127.698 E0.01681
G1 X99.958 Y114.981 E0.56542
G1 X99.958 Y114.446 E0.01681
G1 X113.210 Y127.698 E0.58920
G1 X113.745 Y127.698 E0.01681
G1 X99.958 Y113.911 E0.61297
G1 X99.958 Y113.377 E0.01681
G1 X114.280 Y127.698 E0.63674
G1 X114.814 Y127.698 E0.01681
G1 X99.958 Y112.842 E0.66051
G1 X99.958 Y112.307 E0.01681
G1 X115.519 Y127.868 E0.69183
G1 F5760
G1 X113.967 Y126.316 E-0.76000
G1 E-0.04000 F2100.00000
G1 X113.078 Y126.180 F7200.000
G1 X136.922 Y126.180 F7200.000
G1 X140.452 Y124.415 F7200.000
G1 X143.606 Y121.262 F7200.000
G1 X143.606 Y88.171 F7200.000
G1 X150.212 Y98.932 F7200.000
G1 E0.80000 F2100.00000
G1 F1800
G1 X137.169 Y85.889 E0.57989
G1 X137.169 Y86.424 E0.01681
G1 X150.042 Y99.297 E0.57234
G1 X150.042 Y99.832 E0.01681
G1 X137.169 Y86.958 E0.57234
G1 X137.169 Y87.493 E0.01681
G1 X150.042 Y100.366 E0.57234
G1 X150.042 Y100.901 E0.01681
G1 X137.169 Y88.028 E0.57234
G1 X137.169 Y88.563 E0.01681
G1 X150.042 Y101.436 E0.57234
G1 X150.042 Y101.970 E0.01681
G1 X137.169 Y89.097 E0.57234
G1 X137.169 Y89.632 E0.01681
G1 X150.042 Y102.505 E0.57234
G1 X150.042 Y103.040 E0.01681
G1 X137.169 Y90.167 E0.57234
G1 X137.169 Y90.701 E0.01681
G1 X150.042 Y103.574 E0.57234
G1 X150.042 Y104.109 E0.01681
G1 X137.169 Y91.236 E0.57234
G1 X137.169 Y91.771 E0.01681
G1 X150.042 Y104.644 E0.57234
G1 X150.042 Y105.179 E0.01681
G1 X137.169 Y92.305 E0.57234
G1 X137.169 Y92.840 E0.01681
G1 X150.042 Y105.713 E0.57234
G1 X150.042 Y106.248 E0.01681
G1 X137.169 Y93.375 E0.57234
G1 X137.169 Y93.910 E0.01681
G1 X150.042 Y106.783 E0.57234
G1 X150.042 Y107.317 E0.01681
G1 X137.169 Y94.444 E0.57234
G1 X137.169 Y94.979 E0.01681
G1 X150.042 Y107.852 E0.57234
G1 X150.042 Y108.387 E0.01681
G1 X137.169 Y95.514 E0.57234
G1 X137.169 Y96.048 E0.01681
G1 X150.042 Y108.921 E0.57234
G1 X150.042 Y109.456 E0.01681
G1 X137.169 Y96.583 E0.57234
G1 X137.169 Y97.118 E0.01681
G1 X150.042 Y109.991 E0.57234
G1 X150.042 Y110.526 E0.01681
G1 X137.169 Y97.652 E0.57234
G1 X137.169 Y98.187 E0.01681
G1 X150.042 Y111.060 E0.57234
G1 X150.042 Y111.595 E0.01681
G1 X137.169 Y98.722 E0.57234
G1 X137.169 Y99.257 E0.01681
G1 X150.042 Y112.130 E0.57234
G1 X150.042 Y112.664 E0.01681
G1 X137.169 Y99.791 E0.57234
G1 X137.169 Y100.326 E0.01681
G1 X150.042 Y113.199 E0.57234
G1 X150.042 Y113.734 E0.01681
G1 X137.169 Y100.861 E0.57234
G1 X137.169 Y101.395 E0.01681
G1 X150.042 Y114.268 E0.57234
G1 X150.042 Y114.803 E0.01681
G1 X137.169 Y101.930 E0.57234
G1 X137.169 Y102.465 E0.01681
G1 X150.042 Y115.338 E0.57234
G1 X150.042 Y115.873 E0.01681
G1 X137.169 Y102.999 E0.57234
G1 X137.169 Y103.534 E0.01681
G1 X150.042 Y116.407 E0.57234
G1 X150.042 Y116.942 E0.01681
G1 X137.169 Y104.069 E0.57234
G1 X137.169 Y104.604 E0.01681
G1 X150.042 Y117.477 E0.57234
G1 X150.042 Y118.011 E0.01681
G1 X137.169 Y105.138 E0.57234
G1 X137.169 Y105.673 E0.01681
G1 X150.042 Y118.546 E0.57234
G1 X150.042 Y119.081 E0.01681
G1 X137.169 Y106.208 E0.57234
G1 X137.169 Y106.742 E0.01681
G1 X150.042 Y119.615 E0.57234
G1 X150.042 Y120.150 E0.01681
G1 X137.169 Y107.277 E0.57234
G1 X137.169 Y107.812 E0.01681
G1 X150.042 Y120.685 E0.57234
G1 X150.042 Y121.220 E0.01681
G1 X137.169 Y108.346 E0.57234
G1 X137.169 Y108.881 E0.01681
G1 X150.042 Y121.754 E0.57234
G1 X150.042 Y122.289 E0.01681
G1 X137.169 Y109.416 E0.57234
G1 X137.169 Y109.950 E0.01681
G1 X150.042 Y122.824 E0.57234
G1 X150.042 Y123.358 E0.01681
G1 X137.169 Y110.485 E0.57234
G1 X137.169 Y111.020 E0.01681
G1 X150.042 Y123.893 E0.57234
G1 X150.042 Y124.428 E0.01681
G1 X137.169 Y111.555 E0.57234
G1 X137.169 Y112.089 E0.01681
G1 X150.042 Y124.962 E0.57234
G1 X150.042 Y125.497 E0.01681
G1 X137.169 Y112.624 E0.57234
G1 X137.169 Y113.159 E0.01681
G1 X150.042 Y126.032 E0.57234
G1 X150.042 Y126.566 E0.01681
G1 X137.169 Y113.693 E0.57234
G1 X137.169 Y114.228 E0.01681
G1 X150.042 Y127.101 E0.57234
G1 X150.042 Y127.200 E0.00312
G1 X149.674 Y127.267 E0.01178
G1 X137.169 Y114.763 E0.55596
G1 X137.169 Y115.297 E0.01681
G1 X149.221 Y127.350 E0.53584
G1 X148.769 Y127.432 E0.01446
G1 X137.169 Y115.832 E0.51573
G1 X137.169 Y116.367 E0.01681
G1 X148.316 Y127.514 E0.49561
G1 X147.864 Y127.596 E0.01446
G1 X137.169 Y116.902 E0.47550
G1 X137.169 Y117.436 E0.01681
G1 X147.411 Y127.679 E0.45538
G1 X147.304 Y127.698 E0.00343
G1 X146.896 Y127.698 E0.01283
G1 X137.169 Y117.971 E0.43247
G1 X137.169 Y118.506 E0.01681
G1 X146.361 Y127.698 E0.40870
G1 X145.827 Y127.698 E0.01681
G1 X137.169 Y119.040 E0.38493
G1 X137.169 Y119.575 E0.01681
G1 X145.292 Y127.698 E0.36116
G1 X144.757 Y127.698 E0.01681
G1 X137.169 Y120.110 E0.33738
G1 X137.169 Y120.644 E0.01681
G1 X144.223 Y127.698 E0.31361
G1 X143.688 Y127.698 E0.01681
G1 X137.169 Y121.179 E0.28984
G1 X137.169 Y121.714 E0.01681
G1 X143.153 Y127.698 E0.26606
G1 X142.619 Y127.698 E0.01681
G1 X137.169 Y122.249 E0.24229
G1 X137.169 Y122.783 E0.01681
G1 X142.084 Y127.698 E0.21852
G1 X141.549 Y127.698 E0.01681
G1 X137.169 Y123.318 E0.19474
G1 X137.169 Y123.853 E0.01681
G1 X141.014 Y127.698 E0.17097
G1 X140.480 Y127.698 E0.01681
G1 X137.169 Y124.387 E0.14720
G1 X137.169 Y124.662 E0.00863
G1 X136.909 Y124.662 E0.00818
G1 X139.945 Y127.698 E0.13499
G1 X139.410 Y127.698 E0.01681
G1 X136.374 Y124.662 E0.13499
G1 X135.839 Y124.662 E0.01681
G1 X138.876 Y127.698 E0.13499
G1 X138.341 Y127.698 E0.01681
G1 X135.305 Y124.662 E0.13499
G1 X134.770 Y124.662 E0.01681
G1 X137.806 Y127.698 E0.13499
G1 X137.272 Y127.698 E0.01681
G1 X134.235 Y124.662 E0.13499
G1 X133.701 Y124.662 E0.01681
G1 X136.737 Y127.698 E0.13499
G1 X136.202 Y127.698 E0.01681
G1 X133.166 Y124.662 E0.13499
G1 X132.631 Y124.662 E0.01681
G1 X135.667 Y127.698 E0.13499
G1 X135.133 Y127.698 E0.01681
G1 X132.097 Y124.662 E0.13499
G1 X131.562 Y124.662 E0.01681
G1 X134.598 Y127.698 E0.13499
G1 X134.063 Y127.698 E0.01681
G1 X131.027 Y124.662 E0.13499
G1 X130.492 Y124.662 E0.01681
G1 X133.529 Y127.698 E0.13499
G1 X132.994 Y127.698 E0.01681
G1 X129.958 Y124.662 E0.13499
G1 X129.423 Y124.662 E0.01681
G1 X132.459 Y127.698 E0.13499
G1 X131.925 Y127.698 E0.01681
G1 X128.888 Y124.662 E0.13499
G1 X128.354 Y124.662 E0.01681
G1 X131.390 Y127.698 E0.13499
G1 X130.855 Y127.698 E0.01681
G1 X127.819 Y124.662 E0.13499
G1 X127.284 Y124.662 E0.01681
G1 X130.320 Y127.698 E0.13499
G1 X129.786 Y127.698 E0.01681
G1 X126.750 Y124.662 E0.13499
G1 X126.215 Y124.662 E0.01681
G1 X129.251 Y127.698 E0.13499
G1 X128.716 Y127.698 E0.01681
G1 X125.680 Y124.662 E0.13499
G1 X125.145 Y124.662 E0.01681
G1 X128.182 Y127.698 E0.13499
G1 X127.647 Y127.698 E0.01681
G1 X124.611 Y124.662 E0.13499
G1 X124.076 Y124.662 E0.01681
G1 X127.112 Y127.698 E0.13499
G1 X126.578 Y127.698 E0.01681
G1 X123.541 Y124.662 E0.13499
G1 X123.007 Y124.662 E0.01681
G1 X126.043 Y127.698 E0.13499
G1 X125.508 Y127.698 E0.01681
G1 X122.472 Y124.662 E0.13499
G1 X121.937 Y124.662 E0.01681
G1 X124.973 Y127.698 E0.13499
G1 X124.439 Y127.698 E0.01681
G1 X121.403 Y124.662 E0.13499
G1 X120.868 Y124.662 E0.01681
G1 X123.904 Y127.698 E0.13499
G1 X123.369 Y127.698 E0.01681
G1 X120.333 Y124.662 E0.13499
G1 X119.798 Y124.662 E0.01681
G1 X122.835 Y127.698 E0.13499
G1 X122.300 Y127.698 E0.01681
G1 X119.264 Y124.662 E0.13499
G1 X118.729 Y124.662 E0.01681
G1 X121.765 Y127.698 E0.13499
G1 X121.231 Y127.698 E0.01681
G1 X118.194 Y124.662 E0.13499
G1 X117.660 Y124.662 E0.01681
G1 X120.696 Y127.698 E0.13499
G1 X120.161 Y127.698 E0.01681
G1 X117.125 Y124.662 E0.13499
G1 X116.590 Y124.662 E0.01681
G1 X119.626 Y127.698 E0.13499
G1 X119.092 Y127.698 E0.01681
G1 X116.056 Y124.662 E0.13499
G1 X115.521 Y124.662 E0.01681
G1 X118.557 Y127.698 E0.13499
G1 X118.022 Y127.698 E0.01681
G1 X114.986 Y124.662 E0.13499
