; generated by Slic3r 1.37.2-prusa3d-win64 on 2018-01-22 at 20:38:32

; 

; external perimeters extrusion width = 0.45mm
; perimeters extrusion width = 0.45mm
; infill extrusion width = 0.45mm
; solid infill extrusion width = 0.45mm
; top infill extrusion width = 0.40mm
; support material extrusion width = 0.35mm
; first layer extrusion width = 0.42mm

M107
M115 U3.1.0 ; tell printer latest fw version
M83  ; extruder relative mode
M104 S150
M140 S75 ; set bed temp
G28 W ; home all without mesh bed level
G1 X125 Z80 F1000
M190 S75 ; wait for bed temp
M104 S230 ; set extruder temp
G80 ; mesh bed leveling
M109 S230 ; wait for extruder temp
G1 Y-3.0 F1000.0 ; go outside print area
G92 E0.0
G1 X60.0 E9.0  F1000.0 ; intro line
G1 X100.0 E12.5  F1000.0 ; intro line
G92 E0.0
M900 K45 ; Filament gcode
G21 ; set units to millimeters
G90 ; use absolute coordinates
M83 ; use relative distances for extrusion
;BEFORE_LAYER_CHANGE
;0.15


G1 E-0.80000 F2100.00000
G1 Z0.150 F7200.000
;AFTER_LAYER_CHANGE
;0.15
G1 X114.999 Y91.384 F7200.000
G1 E0.80000 F2100.00000
M204 S1000
G1 F1800
G1 X114.999 Y97.075 E0.13764
G1 X115.775 Y97.075 E0.01876
G1 X115.775 Y91.494 E0.13498
G1 X116.550 Y91.494 E0.01876
G1 X116.550 Y97.075 E0.13498
G1 X117.326 Y97.075 E0.01876
G1 X117.326 Y91.494 E0.13498
G1 X118.101 Y91.494 E0.01876
G1 X118.101 Y97.075 E0.13498
G1 X118.877 Y97.075 E0.01876
G1 X118.877 Y91.494 E0.13498
G1 X119.653 Y91.494 E0.01876
G1 X119.653 Y97.075 E0.13498
G1 X120.428 Y97.075 E0.01876
G1 X120.428 Y91.494 E0.13498
G1 X121.204 Y91.494 E0.01876
G1 X121.204 Y97.075 E0.13498
G1 X121.980 Y97.075 E0.01876
G1 X121.980 Y91.494 E0.13498
G1 X122.755 Y91.494 E0.01876
G1 X122.755 Y97.075 E0.13498
G1 X123.531 Y97.075 E0.01876
G1 X123.531 Y91.494 E0.13498
G1 X124.306 Y91.494 E0.01876
G1 X124.306 Y97.075 E0.13498
G1 X125.082 Y97.075 E0.01876
G1 X125.082 Y91.494 E0.13498
G1 X125.858 Y91.494 E0.01876
G1 X125.858 Y97.075 E0.13498
G1 X126.633 Y97.075 E0.01876
G1 X126.633 Y91.494 E0.13498
G1 X127.409 Y91.494 E0.01876
G1 X127.409 Y97.075 E0.13498
G1 X128.185 Y97.075 E0.01876
G1 X128.185 Y91.494 E0.13498
G1 X128.960 Y91.494 E0.01876
G1 X128.960 Y97.075 E0.13498
G1 X129.736 Y97.075 E0.01876
G1 X129.736 Y91.494 E0.13498
G1 X130.511 Y91.494 E0.01876
G1 X130.511 Y97.075 E0.13498
G1 X131.287 Y97.075 E0.01876
G1 X131.287 Y91.494 E0.13498
G1 X132.063 Y91.494 E0.01876
G1 X132.063 Y97.075 E0.13498
G1 X132.838 Y97.075 E0.01876
G1 X132.838 Y91.494 E0.13498
G1 X133.614 Y91.494 E0.01876
G1 X133.614 Y97.250 E0.13920
G1 F5760
G1 X133.614 Y95.055 E-0.76000
G1 E-0.04000 F2100.00000
G1 X113.890 Y138.750 F7200.000
G1 X114.999 Y114.149 F7200.000
G1 E0.80000 F2100.00000
G1 F1800
G1 X114.999 Y132.871 E0.45279
G1 X115.775 Y132.871 E0.01876
G1 X115.775 Y114.323 E0.44856
G1 X116.550 Y114.323 E0.01876
G1 X116.550 Y132.871 E0.44856
G1 X117.326 Y132.871 E0.01876
G1 X117.326 Y114.323 E0.44856
G1 X118.101 Y114.323 E0.01876
G1 X118.101 Y132.871 E0.44856
G1 X118.877 Y132.871 E0.01876
G1 X118.877 Y114.323 E0.44856
G1 X119.653 Y114.323 E0.01876
G1 X119.653 Y132.871 E0.44856
G1 X120.428 Y132.871 E0.01876
G1 X120.428 Y114.323 E0.44856
G1 X121.204 Y114.323 E0.01876
G1 X121.204 Y132.871 E0.44856
G1 X121.980 Y132.871 E0.01876
G1 X121.980 Y114.323 E0.44856
G1 X122.755 Y114.323 E0.01876
G1 X122.755 Y132.871 E0.44856
G1 X123.531 Y132.871 E0.01876
G1 X123.531 Y114.323 E0.44856
G1 X124.306 Y114.323 E0.01876
G1 X124.306 Y132.871 E0.44856
G1 X125.082 Y132.871 E0.01876
G1 X125.082 Y114.323 E0.44856
G1 X125.858 Y114.323 E0.01876
G1 X125.858 Y132.871 E0.44856
G1 X126.633 Y132.871 E0.01876
G1 X126.633 Y114.323 E0.44856
G1 X127.409 Y114.323 E0.01876
G1 X127.409 Y132.871 E0.44856
G1 X128.185 Y132.871 E0.01876
G1 X128.185 Y114.323 E0.44856
G1 X128.960 Y114.323 E0.01876
G1 X128.960 Y132.871 E0.44856
G1 X129.736 Y132.871 E0.01876
G1 X129.736 Y114.323 E0.44856
G1 X130.511 Y114.323 E0.01876
G1 X130.511 Y132.871 E0.44856
G1 X131.287 Y132.871 E0.01876
G1 X131.287 Y114.323 E0.44856
G1 X132.063 Y114.323 E0.01876
G1 X132.063 Y132.871 E0.44856
G1 X132.838 Y132.871 E0.01876
G1 X132.838 Y114.323 E0.44856
G1 X133.614 Y114.323 E0.01876
G1 X133.614 Y132.871 E0.44856
G1 X134.389 Y132.871 E0.01876
G1 X134.389 Y114.323 E0.44856
G1 X135.165 Y114.323 E0.01876
G1 X135.165 Y133.045 E0.45279
G1 F5760
G1 X135.165 Y130.851 E-0.76000
G1 E-0.04000 F2100.00000
G1 X136.110 Y138.750 F7200.000
G1 X134.301 Y134.320 F7200.000
G1 E0.80000 F2100.00000
G1 F1800
G1 X115.699 Y134.320 E0.44991
G1 X115.699 Y134.815 E0.01196
G1 X113.092 Y134.815 E0.06303
G1 X113.094 Y92.169 E1.03137
G1 X113.162 Y91.725 E0.01086
G1 X113.304 Y91.335 E0.01005
G1 X113.548 Y90.933 E0.01138
G1 X113.822 Y90.634 E0.00979
G1 X114.143 Y90.388 E0.00979
G1 X114.565 Y90.180 E0.01138
G1 X114.956 Y90.075 E0.00979
G1 X115.305 Y90.044 E0.00848
G1 X134.790 Y90.046 E0.47124
G1 X135.284 Y90.130 E0.01211
G1 X135.591 Y90.246 E0.00796
G1 X135.933 Y90.437 E0.00945
G1 X136.351 Y90.804 E0.01346
G1 X136.673 Y91.281 E0.01392
G1 X136.861 Y91.813 E0.01365
G1 X136.908 Y92.248 E0.01057
G1 X136.908 Y134.815 E1.02948
G1 X134.301 Y134.815 E0.06303
G1 X134.301 Y134.380 E0.01050
G1 X134.689 Y134.380 F7200.000
G1 F1800
G1 X134.689 Y133.932 E0.01083
G1 X115.311 Y133.932 E0.46866
G1 X115.311 Y134.427 E0.01196
G1 X113.480 Y134.427 E0.04427
G1 X113.481 Y92.199 E1.02128
G1 X113.539 Y91.822 E0.00922
G1 X113.655 Y91.503 E0.00820
G1 X113.860 Y91.166 E0.00954
G1 X114.085 Y90.921 E0.00804
G1 X114.348 Y90.719 E0.00804
G1 X114.702 Y90.544 E0.00954
G1 X115.023 Y90.458 E0.00804
G1 X115.322 Y90.432 E0.00725
G1 X134.757 Y90.433 E0.47003
G1 X135.181 Y90.506 E0.01042
G1 X135.428 Y90.599 E0.00637
G1 X135.708 Y90.755 E0.00776
G1 X136.058 Y91.062 E0.01126
G1 X136.324 Y91.457 E0.01151
G1 X136.481 Y91.899 E0.01135
G1 X136.520 Y92.268 E0.00897
G1 X136.520 Y134.427 E1.01960
G1 X134.703 Y134.427 E0.04395
G1 X135.077 Y134.039 F7200.000
G1 F1800
G1 X135.077 Y133.545 E0.01196
G1 X114.923 Y133.545 E0.48742
G1 X114.923 Y134.039 E0.01196
G1 X113.868 Y134.039 E0.02552
G1 X113.869 Y92.229 E1.01118
G1 X113.917 Y91.919 E0.00758
G1 X114.007 Y91.672 E0.00635
G1 X114.172 Y91.400 E0.00769
G1 X114.348 Y91.208 E0.00630
G1 X114.554 Y91.050 E0.00630
G1 X114.839 Y90.909 E0.00769
G1 X115.091 Y90.842 E0.00630
G1 X115.339 Y90.820 E0.00602
G1 X134.724 Y90.821 E0.46882
G1 X135.079 Y90.882 E0.00872
G1 X135.264 Y90.952 E0.00477
G1 X135.483 Y91.074 E0.00607
G1 X135.764 Y91.321 E0.00905
G1 X135.975 Y91.633 E0.00911
G1 X136.100 Y91.986 E0.00905
G1 X136.132 Y92.289 E0.00737
G1 X136.132 Y134.039 E1.00972
G1 X135.137 Y134.039 E0.02406
G1 X134.729 Y134.236 F7200.000
G1 F5760
G1 X135.077 Y133.545 E-0.17248
G1 F5760
G1 X133.381 Y133.545 E-0.58752
G1 E-0.04000 F2100.00000
G1 X150.303 Y133.013 F7200.000
G1 E0.80000 F2100.00000
G1 F1800
G1 X135.829 Y135.764 E0.35633
G1 X114.171 Y135.764 E0.52380
G1 X99.697 Y133.013 E0.35633
G1 X99.697 Y87.780 E1.09395
G1 X114.462 Y74.236 E0.48458
G1 X135.538 Y74.236 E0.50974
G1 X150.303 Y87.780 E0.48458
G1 X150.303 Y132.953 E1.09250
G1 X150.691 Y133.334 F7200.000
G1 F1800
G1 X135.866 Y136.152 E0.36497
G1 X114.134 Y136.152 E0.52557
G1 X99.309 Y133.334 E0.36497
G1 X99.309 Y87.610 E1.10584
G1 X114.311 Y73.848 E0.49236
G1 X135.689 Y73.848 E0.51704
G1 X150.691 Y87.610 E0.49236
G1 X150.691 Y133.274 E1.10439
G1 X151.079 Y133.655 F7200.000
G1 F1800
G1 X135.902 Y136.540 E0.37362
G1 X114.098 Y136.540 E0.52734
G1 X98.921 Y133.655 E0.37362
G1 X98.921 Y87.439 E1.11772
G1 X114.160 Y73.460 E0.50013
G1 X135.840 Y73.460 E0.52434
G1 X151.079 Y87.439 E0.50013
G1 X151.079 Y133.595 E1.11627
G1 X150.699 Y133.531 F7200.000
G1 F5760
G1 X148.925 Y134.013 E-0.76000
G1 E-0.04000 F2100.00000
G1 X134.624 Y135.648 F7200.000
G1 E0.80000 F2100.00000
G1 F1800
G1 X133.587 Y134.611 E0.03550
G1 X133.038 Y134.611 E0.01329
G1 X133.901 Y135.474 E0.02953
G1 X133.352 Y135.474 E0.01329
G1 X132.489 Y134.611 E0.02953
G1 X131.940 Y134.611 E0.01329
G1 X132.803 Y135.474 E0.02953
G1 X132.254 Y135.474 E0.01329
G1 X131.391 Y134.611 E0.02953
G1 X130.842 Y134.611 E0.01329
G1 X131.705 Y135.474 E0.02953
G1 X131.156 Y135.474 E0.01329
G1 X130.293 Y134.611 E0.02953
G1 X129.744 Y134.611 E0.01329
G1 X130.607 Y135.474 E0.02953
G1 X130.058 Y135.474 E0.01329
G1 X129.195 Y134.611 E0.02953
G1 X128.646 Y134.611 E0.01329
G1 X129.509 Y135.474 E0.02953
G1 X128.960 Y135.474 E0.01329
G1 X128.097 Y134.611 E0.02953
G1 X127.548 Y134.611 E0.01329
G1 X128.411 Y135.474 E0.02953
G1 X127.862 Y135.474 E0.01329
G1 X126.999 Y134.611 E0.02953
G1 X126.450 Y134.611 E0.01329
G1 X127.313 Y135.474 E0.02953
G1 X126.764 Y135.474 E0.01329
G1 X125.902 Y134.611 E0.02953
G1 X125.353 Y134.611 E0.01329
G1 X126.215 Y135.474 E0.02953
G1 X125.666 Y135.474 E0.01329
G1 X124.804 Y134.611 E0.02953
G1 X124.255 Y134.611 E0.01329
G1 X125.117 Y135.474 E0.02953
G1 X124.568 Y135.474 E0.01329
G1 X123.706 Y134.611 E0.02953
G1 X123.157 Y134.611 E0.01329
G1 X124.019 Y135.474 E0.02953
G1 X123.470 Y135.474 E0.01329
G1 X122.608 Y134.611 E0.02953
G1 X122.059 Y134.611 E0.01329
G1 X122.921 Y135.474 E0.02953
G1 X122.372 Y135.474 E0.01329
G1 X121.510 Y134.611 E0.02953
G1 X120.961 Y134.611 E0.01329
G1 X121.823 Y135.474 E0.02953
G1 X121.274 Y135.474 E0.01329
G1 X120.412 Y134.611 E0.02953
G1 X119.863 Y134.611 E0.01329
G1 X120.725 Y135.474 E0.02953
G1 X120.176 Y135.474 E0.01329
G1 X119.314 Y134.611 E0.02953
G1 X118.765 Y134.611 E0.01329
G1 X119.627 Y135.474 E0.02953
G1 X119.078 Y135.474 E0.01329
G1 X118.216 Y134.611 E0.02953
G1 X117.667 Y134.611 E0.01329
G1 X118.529 Y135.474 E0.02953
G1 X117.980 Y135.474 E0.01329
G1 X117.118 Y134.611 E0.02953
G1 X116.569 Y134.611 E0.01329
G1 X117.431 Y135.474 E0.02953
G1 X116.882 Y135.474 E0.01329
G1 X116.020 Y134.611 E0.02953
G1 X115.989 Y134.611 E0.00074
G1 X115.989 Y135.105 E0.01197
G1 X115.965 Y135.105 E0.00059
G1 X116.333 Y135.474 E0.01260
G1 X115.784 Y135.474 E0.01329
G1 X115.416 Y135.105 E0.01260
G1 X114.867 Y135.105 E0.01329
G1 X115.235 Y135.474 E0.01260
G1 X114.686 Y135.474 E0.01329
G1 X114.318 Y135.105 E0.01260
G1 X113.769 Y135.105 E0.01329
G1 X114.123 Y135.459 E0.01211
G1 X113.445 Y135.330 E0.01670
G1 X113.046 Y134.931 E0.01368
G1 F5760
G1 X113.445 Y135.330 E-0.19567
G1 F5760
G1 X114.123 Y135.459 E-0.23897
G1 F5760
G1 X113.769 Y135.105 E-0.17330
G1 F5760
G1 X114.208 Y135.105 E-0.15206
G1 E-0.04000 F2100.00000
G1 X100.786 Y133.102 F7200.000
G1 E0.80000 F2100.00000
G1 F1800
G1 X99.987 Y132.303 E0.02734
G1 X99.987 Y131.754 E0.01329
G1 X101.244 Y133.011 E0.04304
G1 X101.922 Y133.140 E0.01670
G1 X99.987 Y131.205 E0.06624
G1 X99.987 Y130.656 E0.01329
G1 X102.600 Y133.269 E0.08945
G1 X103.278 Y133.398 E0.01670
G1 X99.987 Y130.107 E0.11265
G1 X99.987 Y129.558 E0.01329
G1 X103.956 Y133.527 E0.13586
G1 X104.634 Y133.655 E0.01670
G1 X99.987 Y129.009 E0.15906
G1 X99.987 Y128.460 E0.01329
G1 X105.311 Y133.784 E0.18227
G1 X105.989 Y133.913 E0.01670
G1 X99.987 Y127.911 E0.20548
G1 X99.987 Y127.362 E0.01329
G1 X106.667 Y134.042 E0.22868
G1 X107.345 Y134.171 E0.01670
G1 X99.987 Y126.813 E0.25189
G1 X99.987 Y126.264 E0.01329
G1 X108.023 Y134.300 E0.27509
G1 X108.701 Y134.429 E0.01670
G1 X99.987 Y125.715 E0.29830
G1 X99.987 Y125.166 E0.01329
G1 X109.378 Y134.557 E0.32151
G1 X110.056 Y134.686 E0.01670
G1 X99.987 Y124.617 E0.34471
G1 X99.987 Y124.069 E0.01329
G1 X110.734 Y134.815 E0.36792
G1 X111.412 Y134.944 E0.01670
G1 X99.987 Y123.520 E0.39112
G1 X99.987 Y122.971 E0.01329
G1 X112.090 Y135.073 E0.41433
G1 X112.767 Y135.202 E0.01670
G1 X99.987 Y122.422 E0.43754
G1 X99.987 Y121.873 E0.01329
G1 X112.802 Y134.687 E0.43870
G1 X112.802 Y134.138 E0.01329
G1 X99.987 Y121.324 E0.43870
G1 X99.987 Y120.775 E0.01329
G1 X112.802 Y133.589 E0.43870
G1 X112.802 Y133.040 E0.01329
G1 X99.987 Y120.226 E0.43870
G1 X99.987 Y119.677 E0.01329
G1 X112.802 Y132.491 E0.43870
G1 X112.802 Y131.942 E0.01329
G1 X99.987 Y119.128 E0.43870
G1 X99.987 Y118.579 E0.01329
G1 X112.802 Y131.393 E0.43871
G1 X112.802 Y130.844 E0.01329
G1 X99.987 Y118.030 E0.43871
G1 X99.987 Y117.481 E0.01329
G1 X112.802 Y130.295 E0.43871
G1 X112.802 Y129.746 E0.01329
G1 X99.987 Y116.932 E0.43871
G1 X99.987 Y116.383 E0.01329
G1 X112.802 Y129.197 E0.43871
G1 X112.802 Y128.648 E0.01329
G1 X99.987 Y115.834 E0.43871
G1 X99.987 Y115.285 E0.01329
G1 X112.802 Y128.099 E0.43871
G1 X112.802 Y127.550 E0.01329
G1 X99.987 Y114.736 E0.43871
G1 X99.987 Y114.187 E0.01329
G1 X112.802 Y127.001 E0.43871
G1 X112.802 Y126.452 E0.01329
G1 X99.987 Y113.638 E0.43871
G1 X99.987 Y113.089 E0.01329
G1 X112.802 Y125.903 E0.43871
G1 X112.802 Y125.354 E0.01329
G1 X99.987 Y112.540 E0.43871
G1 X99.987 Y111.991 E0.01329
G1 X112.802 Y124.805 E0.43871
G1 X112.802 Y124.256 E0.01329
G1 X99.987 Y111.442 E0.43871
G1 X99.987 Y110.893 E0.01329
G1 X112.802 Y123.707 E0.43871
G1 X112.802 Y123.158 E0.01329
G1 X99.987 Y110.344 E0.43871
G1 X99.987 Y109.795 E0.01329
G1 X112.802 Y122.609 E0.43871
G1 X112.802 Y122.060 E0.01329
G1 X99.987 Y109.246 E0.43871
G1 X99.987 Y108.697 E0.01329
G1 X112.802 Y121.512 E0.43871
G1 X112.802 Y120.963 E0.01329
G1 X99.987 Y108.148 E0.43872
G1 X99.987 Y107.599 E0.01329
G1 X112.802 Y120.414 E0.43872
G1 X112.802 Y119.865 E0.01329
G1 X99.987 Y107.050 E0.43872
G1 X99.987 Y106.501 E0.01329
G1 X112.802 Y119.316 E0.43872
G1 X112.802 Y118.767 E0.01329
G1 X99.987 Y105.952 E0.43872
G1 X99.987 Y105.403 E0.01329
G1 X112.802 Y118.218 E0.43872
G1 X112.802 Y117.669 E0.01329
G1 X99.987 Y104.854 E0.43872
G1 X99.987 Y104.305 E0.01329
G1 X112.802 Y117.120 E0.43872
G1 X112.802 Y116.571 E0.01329
G1 X99.987 Y103.756 E0.43872
G1 X99.987 Y103.207 E0.01329
G1 X112.802 Y116.022 E0.43872
G1 X112.802 Y115.473 E0.01329
G1 X99.987 Y102.658 E0.43872
G1 X99.987 Y102.109 E0.01329
G1 X112.802 Y114.924 E0.43872
G1 X112.802 Y114.375 E0.01329
G1 X99.987 Y101.560 E0.43872
G1 X99.987 Y101.011 E0.01329
G1 X112.802 Y113.826 E0.43872
G1 X112.802 Y113.277 E0.01329
G1 X99.987 Y100.462 E0.43872
G1 X99.987 Y99.913 E0.01329
G1 X112.802 Y112.728 E0.43872
G1 X112.802 Y112.179 E0.01329
G1 X99.987 Y99.364 E0.43872
G1 X99.987 Y98.815 E0.01329
G1 X112.802 Y111.630 E0.43872
G1 X112.802 Y111.081 E0.01329
G1 X99.987 Y98.266 E0.43873
G1 X99.987 Y97.717 E0.01329
G1 X112.802 Y110.532 E0.43873
G1 X112.802 Y109.983 E0.01329
G1 X99.987 Y97.168 E0.43873
G1 X99.987 Y96.619 E0.01329
G1 X112.802 Y109.434 E0.43873
G1 X112.802 Y108.885 E0.01329
G1 X99.987 Y96.070 E0.43873
G1 X99.987 Y95.522 E0.01329
G1 X112.802 Y108.336 E0.43873
G1 X112.802 Y107.787 E0.01329
G1 X99.987 Y94.973 E0.43873
G1 X99.987 Y94.424 E0.01329
G1 X112.802 Y107.238 E0.43873
G1 X112.802 Y106.689 E0.01329
G1 X99.987 Y93.875 E0.43873
G1 X99.987 Y93.326 E0.01329
G1 X112.802 Y106.140 E0.43873
G1 X112.802 Y105.592 E0.01329
G1 X99.987 Y92.777 E0.43873
G1 X99.987 Y92.228 E0.01329
G1 X112.802 Y105.043 E0.43873
G1 X112.802 Y104.494 E0.01329
G1 X99.987 Y91.679 E0.43873
G1 X99.987 Y91.130 E0.01329
G1 X112.802 Y103.945 E0.43873
G1 X112.802 Y103.396 E0.01329
G1 X99.987 Y90.581 E0.43873
G1 X99.987 Y90.032 E0.01329
G1 X112.802 Y102.847 E0.43873
G1 X112.802 Y102.298 E0.01329
G1 X99.987 Y89.483 E0.43873
G1 X99.987 Y88.934 E0.01329
G1 X112.802 Y101.749 E0.43873
G1 X112.802 Y101.200 E0.01329
G1 X99.987 Y88.385 E0.43874
G1 X99.987 Y87.908 E0.01154
G1 X100.025 Y87.874 E0.00124
G1 X112.803 Y100.651 E0.43744
G1 X112.803 Y100.102 E0.01329
G1 X100.312 Y87.611 E0.42764
G1 X100.598 Y87.348 E0.00941
G1 X112.803 Y99.553 E0.41784
G1 X112.803 Y99.004 E0.01329
G1 X100.884 Y87.086 E0.40804
G1 X101.171 Y86.823 E0.00941
G1 X112.803 Y98.455 E0.39823
G1 X112.803 Y97.906 E0.01329
G1 X101.457 Y86.560 E0.38843
G1 X101.743 Y86.298 E0.00941
G1 X112.803 Y97.357 E0.37863
G1 X112.803 Y96.808 E0.01329
G1 X102.029 Y86.035 E0.36883
G1 X102.316 Y85.772 E0.00941
G1 X112.803 Y96.259 E0.35903
G1 X112.803 Y95.710 E0.01329
G1 X102.602 Y85.510 E0.34922
G1 X102.888 Y85.247 E0.00941
G1 X112.803 Y95.161 E0.33942
G1 X112.803 Y94.612 E0.01329
G1 X103.175 Y84.984 E0.32962
G1 X103.461 Y84.722 E0.00941
G1 X112.803 Y94.063 E0.31982
G1 X112.803 Y93.514 E0.01329
G1 X103.747 Y84.459 E0.31002
G1 X104.034 Y84.196 E0.00941
G1 X112.803 Y92.965 E0.30021
G1 X112.803 Y92.416 E0.01329
G1 X104.320 Y83.934 E0.29041
G1 X104.606 Y83.671 E0.00941
