; generated by Slic3r 1.37.2-prusa3d-win64 on 2018-01-22 at 14:44:41

; 

; external perimeters extrusion width = 0.45mm
; perimeters extrusion width = 0.45mm
; infill extrusion width = 0.45mm
; solid infill extrusion width = 0.45mm
; top infill extrusion width = 0.40mm
; support material extrusion width = 0.35mm
; first layer extrusion width = 0.42mm

M107
M115 U3.1.0 ; tell printer latest fw version
M83  ; extruder relative mode
M104 S150
M140 S75 ; set bed temp
G28 W ; home all without mesh bed level
G1 X125 Z80 F1000
M190 S75 ; wait for bed temp
M104 S230 ; set extruder temp
G80 ; mesh bed leveling
M109 S230 ; wait for extruder temp
G1 Y-3.0 F1000.0 ; go outside print area
G92 E0.0
G1 X60.0 E9.0  F1000.0 ; intro line
G1 X100.0 E12.5  F1000.0 ; intro line
G92 E0.0
M900 K45 ; Filament gcode
G21 ; set units to millimeters
G90 ; use absolute coordinates
M83 ; use relative distances for extrusion
;BEFORE_LAYER_CHANGE
;0.2


G1 E-0.80000 F2100.00000
G1 Z0.200 F7200.000
;AFTER_LAYER_CHANGE
;0.2
G1 X114.548 Y97.656 F7200.000
G1 E0.80000 F2100.00000
M204 S1000
G1 F1800
G1 X114.548 Y91.997 E0.17746
G1 X115.302 Y91.997 E0.02365
G1 X115.302 Y97.487 E0.17214
G1 X116.057 Y97.487 E0.02365
G1 X116.057 Y91.997 E0.17214
G1 X116.811 Y91.997 E0.02365
G1 X116.811 Y97.487 E0.17214
G1 X117.565 Y97.487 E0.02365
G1 X117.565 Y91.997 E0.17214
G1 X118.319 Y91.997 E0.02365
G1 X118.319 Y97.487 E0.17214
G1 X119.073 Y97.487 E0.02365
G1 X119.073 Y91.997 E0.17214
G1 X119.827 Y91.997 E0.02365
G1 X119.827 Y97.487 E0.17214
G1 X120.582 Y97.487 E0.02365
G1 X120.582 Y91.997 E0.17214
G1 X121.336 Y91.997 E0.02365
G1 X121.336 Y97.487 E0.17214
G1 X122.090 Y97.487 E0.02365
G1 X122.090 Y91.997 E0.17214
G1 X122.844 Y91.997 E0.02365
G1 X122.844 Y97.487 E0.17214
G1 X123.598 Y97.487 E0.02365
G1 X123.598 Y91.997 E0.17214
G1 X124.352 Y91.997 E0.02365
G1 X124.352 Y97.487 E0.17214
G1 X125.107 Y97.487 E0.02365
G1 X125.107 Y91.997 E0.17214
G1 X125.861 Y91.997 E0.02365
G1 X125.861 Y97.487 E0.17214
G1 X126.615 Y97.487 E0.02365
G1 X126.615 Y91.997 E0.17214
G1 X127.369 Y91.997 E0.02365
G1 X127.369 Y97.487 E0.17214
G1 X128.123 Y97.487 E0.02365
G1 X128.123 Y91.997 E0.17214
G1 X128.877 Y91.997 E0.02365
G1 X128.877 Y97.487 E0.17214
G1 X129.632 Y97.487 E0.02365
G1 X129.632 Y91.997 E0.17214
G1 X130.386 Y91.997 E0.02365
G1 X130.386 Y97.487 E0.17214
G1 X131.140 Y97.487 E0.02365
G1 X131.140 Y91.997 E0.17214
G1 X131.894 Y91.997 E0.02365
G1 X131.894 Y97.487 E0.17214
G1 X132.648 Y97.487 E0.02365
G1 X132.648 Y91.997 E0.17214
G1 X133.402 Y91.997 E0.02365
G1 X133.402 Y97.656 E0.17746
G1 F5760
G1 X133.402 Y95.462 E-0.76000
G1 E-0.04000 F2100.00000
G1 X144.673 Y136.614 F7200.000
G1 X134.911 Y128.333 F7200.000
G1 E0.80000 F2100.00000
G1 F1800
G1 X134.911 Y114.628 E0.42973
G1 X134.156 Y114.628 E0.02365
G1 X134.156 Y128.163 E0.42441
G1 X133.402 Y128.163 E0.02365
G1 X133.402 Y114.628 E0.42441
G1 X132.648 Y114.628 E0.02365
G1 X132.648 Y128.163 E0.42441
G1 X131.894 Y128.163 E0.02365
G1 X131.894 Y114.628 E0.42441
G1 X131.140 Y114.628 E0.02365
G1 X131.140 Y128.163 E0.42441
G1 X130.386 Y128.163 E0.02365
G1 X130.386 Y114.628 E0.42441
G1 X129.632 Y114.628 E0.02365
G1 X129.632 Y128.163 E0.42441
G1 X128.877 Y128.163 E0.02365
G1 X128.877 Y114.628 E0.42441
G1 X128.123 Y114.628 E0.02365
G1 X128.123 Y128.163 E0.42441
G1 X127.369 Y128.163 E0.02365
G1 X127.369 Y114.628 E0.42441
G1 X126.615 Y114.628 E0.02365
G1 X126.615 Y128.163 E0.42441
G1 X125.861 Y128.163 E0.02365
G1 X125.861 Y114.628 E0.42441
G1 X125.107 Y114.628 E0.02365
G1 X125.107 Y128.163 E0.42441
G1 X124.352 Y128.163 E0.02365
G1 X124.352 Y114.628 E0.42441
G1 X123.598 Y114.628 E0.02365
G1 X123.598 Y128.163 E0.42441
G1 X122.844 Y128.163 E0.02365
G1 X122.844 Y114.628 E0.42441
G1 X122.090 Y114.628 E0.02365
G1 X122.090 Y128.163 E0.42441
G1 X121.336 Y128.163 E0.02365
G1 X121.336 Y114.628 E0.42441
G1 X120.582 Y114.628 E0.02365
G1 X120.582 Y128.163 E0.42441
G1 X119.827 Y128.163 E0.02365
G1 X119.827 Y114.628 E0.42441
G1 X119.073 Y114.628 E0.02365
G1 X119.073 Y128.163 E0.42441
G1 X118.319 Y128.163 E0.02365
G1 X118.319 Y114.628 E0.42441
G1 X117.565 Y114.628 E0.02365
G1 X117.565 Y128.163 E0.42441
G1 X116.811 Y128.163 E0.02365
G1 X116.811 Y114.628 E0.42441
G1 X116.057 Y114.628 E0.02365
G1 X116.057 Y128.163 E0.42441
G1 X115.302 Y128.163 E0.02365
G1 X115.302 Y114.628 E0.42441
G1 X114.548 Y114.628 E0.02365
G1 X114.548 Y128.333 E0.42973
G1 F5760
G1 X114.548 Y126.139 E-0.76000
G1 E-0.04000 F2100.00000
G1 X105.327 Y136.614 F7200.000
G1 X113.114 Y90.574 F7200.000
G1 E0.80000 F2100.00000
G1 F1800
G1 X136.886 Y90.574 E0.74536
G1 X136.886 Y129.586 E1.22320
G1 X113.114 Y129.586 E0.74536
G1 X113.114 Y90.634 E1.22132
G1 X113.491 Y90.951 F7200.000
G1 F1800
G1 X136.509 Y90.951 E0.72172
G1 X136.509 Y129.209 E1.19956
G1 X113.491 Y129.209 E0.72172
G1 X113.491 Y91.011 E1.19768
G1 X113.868 Y91.328 F7200.000
G1 F1800
G1 X136.132 Y91.328 E0.69807
G1 X136.132 Y128.832 E1.17591
G1 X113.868 Y128.832 E0.69807
G1 X113.868 Y91.388 E1.17403
G1 X113.797 Y90.934 F7200.000
G1 F5760
G1 X116.062 Y91.382 E-0.76000
G1 E-0.04000 F2100.00000
G1 X99.675 Y87.284 F7200.000
G1 E0.80000 F2100.00000
G1 F1800
G1 X114.433 Y74.722 E0.60766
G1 X135.567 Y74.722 E0.66265
G1 X150.325 Y87.284 E0.60766
G1 X150.325 Y132.523 E1.41842
G1 X144.394 Y133.650 E0.18928
G1 X105.606 Y133.650 E1.21618
G1 X99.675 Y132.523 E0.18928
G1 X99.675 Y87.344 E1.41654
G1 X99.298 Y87.110 F7200.000
G1 F1800
G1 X114.294 Y74.345 E0.61747
G1 X135.706 Y74.345 E0.67136
G1 X150.702 Y87.110 E0.61747
G1 X150.702 Y132.835 E1.43367
G1 X144.430 Y134.027 E0.20018
G1 X105.570 Y134.027 E1.21841
G1 X99.298 Y132.835 E0.20018
G1 X99.298 Y87.170 E1.43179
G1 X98.921 Y86.936 F7200.000
G1 F1800
G1 X114.155 Y73.968 E0.62728
G1 X135.845 Y73.968 E0.68006
G1 X151.079 Y86.936 E0.62728
G1 X151.079 Y133.147 E1.44892
G1 X144.465 Y134.404 E0.21108
G1 X105.535 Y134.404 E1.22064
G1 X98.921 Y133.147 E0.21108
G1 X98.921 Y86.996 E1.44704
G1 X99.321 Y86.939 F7200.000
G1 F5760
G1 X100.589 Y85.570 E-0.76000
G1 E-0.04000 F2100.00000
G1 X137.834 Y76.800 F7200.000
G1 E0.80000 F2100.00000
G1 F1800
G1 X150.212 Y89.178 E0.54956
G1 X150.212 Y88.644 F7200.000
G1 F1800
G1 X141.423 Y79.855 E0.39020
G1 F5760
G1 X142.975 Y81.407 E-0.76000
G1 E-0.04000 F2100.00000
G1 X145.013 Y82.911 F7200.000
G1 E0.80000 F2100.00000
G1 F1800
G1 X150.212 Y88.110 E0.23084
G1 F5760
G1 X148.660 Y86.559 E-0.76000
G1 E-0.04000 F2100.00000
G1 X150.212 Y89.712 F7200.000
G1 E0.80000 F2100.00000
G1 F1800
G1 X135.742 Y75.243 E0.64242
G1 X135.463 Y75.005 E0.01151
G1 X134.971 Y75.005 E0.01546
G1 X150.042 Y90.076 E0.66914
G1 X150.042 Y90.610 E0.01676
G1 X134.437 Y75.005 E0.69285
G1 X133.903 Y75.005 E0.01676
G1 X150.042 Y91.144 E0.71656
G1 X150.042 Y91.678 E0.01676
G1 X133.369 Y75.005 E0.74026
G1 X132.835 Y75.005 E0.01676
G1 X150.042 Y92.212 E0.76397
G1 X150.042 Y92.746 E0.01676
G1 X132.301 Y75.005 E0.78768
G1 X131.767 Y75.005 E0.01676
G1 X150.042 Y93.280 E0.81139
G1 X150.042 Y93.814 E0.01676
G1 X131.233 Y75.005 E0.83509
G1 X130.699 Y75.005 E0.01676
G1 X150.042 Y94.348 E0.85880
G1 X150.042 Y94.882 E0.01676
G1 X130.165 Y75.005 E0.88251
G1 X129.631 Y75.005 E0.01676
G1 X150.042 Y95.416 E0.90621
G1 X150.042 Y95.950 E0.01676
G1 X129.097 Y75.005 E0.92992
G1 X128.563 Y75.005 E0.01676
G1 X150.042 Y96.484 E0.95363
G1 X150.042 Y97.018 E0.01676
G1 X128.029 Y75.005 E0.97733
G1 X127.495 Y75.005 E0.01676
G1 X150.042 Y97.552 E1.00104
G1 X150.042 Y98.086 E0.01676
G1 X126.961 Y75.005 E1.02475
G1 X126.427 Y75.005 E0.01676
G1 X150.042 Y98.620 E1.04845
G1 X150.042 Y99.154 E0.01676
G1 X125.893 Y75.005 E1.07216
G1 X125.360 Y75.005 E0.01676
G1 X150.042 Y99.687 E1.09587
G1 X150.042 Y100.221 E0.01676
G1 X124.826 Y75.005 E1.11957
G1 X124.292 Y75.005 E0.01676
G1 X150.042 Y100.755 E1.14328
G1 X150.042 Y101.289 E0.01676
G1 X123.758 Y75.005 E1.16699
G1 X123.224 Y75.005 E0.01676
G1 X150.042 Y101.823 E1.19069
G1 X150.042 Y102.357 E0.01676
G1 X122.690 Y75.005 E1.21440
G1 X122.156 Y75.005 E0.01676
G1 X150.042 Y102.891 E1.23811
G1 X150.042 Y103.425 E0.01676
G1 X121.622 Y75.005 E1.26181
G1 X121.088 Y75.005 E0.01676
G1 X136.374 Y90.291 E0.67868
G1 X135.840 Y90.291 E0.01676
G1 X120.554 Y75.005 E0.67868
G1 X120.020 Y75.005 E0.01676
G1 X135.306 Y90.291 E0.67868
G1 X134.772 Y90.291 E0.01676
G1 X119.486 Y75.005 E0.67868
G1 X118.952 Y75.005 E0.01676
G1 X134.238 Y90.291 E0.67868
G1 X133.704 Y90.291 E0.01676
G1 X118.418 Y75.005 E0.67868
G1 X117.884 Y75.005 E0.01676
G1 X133.170 Y90.291 E0.67868
G1 X132.636 Y90.291 E0.01676
G1 X117.350 Y75.005 E0.67868
G1 X116.816 Y75.005 E0.01676
G1 X132.102 Y90.291 E0.67868
G1 X131.568 Y90.291 E0.01676
G1 X116.282 Y75.005 E0.67868
G1 X115.748 Y75.005 E0.01676
G1 X131.034 Y90.291 E0.67868
G1 X130.501 Y90.291 E0.01676
G1 X115.214 Y75.005 E0.67868
G1 X114.680 Y75.005 E0.01676
G1 X129.967 Y90.291 E0.67868
G1 X129.433 Y90.291 E0.01676
G1 X114.326 Y75.184 E0.67071
G1 X114.038 Y75.430 E0.01189
G1 X128.899 Y90.291 E0.65981
G1 X128.365 Y90.291 E0.01676
G1 X113.749 Y75.675 E0.64891
G1 X113.461 Y75.921 E0.01189
G1 X127.831 Y90.291 E0.63801
G1 X127.297 Y90.291 E0.01676
G1 X113.172 Y76.167 E0.62711
G1 X112.884 Y76.412 E0.01189
G1 X126.763 Y90.291 E0.61621
G1 X126.229 Y90.291 E0.01676
G1 X112.595 Y76.658 E0.60531
G1 X112.307 Y76.903 E0.01189
G1 X125.695 Y90.291 E0.59441
G1 X125.161 Y90.291 E0.01676
G1 X112.019 Y77.149 E0.58350
G1 X111.730 Y77.394 E0.01189
G1 X124.627 Y90.291 E0.57260
G1 X124.093 Y90.291 E0.01676
G1 X111.442 Y77.640 E0.56170
G1 X111.153 Y77.885 E0.01189
G1 X123.559 Y90.291 E0.55080
G1 X123.025 Y90.291 E0.01676
G1 X110.865 Y78.131 E0.53990
G1 X110.576 Y78.376 E0.01189
G1 X122.491 Y90.291 E0.52900
G1 X121.957 Y90.291 E0.01676
G1 X110.288 Y78.622 E0.51810
G1 X110.000 Y78.867 E0.01189
G1 X121.423 Y90.291 E0.50720
G1 X120.889 Y90.291 E0.01676
G1 X109.711 Y79.113 E0.49630
G1 X109.423 Y79.358 E0.01189
G1 X120.355 Y90.291 E0.48540
G1 X119.821 Y90.291 E0.01676
G1 X109.134 Y79.604 E0.47450
G1 X108.846 Y79.849 E0.01189
G1 X119.287 Y90.291 E0.46359
G1 X118.754 Y90.291 E0.01676
G1 X108.557 Y80.095 E0.45269
G1 X108.269 Y80.340 E0.01189
G1 X118.220 Y90.291 E0.44179
G1 X117.686 Y90.291 E0.01676
G1 X107.981 Y80.586 E0.43089
G1 X107.692 Y80.831 E0.01189
G1 X117.152 Y90.291 E0.41999
G1 X116.618 Y90.291 E0.01676
G1 X107.404 Y81.077 E0.40909
G1 X107.115 Y81.323 E0.01189
G1 X116.084 Y90.291 E0.39819
G1 X115.550 Y90.291 E0.01676
G1 X106.827 Y81.568 E0.38729
G1 X106.538 Y81.814 E0.01189
G1 X115.016 Y90.291 E0.37639
G1 X114.482 Y90.291 E0.01676
G1 X106.250 Y82.059 E0.36549
G1 X105.961 Y82.305 E0.01189
G1 X113.948 Y90.291 E0.35459
G1 X113.414 Y90.291 E0.01676
G1 X105.673 Y82.550 E0.34368
G1 X105.385 Y82.796 E0.01189
G1 X112.880 Y90.291 E0.33278
G1 X112.831 Y90.291 E0.00154
G1 X112.831 Y90.776 E0.01523
G1 X105.096 Y83.041 E0.34342
G1 X104.808 Y83.287 E0.01189
G1 X112.831 Y91.310 E0.35622
G1 X112.831 Y91.844 E0.01676
G1 X104.519 Y83.532 E0.36903
G1 X104.231 Y83.778 E0.01189
G1 X112.831 Y92.378 E0.38183
G1 X112.831 Y92.912 E0.01676
G1 X103.942 Y84.023 E0.39464
G1 X103.654 Y84.269 E0.01189
G1 X112.831 Y93.446 E0.40745
G1 X112.831 Y93.980 E0.01676
G1 X103.366 Y84.514 E0.42025
G1 X103.077 Y84.760 E0.01189
G1 X112.831 Y94.514 E0.43306
G1 X112.831 Y95.048 E0.01676
G1 X102.789 Y85.005 E0.44586
G1 X102.500 Y85.251 E0.01189
G1 X112.831 Y95.582 E0.45867
G1 X112.831 Y96.116 E0.01676
G1 X102.212 Y85.496 E0.47147
G1 X101.923 Y85.742 E0.01189
G1 X112.831 Y96.650 E0.48428
G1 X112.831 Y97.184 E0.01676
G1 X101.635 Y85.987 E0.49709
G1 X101.347 Y86.233 E0.01189
G1 X112.831 Y97.717 E0.50989
G1 X112.831 Y98.251 E0.01676
G1 X101.058 Y86.479 E0.52270
G1 X100.770 Y86.724 E0.01189
G1 X112.831 Y98.785 E0.53550
G1 X112.831 Y99.319 E0.01676
G1 X100.481 Y86.970 E0.54831
G1 X100.193 Y87.215 E0.01189
G1 X112.831 Y99.853 E0.56112
G1 X112.831 Y100.387 E0.01676
G1 X99.958 Y87.514 E0.57155
G1 X99.958 Y88.048 E0.01676
G1 X112.831 Y100.921 E0.57155
G1 X112.831 Y101.455 E0.01676
G1 X99.958 Y88.582 E0.57155
G1 X99.958 Y89.116 E0.01676
G1 X112.831 Y101.989 E0.57155
G1 X112.831 Y102.523 E0.01676
G1 X99.958 Y89.650 E0.57155
G1 X99.958 Y90.184 E0.01676
G1 X112.831 Y103.057 E0.57155
G1 X112.831 Y103.591 E0.01676
G1 X99.958 Y90.718 E0.57155
G1 X99.958 Y91.252 E0.01676
G1 X112.831 Y104.125 E0.57155
G1 X112.831 Y104.659 E0.01676
G1 X99.958 Y91.786 E0.57155
G1 X99.958 Y92.320 E0.01676
G1 X112.831 Y105.193 E0.57155
G1 X112.831 Y105.727 E0.01676
G1 X99.958 Y92.854 E0.57155
G1 X99.958 Y93.388 E0.01676
G1 X112.831 Y106.261 E0.57155
G1 X112.831 Y106.795 E0.01676
G1 X99.958 Y93.922 E0.57155
G1 X99.958 Y94.456 E0.01676
G1 X112.831 Y107.329 E0.57155
G1 X112.831 Y107.863 E0.01676
G1 X99.958 Y94.989 E0.57155
G1 X99.958 Y95.523 E0.01676
G1 X112.831 Y108.397 E0.57155
G1 X112.831 Y108.931 E0.01676
G1 X99.958 Y96.057 E0.57155
G1 X99.958 Y96.591 E0.01676
G1 X112.831 Y109.464 E0.57155
G1 X112.831 Y109.998 E0.01676
G1 X99.958 Y97.125 E0.57155
G1 X99.958 Y97.659 E0.01676
G1 X112.831 Y110.532 E0.57155
G1 X112.831 Y111.066 E0.01676
G1 X99.958 Y98.193 E0.57155
G1 X99.958 Y98.727 E0.01676
G1 X112.831 Y111.600 E0.57155
G1 X112.831 Y112.134 E0.01676
G1 X99.958 Y99.261 E0.57155
G1 X99.958 Y99.795 E0.01676
G1 X112.831 Y112.668 E0.57155
G1 X112.831 Y113.202 E0.01676
G1 X99.958 Y100.329 E0.57155
G1 X99.958 Y100.863 E0.01676
G1 X112.831 Y113.736 E0.57155
G1 X112.831 Y114.270 E0.01676
G1 X99.958 Y101.397 E0.57155
G1 X99.958 Y101.931 E0.01676
G1 X112.831 Y114.804 E0.57155
G1 X112.831 Y115.338 E0.01676
G1 X99.958 Y102.465 E0.57155
G1 X99.958 Y102.999 E0.01676
G1 X112.831 Y115.872 E0.57155
G1 X112.831 Y116.406 E0.01676
G1 X99.958 Y103.533 E0.57155
G1 X99.958 Y104.067 E0.01676
G1 X112.831 Y116.940 E0.57155
G1 X112.831 Y117.474 E0.01676
G1 X99.958 Y104.601 E0.57155
G1 X99.958 Y105.135 E0.01676
G1 X112.831 Y118.008 E0.57155
G1 X112.831 Y118.542 E0.01676
G1 X99.958 Y105.669 E0.57155
G1 X99.958 Y106.203 E0.01676
G1 X112.831 Y119.076 E0.57155
G1 X112.831 Y119.610 E0.01676
G1 X99.958 Y106.737 E0.57155
G1 X99.958 Y107.270 E0.01676
G1 X112.831 Y120.144 E0.57155
G1 X112.831 Y120.678 E0.01676
G1 X99.958 Y107.804 E0.57155
G1 X99.958 Y108.338 E0.01676
G1 X112.831 Y121.211 E0.57155
G1 X112.831 Y121.745 E0.01676
G1 X99.958 Y108.872 E0.57155
G1 X99.958 Y109.406 E0.01676
G1 X112.831 Y122.279 E0.57155
G1 X112.831 Y122.813 E0.01676
G1 X99.958 Y109.940 E0.57155
G1 X99.958 Y110.474 E0.01676
G1 X112.831 Y123.347 E0.57155
G1 X112.831 Y123.881 E0.01676
G1 X99.958 Y111.008 E0.57155
G1 X99.958 Y111.542 E0.01676
G1 X112.831 Y124.415 E0.57155
G1 X112.831 Y124.949 E0.01676
G1 X99.958 Y112.076 E0.57155
G1 X99.958 Y112.610 E0.01676
G1 X112.831 Y125.483 E0.57155
G1 X112.831 Y126.017 E0.01676
G1 X99.958 Y113.144 E0.57155
G1 X99.958 Y113.678 E0.01676
G1 X112.831 Y126.551 E0.57155
G1 X112.831 Y127.085 E0.01676
G1 X99.958 Y114.212 E0.57155
G1 X99.958 Y114.746 E0.01676
G1 X112.831 Y127.619 E0.57155
G1 X112.831 Y128.153 E0.01676
G1 X99.958 Y115.280 E0.57155
G1 X99.958 Y115.814 E0.01676
G1 X112.831 Y128.687 E0.57155
G1 X112.831 Y129.221 E0.01676
G1 X99.958 Y116.348 E0.57155
G1 X99.958 Y116.882 E0.01676
G1 X116.444 Y133.367 E0.73194
G1 X116.978 Y133.367 E0.01676
G1 X113.479 Y129.869 E0.15533
G1 X114.013 Y129.869 E0.01676
G1 X117.512 Y133.367 E0.15533
G1 X118.046 Y133.367 E0.01676
G1 X114.547 Y129.869 E0.15533
G1 X115.081 Y129.869 E0.01676
G1 X118.580 Y133.367 E0.15533
G1 X119.113 Y133.367 E0.01676
G1 X115.615 Y129.869 E0.15533
G1 X116.149 Y129.869 E0.01676
G1 X119.647 Y133.367 E0.15533
G1 X120.181 Y133.367 E0.01676
G1 X116.683 Y129.869 E0.15533
G1 X117.217 Y129.869 E0.01676
G1 X120.715 Y133.367 E0.15533
G1 X121.249 Y133.367 E0.01676
G1 X117.751 Y129.869 E0.15533
G1 X118.285 Y129.869 E0.01676
G1 X121.783 Y133.367 E0.15533
G1 X122.317 Y133.367 E0.01676
G1 X118.819 Y129.869 E0.15533
G1 X119.353 Y129.869 E0.01676
G1 X122.851 Y133.367 E0.15533
G1 X123.385 Y133.367 E0.01676
G1 X119.887 Y129.869 E0.15533
G1 X120.421 Y129.869 E0.01676
G1 X123.919 Y133.367 E0.15533
G1 X124.453 Y133.367 E0.01676
G1 X120.955 Y129.869 E0.15533
G1 X121.489 Y129.869 E0.01676
G1 X124.987 Y133.367 E0.15533
G1 X125.521 Y133.367 E0.01676
G1 X122.022 Y129.869 E0.15533
