; generated by Slic3r 1.37.2-prusa3d-win64 on 2018-02-28 at 18:08:38

; 

; external perimeters extrusion width = 0.50mm
; perimeters extrusion width = 0.50mm
; infill extrusion width = 0.60mm
; solid infill extrusion width = 0.50mm
; top infill extrusion width = 0.45mm

M107
M115 U3.1.0 ; tell printer latest fw version
M83  ; extruder relative mode
M104 S150
M140 S65 ; set bed temp
G28 W ; home all without mesh bed level
G1 X125 Z80 F1000
M190 S65 ; wait for bed temp
M104 S220 ; set extruder temp
G80 ; mesh bed leveling
M109 S220 ; wait for extruder temp
G1 Y-3.0 F1000.0 ; go outside print area
G92 E0.0
G1 X60.0 E9.0  F1000.0 ; intro line
G1 X100.0 E12.5  F1000.0 ; intro line
G92 E0.0
M900 K30 ; Filament gcode
G21 ; set units to millimeters
G90 ; use absolute coordinates
M83 ; use relative distances for extrusion
;BEFORE_LAYER_CHANGE
;0.2


G1 E-0.80000 F2100.00000
G1 Z0.200 F7200.000
;AFTER_LAYER_CHANGE
;0.2
G1 X63.410 Y37.270 F7200.000
G1 E0.80000 F2100.00000
M204 S1000
G1 F1800
G1 X63.625 Y36.717 E0.02006
G1 X73.179 Y20.168 E0.64684
G1 X73.555 Y19.690 E0.02057
G1 X74.038 Y19.321 E0.02057
G1 X74.602 Y19.084 E0.02070
G1 X75.207 Y18.997 E0.02070
G1 X94.248 Y18.997 E0.64451
G1 X94.825 Y19.068 E0.01967
G1 X95.371 Y19.277 E0.01980
G1 X95.851 Y19.612 E0.01980
G1 X96.236 Y20.052 E0.01980
G1 X103.130 Y32.066 E0.46884
G1 X103.264 Y32.829 E0.02622
G1 X103.264 Y42.889 E0.34054
G1 X103.188 Y43.462 E0.01954
G1 X102.977 Y43.999 E0.01954
G1 X96.290 Y55.582 E0.45274
G1 X95.816 Y56.137 E0.02469
G1 X95.197 Y56.524 E0.02469
G1 X94.270 Y56.720 E0.03209
G1 X75.233 Y56.720 E0.64438
G1 X74.653 Y56.646 E0.01980
G1 X74.104 Y56.433 E0.01993
G1 X73.584 Y56.056 E0.02173
G1 X73.182 Y55.555 E0.02173
G1 X63.619 Y38.988 E0.64749
G1 X63.408 Y38.439 E0.01993
G1 X63.337 Y37.854 E0.01993
G1 X63.403 Y37.329 E0.01790
G1 F5760
G1 X63.625 Y36.717 E-0.22546
G1 F5760
G1 X64.397 Y35.381 E-0.53454
G1 E-0.04000 F2100.00000
G1 X67.089 Y37.859 F7200.000
G1 E0.80000 F2100.00000
G1 F1800
G1 X75.916 Y22.568 E0.67103
G1 X93.572 Y22.568 E0.67103
G1 X98.841 Y31.694 E0.40051
G1 X84.630 Y31.694 E0.54013
G1 X82.377 Y32.143 E0.08731
G1 X80.369 Y33.484 E0.09175
G1 X79.028 Y35.491 E0.09175
G1 X78.557 Y37.859 E0.09175
G1 X79.028 Y40.226 E0.09175
G1 X80.369 Y42.233 E0.09175
G1 X82.377 Y43.575 E0.09175
G1 X84.630 Y44.023 E0.08731
G1 X98.841 Y44.023 E0.54013
G1 X93.572 Y53.149 E0.40051
G1 X75.916 Y53.149 E0.67103
G1 X67.119 Y37.911 E0.66875
G1 X66.561 Y37.859 F7200.000
G1 F1800
G1 X75.653 Y22.111 E0.69109
G1 X93.836 Y22.111 E0.69109
G1 X99.633 Y32.152 E0.44063
G1 X84.675 Y32.152 E0.56851
G1 X82.555 Y32.573 E0.08214
G1 X80.699 Y33.813 E0.08484
G1 X79.459 Y35.669 E0.08484
G1 X79.023 Y37.859 E0.08484
G1 X79.459 Y40.048 E0.08484
G1 X80.699 Y41.904 E0.08484
G1 X82.555 Y43.144 E0.08484
G1 X84.675 Y43.566 E0.08214
G1 X99.633 Y43.566 E0.56851
G1 X93.836 Y53.606 E0.44063
G1 X75.653 Y53.606 E0.69109
G1 X66.591 Y37.911 E0.68881
G1 X66.033 Y37.859 F7200.000
G1 F1800
G1 X75.389 Y21.654 E0.71115
G1 X94.100 Y21.654 E0.71115
G1 X100.425 Y32.609 E0.48075
G1 X84.720 Y32.609 E0.59689
G1 X82.733 Y33.004 E0.07697
G1 X81.029 Y34.143 E0.07793
G1 X79.889 Y35.848 E0.07793
G1 X79.489 Y37.859 E0.07793
G1 X79.889 Y39.870 E0.07793
G1 X81.029 Y41.574 E0.07793
G1 X82.733 Y42.714 E0.07793
G1 X84.720 Y43.109 E0.07697
G1 X100.425 Y43.109 E0.59689
G1 X94.100 Y54.063 E0.48075
G1 X75.389 Y54.063 E0.71115
G1 X66.063 Y37.911 E0.70887
G1 X66.379 Y37.659 F7200.000
G1 F5760
G1 X67.155 Y36.007 E-0.76000
G1 E-0.04000 F2100.00000
G1 X67.376 Y37.635 F7200.000
G1 E0.80000 F2100.00000
G1 F1800
G1 X82.547 Y52.806 E0.81615
G1 X83.194 Y52.806 E0.02461
G1 X67.763 Y37.375 E0.83011
G1 X68.000 Y36.965 E0.01802
G1 X83.841 Y52.806 E0.85218
G1 X84.488 Y52.806 E0.02461
G1 X68.237 Y36.555 E0.87424
G1 X68.474 Y36.145 E0.01802
G1 X85.135 Y52.806 E0.89631
G1 X85.782 Y52.806 E0.02461
G1 X68.711 Y35.735 E0.91837
G1 X68.947 Y35.325 E0.01802
G1 X86.429 Y52.806 E0.94044
G1 X87.076 Y52.806 E0.02461
G1 X69.184 Y34.914 E0.96250
G1 X69.421 Y34.504 E0.01802
G1 X87.723 Y52.806 E0.98457
G1 X88.370 Y52.806 E0.02461
G1 X69.658 Y34.094 E1.00663
G1 X69.895 Y33.684 E0.01802
G1 X89.017 Y52.806 E1.02870
G1 X89.664 Y52.806 E0.02461
G1 X70.131 Y33.274 E1.05076
G1 X70.368 Y32.864 E0.01802
G1 X90.516 Y53.012 E1.08389
G1 F5760
G1 X88.965 Y51.460 E-0.76000
G1 E-0.04000 F2100.00000
G1 X82.106 Y53.012 F7200.000
G1 E0.80000 F2100.00000
G1 F1800
G1 X67.649 Y38.555 E0.77772
G1 F5760
G1 X69.200 Y40.107 E-0.76000
G1 E-0.04000 F2100.00000
G1 X68.533 Y40.086 F7200.000
G1 E0.80000 F2100.00000
G1 F1800
G1 X81.459 Y53.012 E0.69538
G1 X80.812 Y53.012 F7200.000
G1 F1800
G1 X69.416 Y41.616 E0.61303
G1 F5760
G1 X70.968 Y43.168 E-0.76000
G1 E-0.04000 F2100.00000
G1 X70.300 Y43.147 F7200.000
G1 E0.80000 F2100.00000
G1 F1800
G1 X80.165 Y53.012 E0.53068
G1 X79.518 Y53.012 F7200.000
G1 F1800
G1 X71.184 Y44.678 E0.44833
G1 F5760
G1 X72.736 Y46.230 E-0.76000
G1 E-0.04000 F2100.00000
G1 X72.068 Y46.209 F7200.000
G1 E0.80000 F2100.00000
G1 F1800
G1 X78.871 Y53.012 E0.36598
G1 X78.224 Y53.012 F7200.000
G1 F1800
G1 X72.952 Y47.739 E0.28363
G1 F5760
G1 X74.503 Y49.291 E-0.76000
G1 E-0.04000 F2100.00000
G1 X73.835 Y49.270 F7200.000
G1 E0.80000 F2100.00000
G1 F1800
G1 X77.577 Y53.012 E0.20129
G1 X76.930 Y53.012 F7200.000
G1 F1800
G1 X74.719 Y50.801 E0.11894
G1 F5760
G1 X76.271 Y52.353 E-0.76000
G1 E-0.04000 F2100.00000
G1 X81.659 Y43.507 F7200.000
G1 E0.80000 F2100.00000
G1 F1800
G1 X90.958 Y52.806 E0.50025
G1 X91.605 Y52.806 E0.02461
G1 X82.809 Y44.010 E0.47320
G1 X83.616 Y44.171 E0.03132
G1 X92.252 Y52.806 E0.46455
G1 X92.899 Y52.806 E0.02461
G1 X84.424 Y44.331 E0.45591
G1 X84.596 Y44.366 E0.00667
G1 X85.105 Y44.366 E0.01937
G1 X93.437 Y52.698 E0.44823
G1 X93.674 Y52.287 E0.01802
G1 X85.752 Y44.366 E0.42616
G1 X86.399 Y44.366 E0.02461
G1 X93.911 Y51.877 E0.40410
G1 X94.147 Y51.467 E0.01802
G1 X87.046 Y44.366 E0.38203
G1 X87.693 Y44.366 E0.02461
G1 X94.384 Y51.057 E0.35997
G1 X94.621 Y50.647 E0.01802
G1 X88.340 Y44.366 E0.33790
G1 X88.987 Y44.366 E0.02461
G1 X94.858 Y50.237 E0.31584
G1 X95.095 Y49.826 E0.01802
G1 X89.634 Y44.366 E0.29377
G1 X90.281 Y44.366 E0.02461
G1 X95.331 Y49.416 E0.27171
G1 X95.568 Y49.006 E0.01802
G1 X90.928 Y44.366 E0.24964
G1 X91.575 Y44.366 E0.02461
G1 X95.805 Y48.596 E0.22758
G1 X96.042 Y48.186 E0.01802
G1 X92.222 Y44.366 E0.20551
G1 X92.869 Y44.366 E0.02461
G1 X96.279 Y47.776 E0.18345
G1 X96.515 Y47.365 E0.01802
G1 X93.516 Y44.366 E0.16138
G1 X94.163 Y44.366 E0.02461
G1 X96.752 Y46.955 E0.13931
G1 X96.989 Y46.545 E0.01802
G1 X94.810 Y44.366 E0.11725
G1 X95.457 Y44.366 E0.02461
G1 X97.226 Y46.135 E0.09518
G1 X97.463 Y45.725 E0.01802
G1 X96.104 Y44.366 E0.07312
G1 X96.750 Y44.366 E0.02461
G1 X97.700 Y45.315 E0.05105
G1 X97.936 Y44.904 E0.01802
G1 X97.397 Y44.366 E0.02899
G1 X98.044 Y44.366 E0.02461
G1 X98.324 Y44.645 E0.01502
G1 F5760
G1 X98.044 Y44.366 E-0.13680
G1 F5760
G1 X97.397 Y44.366 E-0.22408
G1 F5760
G1 X97.936 Y44.904 E-0.26395
G1 F5760
G1 X97.741 Y45.242 E-0.13517
G1 E-0.04000 F2100.00000
G1 X98.305 Y31.039 F7200.000
G1 E0.80000 F2100.00000
G1 F1800
G1 X90.176 Y22.911 E0.43727
G1 X89.529 Y22.911 E0.02461
G1 X97.970 Y31.352 E0.45407
G1 X97.323 Y31.352 E0.02461
G1 X88.882 Y22.911 E0.45407
G1 X88.235 Y22.911 E0.02461
G1 X96.676 Y31.352 E0.45407
G1 X96.029 Y31.352 E0.02461
G1 X87.588 Y22.911 E0.45407
G1 X86.941 Y22.911 E0.02461
G1 X95.382 Y31.352 E0.45407
G1 X94.735 Y31.352 E0.02461
G1 X86.295 Y22.911 E0.45407
G1 X85.648 Y22.911 E0.02461
G1 X94.088 Y31.352 E0.45407
G1 X93.441 Y31.352 E0.02461
G1 X85.001 Y22.911 E0.45407
G1 X84.354 Y22.911 E0.02461
G1 X92.794 Y31.352 E0.45407
G1 X92.147 Y31.352 E0.02461
G1 X83.707 Y22.911 E0.45407
G1 X83.060 Y22.911 E0.02461
G1 X91.500 Y31.352 E0.45407
G1 X90.853 Y31.352 E0.02461
G1 X82.413 Y22.911 E0.45407
G1 X81.766 Y22.911 E0.02461
G1 X90.206 Y31.352 E0.45407
G1 X89.559 Y31.352 E0.02461
G1 X81.119 Y22.911 E0.45407
G1 X80.472 Y22.911 E0.02461
G1 X88.912 Y31.352 E0.45407
G1 X88.265 Y31.352 E0.02461
G1 X79.825 Y22.911 E0.45407
G1 X79.178 Y22.911 E0.02461
G1 X87.618 Y31.352 E0.45407
G1 X86.971 Y31.352 E0.02461
G1 X78.531 Y22.911 E0.45407
G1 X77.884 Y22.911 E0.02461
G1 X86.324 Y31.352 E0.45407
G1 X85.678 Y31.352 E0.02461
G1 X77.237 Y22.911 E0.45407
G1 X76.590 Y22.911 E0.02461
G1 X85.031 Y31.352 E0.45407
G1 X84.596 Y31.352 E0.01653
G1 X84.419 Y31.387 E0.00687
G1 X76.052 Y23.020 E0.45012
G1 X75.815 Y23.430 E0.01802
G1 X83.879 Y31.494 E0.43383
G1 X83.340 Y31.602 E0.02093
G1 X75.578 Y23.840 E0.41754
G1 X75.341 Y24.250 E0.01802
G1 X82.800 Y31.709 E0.40125
G1 X82.260 Y31.816 E0.02093
G1 X75.104 Y24.660 E0.38496
G1 X74.868 Y25.071 E0.01802
G1 X81.868 Y32.071 E0.37657
G1 X81.480 Y32.330 E0.01774
G1 X74.631 Y25.481 E0.36845
G1 X74.394 Y25.891 E0.01802
G1 X81.092 Y32.589 E0.36032
G1 X80.704 Y32.848 E0.01774
G1 X74.157 Y26.301 E0.35220
G1 X73.920 Y26.711 E0.01802
G1 X80.316 Y33.107 E0.34407
G1 X80.122 Y33.237 E0.00887
G1 X79.993 Y33.431 E0.00887
G1 X73.684 Y27.121 E0.33941
G1 X73.447 Y27.532 E0.01802
G1 X79.734 Y33.818 E0.33821
G1 X79.474 Y34.206 E0.01774
G1 X73.210 Y27.942 E0.33701
G1 X72.973 Y28.352 E0.01802
G1 X79.215 Y34.594 E0.33581
G1 X78.956 Y34.982 E0.01774
G1 X72.736 Y28.762 E0.33460
G1 X72.499 Y29.172 E0.01802
G1 X78.702 Y35.375 E0.33367
G1 X78.595 Y35.914 E0.02093
G1 X72.263 Y29.582 E0.34063
G1 X72.026 Y29.993 E0.01802
G1 X78.487 Y36.454 E0.34760
G1 X78.380 Y36.994 E0.02093
G1 X71.789 Y30.403 E0.35456
G1 X71.552 Y30.813 E0.01802
G1 X78.273 Y37.533 E0.36153
G1 X78.208 Y37.859 E0.01262
G1 X78.272 Y38.179 E0.01243
G1 X71.315 Y31.223 E0.37421
G1 X71.079 Y31.633 E0.01802
G1 X78.432 Y38.987 E0.39559
G1 X78.593 Y39.794 E0.03132
G1 X70.842 Y32.043 E0.41697
G1 X70.605 Y32.454 E0.01802
G1 X79.096 Y40.944 E0.45677
G1 F5760
G1 X77.544 Y39.393 E-0.76000
G1 E-0.04000 F2100.00000
G1 X97.421 Y29.509 F7200.000
G1 E0.80000 F2100.00000
G1 F1800
G1 X90.823 Y22.911 E0.35493
G1 X91.470 Y22.911 E0.02461
G1 X96.537 Y27.978 E0.27258
G1 F5760
G1 X94.986 Y26.426 E-0.76000
G1 E-0.04000 F2100.00000
G1 X95.653 Y26.447 F7200.000
G1 E0.80000 F2100.00000
G1 F1800
G1 X92.117 Y22.911 E0.19023
G1 X92.764 Y22.911 E0.02461
G1 X94.770 Y24.916 E0.10788
M106 S249.9
;BEFORE_LAYER_CHANGE
;0.4


G1 F5760
G1 X93.218 Y23.365 E-0.76000
G1 E-0.04000 F2100.00000
G1 Z0.400 F7200.000
;AFTER_LAYER_CHANGE
;0.4
M104 S215 ; set temperature
M140 S55 ; set bed temperature
G1 X103.130 Y32.066 F7200.000
G1 E0.80000 F2100.00000
G1 F3600
G1 X103.264 Y32.829 E0.02622
G1 X103.264 Y42.889 E0.34054
G1 X103.188 Y43.462 E0.01954
G1 X102.977 Y43.999 E0.01954
G1 X96.290 Y55.582 E0.45274
G1 X95.816 Y56.137 E0.02469
G1 X95.197 Y56.524 E0.02469
G1 X94.270 Y56.720 E0.03209
G1 X75.233 Y56.720 E0.64438
G1 X74.653 Y56.646 E0.01980
G1 X74.104 Y56.433 E0.01993
G1 X73.584 Y56.056 E0.02173
G1 X73.182 Y55.555 E0.02173
G1 X63.619 Y38.988 E0.64749
G1 X63.408 Y38.439 E0.01993
G1 X63.337 Y37.854 E0.01993
G1 X63.410 Y37.270 E0.01993
G1 X63.625 Y36.717 E0.02006
G1 X73.179 Y20.168 E0.64684
G1 X73.555 Y19.690 E0.02057
G1 X74.038 Y19.321 E0.02057
G1 X74.602 Y19.084 E0.02070
G1 X75.207 Y18.997 E0.02070
G1 X94.248 Y18.997 E0.64451
G1 X94.825 Y19.068 E0.01967
G1 X95.371 Y19.277 E0.01980
G1 X95.851 Y19.612 E0.01980
G1 X96.236 Y20.052 E0.01980
G1 X103.100 Y32.014 E0.46681
G1 F5760
G1 X103.264 Y32.829 E-0.28795
G1 F5760
G1 X103.264 Y34.192 E-0.47205
G1 E-0.04000 F2100.00000
G1 X98.841 Y31.694 F7200.000
G1 E0.80000 F2100.00000
M204 S800
G1 F4800
G1 X84.630 Y31.694 E0.54013
G1 X82.377 Y32.143 E0.08731
G1 X80.369 Y33.484 E0.09175
G1 X79.028 Y35.491 E0.09175
G1 X78.557 Y37.859 E0.09175
G1 X79.028 Y40.226 E0.09175
G1 X80.369 Y42.233 E0.09175
G1 X82.377 Y43.575 E0.09175
G1 X84.630 Y44.023 E0.08731
G1 X98.841 Y44.023 E0.54013
G1 X93.572 Y53.149 E0.40051
G1 X75.916 Y53.149 E0.67103
G1 X67.089 Y37.859 E0.67103
G1 X75.916 Y22.568 E0.67103
G1 X93.572 Y22.568 E0.67103
G1 X98.811 Y31.643 E0.39823
M204 S1000
G1 X99.633 Y32.152 F7200.000
M204 S800
G1 F4800
G1 X84.675 Y32.152 E0.56851
G1 X82.555 Y32.573 E0.08214
G1 X80.699 Y33.813 E0.08484
G1 X79.459 Y35.669 E0.08484
G1 X79.023 Y37.859 E0.08484
G1 X79.459 Y40.048 E0.08484
G1 X80.699 Y41.904 E0.08484
G1 X82.555 Y43.144 E0.08484
G1 X84.675 Y43.566 E0.08214
G1 X99.633 Y43.566 E0.56851
G1 X93.836 Y53.606 E0.44063
G1 X75.653 Y53.606 E0.69109
G1 X66.561 Y37.859 E0.69109
G1 X75.653 Y22.111 E0.69109
G1 X93.836 Y22.111 E0.69109
G1 X99.603 Y32.100 E0.43835
M204 S1000
G1 X100.425 Y32.609 F7200.000
M204 S800
G1 F3000
G1 X84.720 Y32.609 E0.59689
G1 X82.733 Y33.004 E0.07697
G1 X81.029 Y34.143 E0.07793
G1 X79.889 Y35.848 E0.07793
G1 X79.489 Y37.859 E0.07793
G1 X79.889 Y39.870 E0.07793
G1 X81.029 Y41.574 E0.07793
G1 X82.733 Y42.714 E0.07793
G1 X84.720 Y43.109 E0.07697
G1 X100.425 Y43.109 E0.59689
G1 X94.100 Y54.063 E0.48075
G1 X75.389 Y54.063 E0.71115
G1 X66.033 Y37.859 E0.71115
G1 X75.389 Y21.654 E0.71115
G1 X94.100 Y21.654 E0.71115
G1 X100.395 Y32.557 E0.47847
M204 S1000
G1 X100.028 Y32.554 F7200.000
G1 F5760
G1 X98.200 Y32.564 E-0.76000
G1 E-0.04000 F2100.00000
G1 X97.839 Y31.557 F7200.000
G1 E0.80000 F2100.00000
M204 S2000
G1 F7200
G1 X98.173 Y31.223 E0.01799
G1 X97.936 Y30.813 E0.01802
G1 X97.397 Y31.352 E0.02899
G1 X96.750 Y31.352 E0.02461
G1 X97.700 Y30.403 E0.05106
G1 X97.463 Y29.992 E0.01802
G1 X96.103 Y31.352 E0.07312
G1 X95.457 Y31.352 E0.02461
G1 X97.226 Y29.582 E0.09519
G1 X96.989 Y29.172 E0.01802
G1 X94.810 Y31.352 E0.11725
G1 X94.163 Y31.352 E0.02461
G1 X96.752 Y28.762 E0.13932
G1 X96.515 Y28.352 E0.01802
G1 X93.516 Y31.352 E0.16138
G1 X92.869 Y31.352 E0.02461
G1 X96.279 Y27.942 E0.18345
G1 X96.042 Y27.531 E0.01802
G1 X92.222 Y31.352 E0.20551
G1 X91.575 Y31.352 E0.02461
G1 X95.805 Y27.121 E0.22758
G1 X95.568 Y26.711 E0.01802
G1 X90.928 Y31.352 E0.24964
G1 X90.281 Y31.352 E0.02461
G1 X95.331 Y26.301 E0.27171
G1 X95.095 Y25.891 E0.01802
G1 X89.634 Y31.352 E0.29377
G1 X88.987 Y31.352 E0.02461
G1 X94.858 Y25.481 E0.31584
G1 X94.621 Y25.070 E0.01802
G1 X88.340 Y31.352 E0.33790
G1 X87.693 Y31.352 E0.02461
G1 X94.384 Y24.660 E0.35997
G1 X94.147 Y24.250 E0.01802
G1 X87.046 Y31.352 E0.38203
G1 X86.399 Y31.352 E0.02461
G1 X93.911 Y23.840 E0.40410
G1 X93.674 Y23.430 E0.01802
G1 X85.752 Y31.352 E0.42616
G1 X85.105 Y31.352 E0.02461
G1 X93.437 Y23.020 E0.44823
G1 X93.374 Y22.911 E0.00477
G1 X92.899 Y22.911 E0.01810
G1 X84.424 Y31.386 E0.45591
G1 X83.616 Y31.547 E0.03132
G1 X92.252 Y22.911 E0.46456
G1 X91.605 Y22.911 E0.02461
G1 X82.808 Y31.707 E0.47320
G1 X82.243 Y31.820 E0.02194
G1 X81.659 Y32.210 E0.02674
G1 X90.958 Y22.911 E0.50026
G1 X90.311 Y22.911 E0.02461
G1 X70.368 Y42.854 E1.07283
G1 X70.605 Y43.264 E0.01802
G1 X79.096 Y34.773 E0.45678
G1 X78.705 Y35.357 E0.02674
G1 X78.593 Y35.923 E0.02194
G1 X70.842 Y43.674 E0.41698
G1 X71.079 Y44.084 E0.01802
G1 X78.432 Y36.730 E0.39560
G1 X78.272 Y37.538 E0.03132
G1 X71.315 Y44.494 E0.37421
G1 X71.552 Y44.904 E0.01802
G1 X78.273 Y38.184 E0.36153
G1 X78.380 Y38.724 E0.02093
G1 X71.789 Y45.315 E0.35456
G1 X72.026 Y45.725 E0.01802
G1 X78.487 Y39.263 E0.34760
G1 X78.595 Y39.803 E0.02093
G1 X72.263 Y46.135 E0.34063
G1 X72.499 Y46.545 E0.01802
G1 X78.702 Y40.343 E0.33367
G1 X78.956 Y40.735 E0.01780
G1 X72.736 Y46.955 E0.33461
G1 X72.973 Y47.365 E0.01802
G1 X79.215 Y41.123 E0.33581
G1 X79.474 Y41.511 E0.01774
G1 X73.210 Y47.776 E0.33701
G1 X73.447 Y48.186 E0.01802
G1 X79.734 Y41.899 E0.33821
G1 X79.993 Y42.287 E0.01774
G1 X73.684 Y48.596 E0.33941
G1 X73.920 Y49.006 E0.01802
G1 X80.316 Y42.610 E0.34407
G1 X80.704 Y42.869 E0.01774
G1 X74.157 Y49.416 E0.35220
G1 X74.394 Y49.826 E0.01802
G1 X81.092 Y43.128 E0.36032
G1 X81.480 Y43.388 E0.01774
G1 X74.631 Y50.237 E0.36845
G1 X74.868 Y50.647 E0.01802
G1 X81.868 Y43.647 E0.37657
G1 X82.260 Y43.901 E0.01780
G1 X75.104 Y51.057 E0.38496
G1 X75.341 Y51.467 E0.01802
G1 X82.800 Y44.008 E0.40125
G1 X83.340 Y44.116 E0.02093
G1 X75.578 Y51.877 E0.41754
G1 X75.815 Y52.287 E0.01802
G1 X83.879 Y44.223 E0.43383
G1 X84.419 Y44.330 E0.02093
G1 X76.052 Y52.698 E0.45012
G1 X76.114 Y52.806 E0.00477
G1 X76.590 Y52.806 E0.01809
G1 X85.031 Y44.366 E0.45407
G1 X85.677 Y44.366 E0.02461
G1 X77.237 Y52.806 E0.45407
