; generated by Slic3r 1.37.2-prusa3d-win64 on 2018-04-09 at 00:16:02

; 

; external perimeters extrusion width = 0.60mm
; perimeters extrusion width = 0.43mm
; infill extrusion width = 0.70mm
; solid infill extrusion width = 0.70mm
; top infill extrusion width = 0.43mm
; first layer extrusion width = 0.42mm

M107
M115 U3.1.0 ; tell printer latest fw version
M83  ; extruder relative mode
M104 S150
M140 S75 ; set bed temp
G28 W ; home all without mesh bed level
G1 X125 Z80 F1000
M190 S75 ; wait for bed temp
M104 S230 ; set extruder temp
G80 ; mesh bed leveling
M109 S230 ; wait for extruder temp
G1 Y-3.0 F1000.0 ; go outside print area
G92 E0.0
G1 X60.0 E9.0  F1000.0 ; intro line
G1 X100.0 E12.5  F1000.0 ; intro line
G92 E0.0
M900 K45 ; Filament gcode
G21 ; set units to millimeters
G90 ; use absolute coordinates
M83 ; use relative distances for extrusion
;BEFORE_LAYER_CHANGE
;0.2


G1 E-0.80000 F2100.00000
G1 Z0.200 F7200.000
;AFTER_LAYER_CHANGE
;0.2
G1 X89.427 Y104.560 F7200.000
G1 E0.80000 F2100.00000
M204 S1000
G1 F3600
G1 X90.162 Y103.423 E0.04246
G1 X90.880 Y102.717 E0.03157
G1 X97.661 Y97.317 E0.27180
G1 X98.817 Y96.692 E0.04121
G1 X100.096 Y96.366 E0.04139
G1 X197.719 Y95.704 E3.06095
G1 X198.738 Y95.802 E0.03210
G1 X199.725 Y96.095 E0.03228
G1 X200.639 Y96.569 E0.03228
G1 X201.445 Y97.210 E0.03228
G1 X202.114 Y97.992 E0.03228
G1 X202.622 Y98.888 E0.03228
G1 X202.950 Y99.864 E0.03228
G1 X203.086 Y100.884 E0.03228
G1 X203.087 Y109.085 E0.25714
G1 X202.999 Y109.905 E0.02584
G1 X202.786 Y110.701 E0.02584
G1 X202.494 Y111.379 E0.02315
G1 X202.109 Y112.016 E0.02333
G1 X201.639 Y112.593 E0.02333
G1 X201.094 Y113.100 E0.02333
G1 X200.485 Y113.527 E0.02333
G1 X199.822 Y113.865 E0.02333
G1 X199.119 Y114.109 E0.02333
G1 X198.395 Y114.253 E0.02315
G1 X94.046 Y114.291 E3.27179
G1 X93.115 Y114.170 E0.02942
G1 X92.220 Y113.888 E0.02942
G1 X91.388 Y113.455 E0.02942
G1 X90.639 Y112.880 E0.02960
G1 X90.005 Y112.188 E0.02942
G1 X89.500 Y111.391 E0.02960
G1 X89.143 Y110.523 E0.02942
G1 X88.941 Y109.601 E0.02960
G1 X88.898 Y106.807 E0.08762
G1 X89.000 Y105.845 E0.03032
G1 X89.408 Y104.617 E0.04058
G1 F5760
G1 X90.162 Y103.423 E-0.48916
G1 F5760
G1 X90.720 Y102.875 E-0.27085
G1 E-0.04000 F2100.00000
G1 X97.358 Y102.934 F7200.000
G1 E0.80000 F2100.00000
G1 F3600
G1 X97.787 Y100.468 E0.07847
G1 X98.096 Y99.740 E0.02481
G1 X98.667 Y98.973 E0.03000
G1 X99.383 Y98.379 E0.02916
G1 X100.133 Y97.978 E0.02666
G1 X100.974 Y97.755 E0.02729
G1 X125.276 Y99.273 E0.76344
G1 X129.805 Y99.506 E0.14221
G1 X134.319 Y99.616 E0.14157
G1 X138.837 Y99.603 E0.14164
G1 X143.376 Y99.469 E0.14239
G1 X198.381 Y97.141 E1.72618
G1 X199.024 Y97.306 E0.02083
G1 X199.616 Y97.563 E0.02021
G1 X200.692 Y98.447 E0.04367
G1 X201.272 Y99.266 E0.03148
G1 X201.616 Y100.239 E0.03234
G1 X201.664 Y109.416 E0.28774
G1 X201.502 Y110.183 E0.02457
G1 X201.179 Y110.910 E0.02496
G1 X200.287 Y111.949 E0.04292
G1 X199.303 Y112.582 E0.03669
G1 X198.175 Y112.878 E0.03655
G1 X94.657 Y112.878 E3.24575
G1 X93.541 Y112.608 E0.03602
G1 X92.561 Y112.015 E0.03588
G1 X91.711 Y111.080 E0.03964
G1 X91.374 Y110.425 E0.02310
G1 X91.109 Y109.377 E0.03388
G1 X91.134 Y106.258 E0.09780
G1 X91.321 Y105.516 E0.02400
G1 X91.932 Y104.425 E0.03921
G1 X92.545 Y103.811 E0.02719
G1 X93.110 Y103.402 E0.02190
G1 X94.282 Y102.978 E0.03906
G1 X97.298 Y102.935 E0.09459
G1 X97.676 Y103.308 F7200.000
G1 F3600
G1 X98.155 Y100.554 E0.08765
G1 X98.413 Y99.945 E0.02074
G1 X98.926 Y99.248 E0.02714
G1 X99.609 Y98.682 E0.02780
G1 X100.289 Y98.322 E0.02414
G1 X101.039 Y98.127 E0.02431
G1 X125.254 Y99.650 E0.76073
G1 X129.791 Y99.883 E0.14243
G1 X134.315 Y99.993 E0.14189
G1 X138.843 Y99.980 E0.14196
G1 X143.390 Y99.845 E0.14263
G1 X198.316 Y97.514 E1.72371
G1 X198.888 Y97.658 E0.01852
G1 X199.440 Y97.898 E0.01887
G1 X200.431 Y98.720 E0.04036
G1 X200.947 Y99.460 E0.02829
G1 X201.249 Y100.332 E0.02894
G1 X201.286 Y109.396 E0.28421
G1 X201.138 Y110.083 E0.02202
G1 X200.847 Y110.730 E0.02224
G1 X200.020 Y111.681 E0.03952
G1 X199.176 Y112.225 E0.03149
G1 X198.150 Y112.501 E0.03331
G1 X94.679 Y112.501 E3.24427
G1 X93.708 Y112.269 E0.03129
G1 X92.820 Y111.739 E0.03243
G1 X92.033 Y110.883 E0.03647
G1 X91.733 Y110.308 E0.02031
G1 X91.486 Y109.354 E0.03090
G1 X91.505 Y106.325 E0.09499
G1 X91.663 Y105.675 E0.02098
G1 X92.217 Y104.672 E0.03592
G1 X92.800 Y104.089 E0.02585
G1 X93.308 Y103.724 E0.01961
G1 X94.378 Y103.344 E0.03559
G1 X97.616 Y103.309 E0.10155
G1 X97.994 Y103.683 F7200.000
G1 F3600
G1 X98.522 Y100.640 E0.09686
G1 X98.731 Y100.149 E0.01673
G1 X99.185 Y99.523 E0.02426
G1 X99.834 Y98.986 E0.02640
G1 X100.443 Y98.667 E0.02157
G1 X101.103 Y98.500 E0.02133
G1 X125.233 Y100.026 E0.75808
G1 X129.777 Y100.260 E0.14266
G1 X134.311 Y100.370 E0.14221
G1 X138.849 Y100.358 E0.14228
G1 X143.403 Y100.222 E0.14286
G1 X198.252 Y97.886 E1.72129
G1 X198.753 Y98.010 E0.01619
G1 X199.264 Y98.233 E0.01749
G1 X200.168 Y98.992 E0.03700
G1 X200.621 Y99.651 E0.02508
G1 X200.882 Y100.423 E0.02556
G1 X200.909 Y109.376 E0.28071
G1 X200.774 Y109.980 E0.01942
G1 X200.516 Y110.547 E0.01953
G1 X199.756 Y111.411 E0.03609
G1 X198.999 Y111.891 E0.02809
G1 X198.126 Y112.124 E0.02835
G1 X94.700 Y112.124 E3.24282
G1 X93.874 Y111.929 E0.02664
G1 X93.076 Y111.462 E0.02898
G1 X92.354 Y110.683 E0.03330
G1 X92.091 Y110.190 E0.01753
G1 X91.863 Y109.330 E0.02787
G1 X91.877 Y106.389 E0.09223
G1 X92.007 Y105.831 E0.01795
G1 X92.504 Y104.919 E0.03256
G1 X93.056 Y104.367 E0.02448
G1 X93.504 Y104.047 E0.01728
G1 X94.471 Y103.711 E0.03210
G1 X97.934 Y103.684 E0.10856
G1 X98.397 Y104.059 F7200.000
G1 F3600
G1 X98.368 Y103.733 E0.01026
G1 X98.890 Y100.726 E0.09570
G1 X99.050 Y100.351 E0.01279
G1 X99.445 Y99.797 E0.02133
G1 X100.059 Y99.288 E0.02500
G1 X100.557 Y99.027 E0.01765
G1 X101.167 Y98.873 E0.01971
G1 X125.211 Y100.402 E0.75541
G1 X129.762 Y100.636 E0.14290
G1 X134.307 Y100.747 E0.14253
G1 X138.855 Y100.735 E0.14260
G1 X143.417 Y100.599 E0.14310
G1 X198.189 Y98.259 E1.71891
G1 X198.618 Y98.363 E0.01384
G1 X199.088 Y98.567 E0.01607
G1 X199.903 Y99.261 E0.03357
G1 X200.293 Y99.839 E0.02186
G1 X200.514 Y100.511 E0.02220
G1 X200.532 Y109.355 E0.27730
G1 X200.423 Y109.841 E0.01562
G1 X200.185 Y110.364 E0.01801
G1 X199.492 Y111.141 E0.03263
G1 X198.872 Y111.535 E0.02306
G1 X198.100 Y111.747 E0.02510
G1 X94.722 Y111.747 E3.24134
G1 X94.036 Y111.588 E0.02206
G1 X93.331 Y111.182 E0.02551
G1 X92.673 Y110.481 E0.03015
G1 X92.449 Y110.068 E0.01474
G1 X92.240 Y109.305 E0.02478
G1 X92.250 Y106.449 E0.08955
G1 X92.353 Y105.985 E0.01493
G1 X92.790 Y105.166 E0.02912
G1 X93.311 Y104.645 E0.02307
G1 X93.699 Y104.371 E0.01490
G1 X94.563 Y104.077 E0.02861
G1 X98.337 Y104.059 E0.11833
G1 X98.853 Y104.436 F7200.000
G1 F3600
G1 X98.746 Y103.760 E0.02144
G1 X99.258 Y100.812 E0.09381
G1 X99.370 Y100.550 E0.00894
G1 X99.706 Y100.071 E0.01836
G1 X100.283 Y99.592 E0.02352
G1 X100.709 Y99.373 E0.01501
G1 X101.228 Y99.246 E0.01675
G1 X125.189 Y100.779 E0.75282
G1 X129.748 Y101.013 E0.14313
G1 X134.303 Y101.124 E0.14285
G1 X138.861 Y101.112 E0.14292
G1 X143.431 Y100.976 E0.14334
G1 X198.128 Y98.632 E1.71658
G1 X198.484 Y98.715 E0.01144
G1 X198.911 Y98.901 E0.01460
G1 X199.636 Y99.528 E0.03006
G1 X199.964 Y100.024 E0.01863
G1 X200.146 Y100.597 E0.01887
G1 X200.155 Y109.333 E0.27391
G1 X200.061 Y109.735 E0.01295
G1 X199.855 Y110.178 E0.01532
G1 X199.230 Y110.869 E0.02920
G1 X198.741 Y111.181 E0.01818
G1 X198.073 Y111.370 E0.02179
G1 X94.742 Y111.370 E3.23985
G1 X94.196 Y111.245 E0.01756
G1 X93.584 Y110.901 E0.02203
G1 X92.990 Y110.276 E0.02703
G1 X92.805 Y109.943 E0.01196
G1 X92.617 Y109.279 E0.02163
G1 X92.623 Y106.506 E0.08696
G1 X92.700 Y106.134 E0.01190
G1 X93.078 Y105.411 E0.02557
G1 X93.565 Y104.924 E0.02161
G1 X93.891 Y104.696 E0.01247
G1 X94.652 Y104.445 E0.02511
G1 X98.793 Y104.436 E0.12986
G1 X99.403 Y104.813 F7200.000
G1 F3600
G1 X99.248 Y104.467 E0.01191
G1 X99.123 Y103.789 E0.02159
G1 X99.625 Y100.902 E0.09190
G1 X99.706 Y100.721 E0.00620
G1 X99.967 Y100.344 E0.01438
G1 X100.507 Y99.897 E0.02199
G1 X100.857 Y99.720 E0.01230
G1 X101.286 Y99.619 E0.01382
G1 X125.167 Y101.155 E0.75032
G1 X129.734 Y101.390 E0.14337
G1 X134.299 Y101.501 E0.14317
G1 X138.867 Y101.489 E0.14324
G1 X143.444 Y101.353 E0.14358
G1 X198.070 Y99.005 E1.71434
G1 X198.350 Y99.068 E0.00899
G1 X198.732 Y99.235 E0.01307
G1 X199.368 Y99.794 E0.02654
G1 X199.612 Y100.163 E0.01388
G1 X199.778 Y100.683 E0.01712
G1 X199.778 Y109.309 E0.27044
G1 X199.700 Y109.625 E0.01020
G1 X199.527 Y109.990 E0.01267
G1 X198.970 Y110.595 E0.02580
G1 X198.608 Y110.827 E0.01347
G1 X198.045 Y110.993 E0.01841
G1 X94.763 Y110.993 E3.23834
G1 X94.353 Y110.901 E0.01318
G1 X93.834 Y110.618 E0.01852
G1 X93.305 Y110.068 E0.02393
G1 X93.160 Y109.813 E0.00919
G1 X92.995 Y109.251 E0.01838
G1 X92.997 Y106.556 E0.08449
G1 X93.049 Y106.279 E0.00886
G1 X93.366 Y105.656 E0.02191
G1 X93.819 Y105.203 E0.02008
G1 X94.081 Y105.023 E0.00995
G1 X94.738 Y104.813 E0.02163
G1 X99.343 Y104.813 E0.14441
G1 X100.226 Y105.190 F7200.000
G1 F3600
G1 X99.705 Y104.530 E0.02637
G1 X99.610 Y104.356 E0.00623
G1 X99.501 Y103.817 E0.01723
G1 X99.980 Y101.029 E0.08870
G1 X100.028 Y100.919 E0.00375
G1 X100.261 Y100.581 E0.01287
G1 X100.728 Y100.202 E0.01886
G1 X100.966 Y100.082 E0.00835
G1 X101.346 Y99.993 E0.01223
G1 X125.145 Y101.532 E0.74778
G1 X129.720 Y101.767 E0.14361
G1 X134.295 Y101.878 E0.14349
G1 X138.873 Y101.866 E0.14356
G1 X143.458 Y101.730 E0.14382
G1 X198.016 Y99.379 E1.71220
G1 X198.218 Y99.422 E0.00648
G1 X198.553 Y99.568 E0.01146
G1 X199.098 Y100.058 E0.02298
G1 X199.261 Y100.303 E0.00923
G1 X199.410 Y100.770 E0.01536
G1 X199.401 Y109.284 E0.26697
G1 X199.352 Y109.480 E0.00631
G1 X199.200 Y109.801 E0.01115
G1 X198.711 Y110.320 E0.02233
G1 X198.471 Y110.475 E0.00898
G1 X198.015 Y110.616 E0.01495
G1 X94.782 Y110.616 E3.23679
G1 X94.504 Y110.556 E0.00892
G1 X94.082 Y110.332 E0.01497
G1 X93.617 Y109.855 E0.02089
G1 X93.513 Y109.679 E0.00643
G1 X93.372 Y109.221 E0.01500
G1 X93.372 Y106.599 E0.08222
G1 X93.401 Y106.417 E0.00579
G1 X93.656 Y105.900 E0.01806
G1 X94.072 Y105.483 E0.01848
G1 X94.269 Y105.351 E0.00743
G1 X94.767 Y105.190 E0.01642
G1 X100.166 Y105.190 E0.16927
G1 F5760
G1 X99.705 Y104.530 E-0.27887
G1 F5760
G1 X99.610 Y104.356 E-0.06879
G1 F5760
G1 X99.501 Y103.817 E-0.19035
G1 F5760
G1 X99.610 Y103.185 E-0.22199
G1 E-0.04000 F2100.00000
G1 X103.670 Y105.567 F7200.000
G1 E0.80000 F2100.00000
G1 F3600
G1 X103.682 Y105.202 E0.01145
G1 X100.852 Y105.018 E0.08892
G1 X100.739 Y104.990 E0.00367
G1 X100.370 Y104.765 E0.01353
G1 X100.012 Y104.311 E0.01813
G1 X99.957 Y104.208 E0.00367
G1 X99.878 Y103.783 E0.01356
G1 X100.338 Y101.147 E0.08388
G1 X100.555 Y100.820 E0.01230
G1 X100.947 Y100.510 E0.01568
G1 X101.075 Y100.444 E0.00452
G1 X101.405 Y100.366 E0.01061
G1 X125.123 Y101.908 E0.74525
G1 X129.705 Y102.144 E0.14385
G1 X134.291 Y102.255 E0.14381
G1 X138.879 Y102.243 E0.14388
G1 X143.472 Y102.106 E0.14406
G1 X197.966 Y99.753 E1.71023
G1 X198.088 Y99.777 E0.00387
G1 X198.372 Y99.901 E0.00974
G1 X198.825 Y100.320 E0.01935
G1 X198.913 Y100.450 E0.00492
G1 X199.033 Y100.802 E0.01167
G1 X199.029 Y109.221 E0.26396
G1 X199.001 Y109.338 E0.00377
G1 X198.872 Y109.611 E0.00947
G1 X198.456 Y110.042 E0.01880
G1 X198.328 Y110.126 E0.00479
G1 X197.984 Y110.239 E0.01136
G1 X94.801 Y110.239 E3.23521
G1 X94.650 Y110.207 E0.00484
G1 X94.327 Y110.044 E0.01134
G1 X93.925 Y109.637 E0.01795
G1 X93.862 Y109.536 E0.00371
G1 X93.749 Y109.190 E0.01144
G1 X93.749 Y106.616 E0.08068
G1 X93.768 Y106.508 E0.00345
G1 X93.945 Y106.144 E0.01270
G1 X94.324 Y105.765 E0.01682
G1 X94.454 Y105.680 E0.00484
G1 X94.798 Y105.567 E0.01136
G1 X103.610 Y105.567 E0.27631
G1 F5760
G1 X103.682 Y105.202 E-0.12879
G1 F5760
G1 X101.864 Y105.084 E-0.63121
G1 E-0.04000 F2100.00000
G1 X115.281 Y105.944 F7200.000
G1 E0.80000 F2100.00000
G1 F3600
G1 X115.293 Y105.580 E0.01145
G1 X100.866 Y104.634 E0.45333
G1 X100.644 Y104.503 E0.00808
G1 X100.322 Y104.095 E0.01631
G1 X100.256 Y103.812 E0.00911
G1 X100.700 Y101.270 E0.08091
G1 X100.814 Y101.096 E0.00653
G1 X101.168 Y100.816 E0.01415
G1 X101.413 Y100.744 E0.00800
G1 X125.102 Y102.285 E0.74430
G1 X129.691 Y102.521 E0.14409
G1 X134.287 Y102.632 E0.14413
G1 X138.886 Y102.620 E0.14420
G1 X143.486 Y102.483 E0.14430
G1 X197.929 Y100.128 E1.70863
G1 X198.190 Y100.232 E0.00880
G1 X198.551 Y100.578 E0.01567
G1 X198.656 Y100.838 E0.00880
G1 X198.656 Y109.169 E0.26120
G1 X198.546 Y109.419 E0.00856
G1 X198.203 Y109.762 E0.01522
G1 X197.948 Y109.862 E0.00856
G1 X94.819 Y109.862 E3.23356
G1 X94.568 Y109.752 E0.00856
G1 X94.225 Y109.409 E0.01522
G1 X94.126 Y109.155 E0.00856
G1 X94.132 Y106.605 E0.07993
G1 X94.235 Y106.387 E0.00757
G1 X94.578 Y106.044 E0.01522
G1 X94.833 Y105.944 E0.00856
G1 X115.221 Y105.944 E0.63926
G1 F5760
G1 X115.293 Y105.580 E-0.12879
G1 F5760
G1 X113.475 Y105.460 E-0.63121
G1 E-0.04000 F2100.00000
G1 X127.306 Y106.321 F7200.000
G1 E0.80000 F2100.00000
G1 F3600
G1 X127.316 Y105.955 E0.01151
G1 X124.668 Y105.811 E0.08315
G1 X100.983 Y104.271 E0.74418
G1 X100.912 Y104.234 E0.00251
G1 X100.655 Y103.908 E0.01303
G1 X100.635 Y103.830 E0.00251
G1 X101.043 Y101.427 E0.07642
G1 X101.079 Y101.367 E0.00219
G1 X101.361 Y101.144 E0.01128
G1 X101.428 Y101.123 E0.00219
G1 X125.080 Y102.661 E0.74316
G1 X129.677 Y102.897 E0.14433
G1 X134.282 Y103.009 E0.14445
G1 X138.892 Y102.997 E0.14452
G1 X143.499 Y102.860 E0.14453
G1 X197.888 Y100.507 E1.70691
G1 X197.960 Y100.534 E0.00242
G1 X198.248 Y100.810 E0.01251
G1 X198.278 Y100.881 E0.00242
G1 X198.278 Y109.113 E0.25809
G1 X198.250 Y109.182 E0.00235
G1 X197.976 Y109.456 E0.01215
G1 X197.907 Y109.485 E0.00235
G1 X94.875 Y109.485 E3.23049
G1 X94.805 Y109.456 E0.00235
G1 X94.532 Y109.182 E0.01215
G1 X94.503 Y109.113 E0.00235
G1 X94.503 Y106.693 E0.07586
G1 X94.532 Y106.624 E0.00235
G1 X94.805 Y106.350 E0.01215
G1 X94.875 Y106.321 E0.00235
G1 X127.246 Y106.321 E1.01498
G1 F5760
G1 X127.316 Y105.955 E-0.12936
G1 F5760
G1 X125.498 Y105.856 E-0.63064
G1 E-0.04000 F2100.00000
G1 X145.277 Y105.952 F7200.000
G1 E0.80000 F2100.00000
G1 F3600
G1 X192.805 Y103.900 E1.49157
G1 X193.134 Y103.930 E0.01035
G1 X193.470 Y104.024 E0.01096
G1 X193.731 Y104.167 E0.00932
G1 X193.862 Y104.333 E0.00664
G1 X193.861 Y105.915 E0.04961
G1 X193.706 Y106.072 E0.00692
G1 X193.417 Y106.219 E0.01016
G1 X193.015 Y106.309 E0.01292
G1 X192.778 Y106.321 E0.00743
G1 X145.285 Y106.321 E1.48910
G1 X145.279 Y106.012 E0.00969
G1 F5760
G1 X147.471 Y105.915 E-0.76000
G1 E-0.04000 F2100.00000
G1 X162.747 Y105.635 F7200.000
G1 E0.80000 F2100.00000
G1 F3600
G1 X162.746 Y105.575 E0.00188
G1 X192.796 Y104.277 E0.94306
G1 X193.069 Y104.302 E0.00859
G1 X193.485 Y104.437 E0.01372
G1 X193.484 Y105.762 E0.04154
G1 X193.288 Y105.861 E0.00689
G1 X192.963 Y105.934 E0.01044
G1 X192.768 Y105.944 E0.00613
G1 X162.754 Y105.944 E0.94107
G1 X162.749 Y105.695 E0.00781
G1 F5760
G1 X162.746 Y105.575 E-0.04156
G1 F5760
G1 X164.818 Y105.486 E-0.71844
G1 E-0.04000 F2100.00000
G1 X180.217 Y105.318 F7200.000
G1 E0.80000 F2100.00000
G1 F3600
G1 X180.215 Y105.198 E0.00376
G1 X192.787 Y104.655 E0.39456
G1 X193.108 Y104.684 E0.01011
G1 X193.107 Y105.537 E0.02673
G1 X192.761 Y105.567 E0.01089
G1 X180.223 Y105.567 E0.39313
G1 X180.219 Y105.378 E0.00593
G1 F5760
G1 X180.215 Y105.198 E-0.06234
G1 F5760
G1 X182.227 Y105.111 E-0.69766
G1 E-0.04000 F2100.00000
G1 X194.196 Y106.073 F7200.000
G1 E0.80000 F2100.00000
G1 F3600
G1 X194.239 Y105.904 E0.00549
G1 X194.239 Y104.312 E0.04990
G1 X194.175 Y104.108 E0.00670
G1 X194.075 Y103.974 E0.00526
G1 X193.935 Y103.849 E0.00587
G1 X193.614 Y103.673 E0.01150
G1 X193.202 Y103.557 E0.01340
G1 X192.814 Y103.522 E0.01223
G1 X143.755 Y105.641 E1.53963
G1 X139.946 Y105.764 E0.11950
G1 X136.128 Y105.806 E0.11971
G1 X132.310 Y105.764 E0.11971
G1 X128.493 Y105.641 E0.11975
G1 X124.691 Y105.435 E0.11938
G1 X101.131 Y103.903 E0.74027
G1 X101.027 Y103.771 E0.00526
G1 X101.397 Y101.596 E0.06917
G1 X101.510 Y101.507 E0.00454
G1 X125.058 Y103.038 E0.73987
G1 X129.663 Y103.274 E0.14457
G1 X134.278 Y103.387 E0.14477
G1 X138.898 Y103.374 E0.14484
