; generated by Slic3r 1.37.2-prusa3d-win64 on 2018-04-11 at 20:09:28

; 

; external perimeters extrusion width = 0.60mm
; perimeters extrusion width = 0.50mm
; infill extrusion width = 0.70mm
; solid infill extrusion width = 0.70mm
; top infill extrusion width = 0.50mm
; first layer extrusion width = 0.45mm

M107
M115 U3.1.0 ; tell printer latest fw version
M83  ; extruder relative mode
M104 S150
M140 S75 ; set bed temp
G28 W ; home all without mesh bed level
G1 X125 Z80 F1000
M190 S75 ; wait for bed temp
M104 S230 ; set extruder temp
G80 ; mesh bed leveling
M109 S230 ; wait for extruder temp
G1 Y-3.0 F1000.0 ; go outside print area
G92 E0.0
G1 X60.0 E9.0  F1000.0 ; intro line
G1 X100.0 E12.5  F1000.0 ; intro line
G92 E0.0
M900 K45 ; Filament gcode
G21 ; set units to millimeters
G90 ; use absolute coordinates
M83 ; use relative distances for extrusion
;BEFORE_LAYER_CHANGE
;0.2


G1 E-0.80000 F2100.00000
G1 Z0.200 F7200.000
;AFTER_LAYER_CHANGE
;0.2
G1 X116.393 Y71.580 F7200.000
G1 E0.80000 F2100.00000
M204 S1000
G1 F3600
G1 X117.117 Y70.597 E0.04133
G1 X118.048 Y69.798 E0.04152
G1 X119.034 Y69.270 E0.03785
G1 X120.107 Y68.956 E0.03785
G1 X120.923 Y68.870 E0.02778
G1 X123.119 Y68.868 E0.07432
G1 X124.231 Y68.984 E0.03785
G1 X125.300 Y69.330 E0.03804
G1 X126.271 Y69.886 E0.03785
G1 X127.110 Y70.633 E0.03804
G1 X132.795 Y77.771 E0.30887
G1 X133.430 Y79.067 E0.04886
G1 X133.700 Y80.490 E0.04905
G1 X134.321 Y177.948 E3.29890
G1 X134.187 Y178.932 E0.03359
G1 X133.873 Y179.879 E0.03379
G1 X133.394 Y180.748 E0.03359
G1 X132.760 Y181.519 E0.03379
G1 X131.999 Y182.157 E0.03359
G1 X131.130 Y182.647 E0.03379
G1 X130.191 Y182.968 E0.03359
G1 X129.209 Y183.112 E0.03359
G1 X120.897 Y183.117 E0.28134
G1 X120.019 Y183.015 E0.02991
G1 X119.170 Y182.771 E0.02991
G1 X118.462 Y182.443 E0.02642
G1 X117.808 Y182.017 E0.02642
G1 X117.222 Y181.500 E0.02642
G1 X116.717 Y180.905 E0.02642
G1 X116.303 Y180.244 E0.02642
G1 X115.988 Y179.529 E0.02642
G1 X115.780 Y178.777 E0.02642
G1 X115.682 Y178.003 E0.02642
G1 X115.686 Y73.907 E3.52350
G1 X115.908 Y72.701 E0.04152
G1 X116.369 Y71.635 E0.03930
G1 F5760
G1 X117.117 Y70.597 E-0.44318
G1 F5760
G1 X117.811 Y70.001 E-0.31682
G1 E-0.04000 F2100.00000
G1 X127.370 Y77.081 F7200.000
G1 E0.80000 F2100.00000
G1 F3600
G1 X129.496 Y77.447 E0.07301
G1 X130.249 Y77.730 E0.02723
G1 X131.115 Y78.317 E0.03541
G1 X132.015 Y79.404 E0.04776
G1 X132.420 Y80.323 E0.03400
G1 X132.589 Y81.283 E0.03300
G1 X131.041 Y105.295 E0.81444
G1 X130.809 Y109.817 E0.15328
G1 X130.699 Y114.323 E0.15255
G1 X130.712 Y118.832 E0.15263
G1 X130.846 Y123.364 E0.15349
G1 X133.209 Y177.985 E1.85057
G1 X132.955 Y179.233 E0.04312
G1 X132.328 Y180.337 E0.04296
G1 X131.310 Y181.303 E0.04751
G1 X130.587 Y181.686 E0.02767
G1 X129.426 Y181.988 E0.04062
G1 X120.113 Y181.915 E0.31523
G1 X119.372 Y181.671 E0.02643
G1 X118.669 Y181.280 E0.02723
G1 X117.778 Y180.457 E0.04107
G1 X117.138 Y179.453 E0.04028
G1 X116.807 Y178.221 E0.04318
G1 X116.807 Y74.570 E3.50847
G1 X117.123 Y73.362 E0.04227
G1 X117.688 Y72.432 E0.03683
G1 X118.520 Y71.610 E0.03961
G1 X119.533 Y71.046 E0.03925
G1 X120.609 Y70.799 E0.03738
G1 X123.609 Y70.798 E0.10154
G1 X124.595 Y71.021 E0.03419
G1 X125.550 Y71.519 E0.03648
G1 X126.550 Y72.485 E0.04707
G1 X127.006 Y73.215 E0.02912
G1 X127.340 Y74.262 E0.03722
G1 X127.370 Y77.021 E0.09339
G1 X126.965 Y77.426 F7200.000
G1 F3600
G1 X129.374 Y77.836 E0.08271
G1 X130.042 Y78.081 E0.02408
G1 X130.862 Y78.638 E0.03356
G1 X131.655 Y79.596 E0.04209
G1 X132.024 Y80.421 E0.03061
G1 X132.181 Y81.283 E0.02963
G1 X130.635 Y105.271 E0.81366
G1 X130.402 Y109.802 E0.15356
G1 X130.292 Y114.318 E0.15292
G1 X130.305 Y118.838 E0.15300
G1 X130.439 Y123.379 E0.15377
G1 X132.801 Y177.978 E1.84984
G1 X132.583 Y179.063 E0.03747
G1 X132.024 Y180.065 E0.03883
G1 X131.091 Y180.958 E0.04371
G1 X130.459 Y181.299 E0.02433
G1 X129.401 Y181.580 E0.03705
G1 X120.210 Y181.518 E0.31110
G1 X119.518 Y181.291 E0.02466
G1 X118.890 Y180.938 E0.02438
G1 X118.074 Y180.177 E0.03777
G1 X117.522 Y179.315 E0.03465
G1 X117.214 Y178.193 E0.03937
G1 X117.214 Y74.596 E3.50665
G1 X117.487 Y73.546 E0.03672
G1 X117.994 Y72.701 E0.03334
G1 X118.743 Y71.951 E0.03589
G1 X119.704 Y71.416 E0.03724
G1 X120.675 Y71.201 E0.03364
G1 X123.585 Y71.205 E0.09851
G1 X124.476 Y71.411 E0.03095
G1 X125.333 Y71.864 E0.03281
G1 X126.248 Y72.759 E0.04332
G1 X126.626 Y73.363 E0.02412
G1 X126.943 Y74.357 E0.03531
G1 X126.965 Y77.366 E0.10185
G1 X126.560 Y77.770 F7200.000
G1 F3600
G1 X129.255 Y78.226 E0.09250
G1 X129.835 Y78.433 E0.02086
G1 X130.609 Y78.958 E0.03168
G1 X131.294 Y79.787 E0.03639
G1 X131.643 Y80.565 E0.02885
G1 X131.773 Y81.281 E0.02464
G1 X130.229 Y105.247 E0.81291
G1 X129.995 Y109.786 E0.15384
G1 X129.885 Y114.314 E0.15329
G1 X129.897 Y118.845 E0.15337
G1 X130.033 Y123.394 E0.15405
G1 X132.394 Y177.972 E1.84913
G1 X132.211 Y178.896 E0.03189
G1 X131.718 Y179.795 E0.03470
G1 X130.871 Y180.615 E0.03992
G1 X130.327 Y180.913 E0.02099
G1 X129.375 Y181.173 E0.03342
G1 X120.307 Y181.122 E0.30693
G1 X119.665 Y180.911 E0.02287
G1 X119.114 Y180.597 E0.02148
G1 X118.371 Y179.897 E0.03452
G1 X117.905 Y179.174 E0.02912
G1 X117.621 Y178.164 E0.03551
G1 X117.621 Y74.623 E3.50476
G1 X117.872 Y73.680 E0.03302
G1 X118.327 Y72.936 E0.02955
G1 X119.008 Y72.261 E0.03244
G1 X119.873 Y71.787 E0.03339
G1 X120.696 Y71.608 E0.02849
G1 X123.560 Y71.612 E0.09697
G1 X124.355 Y71.801 E0.02765
G1 X125.113 Y72.208 E0.02913
G1 X125.944 Y73.030 E0.03954
G1 X126.266 Y73.555 E0.02086
G1 X126.536 Y74.391 E0.02974
G1 X126.560 Y77.710 E0.11236
G1 X126.156 Y78.115 F7200.000
G1 F3600
G1 X129.139 Y78.616 E0.10240
G1 X129.630 Y78.785 E0.01756
G1 X130.357 Y79.279 E0.02974
G1 X130.934 Y79.978 E0.03070
G1 X131.261 Y80.709 E0.02710
G1 X131.365 Y81.280 E0.01964
G1 X129.822 Y105.224 E0.81215
G1 X129.588 Y109.771 E0.15411
G1 X129.478 Y114.309 E0.15367
G1 X129.490 Y118.851 E0.15374
G1 X129.626 Y123.409 E0.15433
G1 X131.986 Y177.966 E1.84842
G1 X131.837 Y178.732 E0.02641
G1 X131.410 Y179.527 E0.03055
G1 X130.647 Y180.274 E0.03615
G1 X130.192 Y180.528 E0.01765
G1 X129.347 Y180.766 E0.02971
G1 X120.403 Y180.725 E0.30273
G1 X119.813 Y180.531 E0.02105
G1 X119.339 Y180.257 E0.01851
G1 X118.669 Y179.619 E0.03131
G1 X118.287 Y179.031 E0.02374
G1 X118.028 Y178.135 E0.03158
G1 X118.028 Y74.651 E3.50281
G1 X118.256 Y73.818 E0.02923
G1 X118.659 Y73.173 E0.02574
G1 X119.272 Y72.573 E0.02902
G1 X120.040 Y72.160 E0.02952
G1 X120.716 Y72.015 E0.02342
G1 X123.535 Y72.019 E0.09540
G1 X124.232 Y72.189 E0.02427
G1 X124.891 Y72.550 E0.02545
G1 X125.637 Y73.298 E0.03575
G1 X125.906 Y73.745 E0.01764
G1 X126.130 Y74.426 E0.02427
G1 X126.155 Y78.055 E0.12285
G1 X125.752 Y78.570 F7200.000
G1 F3600
G1 X126.308 Y78.553 E0.01883
G1 X129.057 Y79.015 E0.09436
G1 X129.425 Y79.138 E0.01314
G1 X130.103 Y79.598 E0.02772
G1 X130.599 Y80.212 E0.02672
G1 X130.878 Y80.850 E0.02358
G1 X130.957 Y81.279 E0.01477
G1 X129.416 Y105.200 E0.81139
G1 X129.182 Y109.755 E0.15439
G1 X129.071 Y114.305 E0.15404
G1 X129.083 Y118.858 E0.15412
G1 X129.219 Y123.424 E0.15461
G1 X131.578 Y177.960 E1.84773
G1 X131.463 Y178.571 E0.02103
G1 X131.101 Y179.261 E0.02638
G1 X130.421 Y179.935 E0.03241
G1 X130.053 Y180.145 E0.01432
G1 X129.318 Y180.359 E0.02592
G1 X120.500 Y180.328 E0.29849
G1 X119.961 Y180.151 E0.01920
G1 X119.568 Y179.919 E0.01546
G1 X118.968 Y179.342 E0.02817
G1 X118.668 Y178.885 E0.01850
G1 X118.435 Y178.104 E0.02758
G1 X118.435 Y74.680 E3.50080
G1 X118.639 Y73.958 E0.02540
G1 X118.960 Y73.447 E0.02042
G1 X119.535 Y72.885 E0.02719
G1 X120.203 Y72.534 E0.02556
G1 X120.736 Y72.422 E0.01845
G1 X123.511 Y72.426 E0.09390
G1 X124.060 Y72.559 E0.01913
G1 X124.669 Y72.893 E0.02350
G1 X125.328 Y73.564 E0.03185
G1 X125.544 Y73.933 E0.01446
G1 X125.723 Y74.462 E0.01892
G1 X125.752 Y78.510 E0.13700
G1 X125.349 Y79.112 F7200.000
G1 F3600
G1 X125.919 Y78.972 E0.01987
G1 X126.263 Y78.958 E0.01165
G1 X128.976 Y79.414 E0.09314
G1 X129.225 Y79.494 E0.00886
G1 X129.806 Y79.880 E0.02360
G1 X130.265 Y80.445 E0.02463
G1 X130.495 Y80.988 E0.01997
G1 X130.549 Y81.279 E0.01000
G1 X129.009 Y105.177 E0.81061
G1 X128.775 Y109.740 E0.15466
G1 X128.664 Y114.301 E0.15441
G1 X128.676 Y118.865 E0.15449
G1 X128.812 Y123.438 E0.15489
G1 X131.171 Y177.956 E1.84707
G1 X131.086 Y178.414 E0.01578
G1 X130.789 Y178.998 E0.02218
G1 X130.190 Y179.598 E0.02870
G1 X129.910 Y179.763 E0.01100
G1 X129.288 Y179.952 E0.02201
G1 X120.596 Y179.931 E0.29419
G1 X120.111 Y179.772 E0.01729
G1 X119.799 Y179.584 E0.01233
G1 X119.268 Y179.066 E0.02513
G1 X119.048 Y178.735 E0.01345
G1 X118.842 Y178.073 E0.02347
G1 X118.842 Y74.710 E3.49870
G1 X119.021 Y74.102 E0.02147
G1 X119.264 Y73.719 E0.01536
G1 X119.752 Y73.231 E0.02335
G1 X120.366 Y72.908 E0.02347
G1 X120.755 Y72.830 E0.01345
G1 X123.486 Y72.833 E0.09244
G1 X123.888 Y72.930 E0.01399
G1 X124.445 Y73.234 E0.02149
G1 X125.017 Y73.828 E0.02788
G1 X125.168 Y74.089 E0.01021
G1 X125.316 Y74.501 E0.01485
G1 X125.348 Y79.052 E0.15402
G1 X124.945 Y79.941 F7200.000
G1 F3600
G1 X125.437 Y79.563 E0.02101
G1 X125.669 Y79.453 E0.00871
G1 X125.964 Y79.377 E0.01029
G1 X126.219 Y79.363 E0.00865
G1 X128.893 Y79.813 E0.09178
G1 X129.070 Y79.871 E0.00630
G1 X129.550 Y80.197 E0.01967
G1 X129.926 Y80.673 E0.02052
G1 X130.109 Y81.119 E0.01633
G1 X130.144 Y81.323 E0.00698
G1 X128.603 Y105.153 E0.80832
G1 X128.368 Y109.725 E0.15494
G1 X128.257 Y114.296 E0.15478
G1 X128.269 Y118.871 E0.15486
G1 X128.405 Y123.453 E0.15517
G1 X130.763 Y177.951 E1.84642
G1 X130.708 Y178.262 E0.01068
G1 X130.474 Y178.737 E0.01793
G1 X129.955 Y179.266 E0.02506
G1 X129.761 Y179.384 E0.00770
G1 X129.255 Y179.545 E0.01796
G1 X120.693 Y179.535 E0.28983
G1 X120.263 Y179.393 E0.01532
G1 X120.035 Y179.252 E0.00907
G1 X119.568 Y178.790 E0.02225
G1 X119.425 Y178.580 E0.00860
G1 X119.249 Y178.039 E0.01923
G1 X119.249 Y74.742 E3.49649
G1 X119.401 Y74.250 E0.01743
G1 X119.567 Y73.992 E0.01040
G1 X120.016 Y73.542 E0.02150
G1 X120.523 Y73.284 E0.01923
G1 X120.773 Y73.237 E0.00863
G1 X123.463 Y73.241 E0.09103
G1 X123.723 Y73.302 E0.00904
G1 X124.178 Y73.543 E0.01743
G1 X124.680 Y74.058 E0.02436
G1 X124.792 Y74.245 E0.00738
G1 X124.921 Y74.606 E0.01296
G1 X124.944 Y79.881 E0.17857
G1 X124.538 Y80.731 F7200.000
G1 F3600
G1 X124.848 Y80.807 E0.01078
G1 X125.046 Y80.430 E0.01441
G1 X125.125 Y80.329 E0.00435
G1 X125.640 Y79.917 E0.02235
G1 X125.792 Y79.841 E0.00574
G1 X126.043 Y79.777 E0.00874
G1 X126.213 Y79.771 E0.00576
G1 X128.807 Y80.211 E0.08908
G1 X128.912 Y80.247 E0.00375
G1 X129.251 Y80.475 E0.01382
G1 X129.587 Y80.900 E0.01835
G1 X129.721 Y81.243 E0.01245
G1 X129.739 Y81.360 E0.00402
G1 X128.197 Y105.130 E0.80626
G1 X127.961 Y109.709 E0.15522
G1 X127.850 Y114.292 E0.15516
G1 X127.862 Y118.878 E0.15523
G1 X127.999 Y123.468 E0.15545
G1 X130.355 Y177.948 E1.84581
G1 X130.327 Y178.117 E0.00580
G1 X130.156 Y178.480 E0.01359
G1 X129.714 Y178.937 E0.02154
G1 X129.603 Y179.008 E0.00444
G1 X129.220 Y179.138 E0.01370
G1 X120.789 Y179.138 E0.28538
G1 X120.417 Y179.016 E0.01324
G1 X120.278 Y178.924 E0.00564
G1 X119.867 Y178.514 E0.01965
G1 X119.799 Y178.417 E0.00402
G1 X119.656 Y178.004 E0.01480
G1 X119.656 Y74.776 E3.49412
G1 X119.778 Y74.405 E0.01324
G1 X119.869 Y74.265 E0.00564
G1 X120.279 Y73.855 E0.01961
G1 X120.672 Y73.664 E0.01480
G1 X120.789 Y73.644 E0.00401
G1 X123.439 Y73.648 E0.08970
G1 X123.562 Y73.677 E0.00430
G1 X123.913 Y73.854 E0.01331
G1 X124.348 Y74.294 E0.02092
G1 X124.416 Y74.404 E0.00441
G1 X124.526 Y74.710 E0.01099
G1 X124.538 Y80.671 E0.20178
G1 F5760
G1 X124.848 Y80.807 E-0.11708
G1 F5760
G1 X125.046 Y80.430 E-0.14745
G1 F5760
G1 X125.125 Y80.329 E-0.04450
G1 F5760
G1 X125.640 Y79.917 E-0.22866
G1 F5760
G1 X125.792 Y79.841 E-0.05872
G1 F5760
G1 X126.043 Y79.777 E-0.08946
G1 F5760
G1 X126.213 Y79.771 E-0.05894
G1 F5760
G1 X126.256 Y79.778 E-0.01519
G1 E-0.04000 F2100.00000
G1 X124.131 Y92.534 F7200.000
G1 E0.80000 F2100.00000
G1 F3600
G1 X124.525 Y92.547 E0.01334
G1 X125.295 Y80.832 E0.39740
G1 X125.422 Y80.608 E0.00872
G1 X125.875 Y80.250 E0.01956
G1 X126.123 Y80.177 E0.00872
G1 X128.749 Y80.620 E0.09015
G1 X128.953 Y80.754 E0.00824
G1 X129.246 Y81.125 E0.01600
G1 X129.332 Y81.386 E0.00932
G1 X127.790 Y105.106 E0.80458
G1 X127.554 Y109.694 E0.15550
G1 X127.443 Y114.287 E0.15553
G1 X127.455 Y118.884 E0.15560
G1 X127.592 Y123.483 E0.15572
G1 X129.948 Y177.946 E1.84524
G1 X129.835 Y178.228 E0.01026
G1 X129.462 Y178.617 E0.01826
G1 X129.181 Y178.731 E0.01026
G1 X120.827 Y178.731 E0.28278
G1 X120.552 Y178.623 E0.00998
G1 X120.171 Y178.242 E0.01825
G1 X120.063 Y177.967 E0.00998
G1 X120.063 Y74.814 E3.49161
G1 X120.171 Y74.540 E0.00998
G1 X120.541 Y74.169 E0.01774
G1 X120.811 Y74.051 E0.00998
G1 X123.417 Y74.058 E0.08820
G1 X123.653 Y74.169 E0.00883
G1 X124.023 Y74.539 E0.01774
G1 X124.131 Y74.814 E0.00998
G1 X124.131 Y92.474 E0.59776
G1 F5760
G1 X124.525 Y92.547 E-0.13873
G1 F5760
G1 X124.643 Y90.757 E-0.62127
G1 E-0.04000 F2100.00000
G1 X123.725 Y105.082 F7200.000
G1 E0.80000 F2100.00000
G1 F3600
G1 X124.118 Y105.095 E0.01334
G1 X125.685 Y80.964 E0.81854
G1 X125.725 Y80.887 E0.00293
G1 X126.077 Y80.609 E0.01519
G1 X126.161 Y80.588 E0.00293
G1 X128.594 Y81.001 E0.08355
G1 X128.659 Y81.039 E0.00256
G1 X128.900 Y81.344 E0.01315
G1 X128.923 Y81.416 E0.00256
G1 X127.384 Y105.082 E0.80276
G1 X127.147 Y109.679 E0.15578
G1 X127.036 Y114.283 E0.15590
G1 X127.048 Y118.891 E0.15598
G1 X127.185 Y123.498 E0.15600
G1 X129.538 Y177.902 E1.84323
G1 X129.509 Y177.980 E0.00282
G1 X129.211 Y178.291 E0.01458
G1 X129.134 Y178.323 E0.00282
G1 X120.872 Y178.323 E0.27968
G1 X120.797 Y178.292 E0.00274
G1 X120.501 Y177.997 E0.01416
G1 X120.470 Y177.922 E0.00274
G1 X120.470 Y74.859 E3.48855
G1 X120.501 Y74.785 E0.00274
G1 X120.797 Y74.489 E0.01416
G1 X120.872 Y74.458 E0.00274
G1 X123.322 Y74.458 E0.08294
G1 X123.397 Y74.489 E0.00274
G1 X123.693 Y74.785 E0.01416
G1 X123.724 Y74.859 E0.00274
G1 X123.725 Y105.022 E1.02098
G1 F5760
G1 X124.118 Y105.095 E-0.13873
G1 F5760
G1 X124.235 Y103.305 E-0.62127
G1 E-0.04000 F2100.00000
G1 X124.124 Y128.092 F7200.000
G1 E0.80000 F2100.00000
G1 F3600
G1 X126.054 Y172.860 E1.51674
G1 X126.005 Y173.232 E0.01270
G1 X125.951 Y173.412 E0.00636
G1 X125.879 Y173.575 E0.00601
G1 X125.698 Y173.818 E0.01027
G1 X124.120 Y173.817 E0.05339
G1 X123.987 Y173.703 E0.00596
G1 X123.857 Y173.482 E0.00866
G1 X123.771 Y173.213 E0.00957
G1 X123.727 Y172.893 E0.01092
G1 X123.725 Y128.101 E1.51617
G1 X124.064 Y128.093 E0.01145
G1 F5760
G1 X124.161 Y130.286 E-0.76000
G1 E-0.04000 F2100.00000
G1 X124.471 Y147.002 F7200.000
G1 E0.80000 F2100.00000
G1 F3600
G1 X124.531 Y147.001 E0.00203
G1 X125.645 Y172.842 E0.87551
G1 X125.605 Y173.148 E0.01044
G1 X125.525 Y173.410 E0.00930
G1 X124.262 Y173.410 E0.04276
G1 X124.169 Y173.122 E0.01024
G1 X124.134 Y172.865 E0.00878
G1 X124.133 Y147.009 E0.87520
G1 X124.411 Y147.003 E0.00942
G1 F5760
G1 X124.531 Y147.001 E-0.04156
G1 F5760
G1 X124.621 Y149.073 E-0.71844
G1 E-0.04000 F2100.00000
G1 X124.819 Y165.912 F7200.000
G1 E0.80000 F2100.00000
G1 F3600
G1 X124.939 Y165.909 E0.00406
G1 X125.245 Y173.003 E0.24036
G1 X124.541 Y173.003 E0.02383
G1 X124.541 Y165.918 E0.23984
G1 X124.759 Y165.913 E0.00739
G1 F5760
G1 X124.939 Y165.909 E-0.06234
G1 F5760
G1 X125.026 Y167.921 E-0.69766
G1 E-0.04000 F2100.00000
G1 X123.910 Y174.173 F7200.000
G1 E0.80000 F2100.00000
G1 F3600
G1 X124.094 Y174.224 E0.00644
G1 X125.668 Y174.225 E0.05331
G1 X125.830 Y174.190 E0.00558
G1 X125.999 Y174.080 E0.00685
G1 X126.135 Y173.931 E0.00680
G1 X126.243 Y173.758 E0.00691
G1 X126.334 Y173.553 E0.00760
G1 X126.404 Y173.317 E0.00833
G1 X126.462 Y172.878 E0.01500
G1 X124.344 Y123.758 E1.66420
G1 X124.221 Y119.947 E0.12908
G1 X124.179 Y116.128 E0.12925
G1 X124.221 Y112.306 E0.12940
G1 X124.344 Y108.492 E0.12915
G1 X124.550 Y104.690 E0.12888
G1 X126.083 Y81.124 E0.79939
G1 X126.225 Y81.011 E0.00613
G1 X128.412 Y81.383 E0.07510
G1 X128.509 Y81.506 E0.00529
G1 X126.977 Y105.059 E0.79893
G1 X126.741 Y109.663 E0.15606
G1 X126.628 Y114.279 E0.15627
G1 X126.641 Y118.898 E0.15635
G1 X126.778 Y123.513 E0.15628
G1 X129.126 Y177.791 E1.83897
