; generated by Slic3r 1.37.2-prusa3d-win64 on 2018-02-05 at 20:19:29

; 

; external perimeters extrusion width = 0.45mm
; perimeters extrusion width = 0.45mm
; infill extrusion width = 0.45mm
; solid infill extrusion width = 0.45mm
; top infill extrusion width = 0.45mm
; support material extrusion width = 0.35mm
; first layer extrusion width = 0.42mm

M107
M115 U3.1.0 ; tell printer latest fw version
M83  ; extruder relative mode
M104 S150
M140 S75 ; set bed temp
G28 W ; home all without mesh bed level
G1 X125 Z80 F1000
M190 S75 ; wait for bed temp
M104 S230 ; set extruder temp
G80 ; mesh bed leveling
M109 S230 ; wait for extruder temp
G1 Y-3.0 F1000.0 ; go outside print area
G92 E0.0
G1 X60.0 E9.0  F1000.0 ; intro line
G1 X100.0 E12.5  F1000.0 ; intro line
G92 E0.0
M900 K45 ; Filament gcode
G21 ; set units to millimeters
G90 ; use absolute coordinates
M83 ; use relative distances for extrusion
;BEFORE_LAYER_CHANGE
;0.2


G1 E-0.80000 F2100.00000
G1 Z0.200 F7200.000
;AFTER_LAYER_CHANGE
;0.2
G1 X197.043 Y178.680 F7200.000
G1 E0.80000 F2100.00000
M204 S1000
G1 F1800
G1 X197.899 Y178.157 E0.03145
G1 X198.886 Y177.976 E0.03145
G1 X208.368 Y178.180 E0.29736
G1 X213.577 Y179.900 E0.17202
G1 X214.079 Y180.149 E0.01758
G1 X214.517 Y180.493 E0.01745
G1 X214.981 Y181.080 E0.02345
G1 X216.385 Y183.662 E0.09214
G1 X216.634 Y184.313 E0.02188
G1 X216.720 Y184.978 E0.02103
G1 X216.719 Y189.118 E0.12980
G1 X216.630 Y189.767 E0.02052
G1 X216.317 Y190.503 E0.02511
G1 X214.590 Y193.110 E0.09803
G1 X214.006 Y193.571 E0.02333
G1 X209.265 Y196.247 E0.17072
G1 X208.350 Y196.559 E0.03031
G1 X204.923 Y196.760 E0.10762
G1 X198.703 Y196.585 E0.19511
G1 X197.768 Y196.355 E0.03018
G1 X196.972 Y195.820 E0.03006
G1 X196.378 Y194.982 E0.03221
G1 X196.132 Y193.985 E0.03221
G1 X196.144 Y180.435 E0.42485
G1 X196.431 Y179.474 E0.03145
G1 X197.007 Y178.727 E0.02957
G1 X197.284 Y178.970 F7200.000
G1 F1800
G1 X198.025 Y178.513 E0.02731
G1 X198.885 Y178.353 E0.02743
G1 X208.299 Y178.551 E0.29524
G1 X213.433 Y180.248 E0.16952
G1 X214.231 Y180.741 E0.02942
G1 X214.656 Y181.271 E0.02130
G1 X216.040 Y183.816 E0.09082
G1 X216.265 Y184.392 E0.01941
G1 X216.343 Y184.972 E0.01835
G1 X216.342 Y189.107 E0.12965
G1 X216.270 Y189.653 E0.01728
G1 X215.997 Y190.304 E0.02213
G1 X214.344 Y192.822 E0.09443
G1 X213.813 Y193.247 E0.02130
G1 X209.087 Y195.914 E0.17015
G1 X208.310 Y196.183 E0.02579
G1 X204.924 Y196.383 E0.10637
G1 X198.751 Y196.210 E0.19362
G1 X197.950 Y196.023 E0.02579
G1 X197.258 Y195.572 E0.02590
G1 X196.726 Y194.835 E0.02849
G1 X196.508 Y193.953 E0.02849
G1 X196.516 Y180.505 E0.42165
G1 X196.756 Y179.668 E0.02731
G1 X197.248 Y179.018 E0.02555
G1 F5760
G1 X198.025 Y178.513 E-0.32118
G1 F5760
G1 X198.885 Y178.353 E-0.30301
G1 F5760
G1 X199.277 Y178.361 E-0.13580
G1 E-0.04000 F2100.00000
G1 X198.883 Y180.730 F7200.000
G1 E0.80000 F2100.00000
G1 F1800
G1 X198.883 Y193.836 E0.41095
G1 X199.637 Y193.836 E0.02365
G1 X199.637 Y180.899 E0.40563
G1 X200.391 Y180.899 E0.02365
G1 X200.391 Y193.836 E0.40563
G1 X201.145 Y193.836 E0.02365
G1 X201.145 Y180.899 E0.40563
G1 X201.899 Y180.899 E0.02365
G1 X201.899 Y193.836 E0.40563
G1 X202.653 Y193.836 E0.02365
G1 X202.653 Y180.899 E0.40563
G1 X203.407 Y180.899 E0.02365
G1 X203.407 Y193.836 E0.40563
G1 X204.162 Y193.836 E0.02365
G1 X204.162 Y180.899 E0.40563
G1 X204.916 Y180.899 E0.02365
G1 X204.916 Y194.006 E0.41095
G1 F5760
G1 X204.916 Y191.812 E-0.76000
G1 E-0.04000 F2100.00000
G1 X207.932 Y188.108 F7200.000
G1 E0.80000 F2100.00000
G1 F1800
G1 X207.932 Y185.899 E0.06925
G1 X208.083 Y185.648 E0.00917
G1 X208.252 Y185.437 E0.00850
G1 X208.448 Y185.249 E0.00850
G1 X208.687 Y185.077 E0.00922
G1 X208.687 Y188.598 E0.11041
G1 X209.072 Y188.786 E0.01344
G1 X209.441 Y188.883 E0.01196
G1 X209.441 Y184.793 E0.12824
G1 X209.691 Y184.766 E0.00788
G1 X209.962 Y184.772 E0.00850
G1 X210.195 Y184.806 E0.00739
G1 X210.195 Y188.869 E0.12738
G1 X210.574 Y188.753 E0.01244
G1 X210.949 Y188.550 E0.01336
G1 X210.949 Y185.125 E0.10740
G1 X211.182 Y185.309 E0.00930
G1 X211.369 Y185.505 E0.00850
G1 X211.577 Y185.801 E0.01133
G1 X211.703 Y186.061 E0.00907
G1 X211.703 Y187.993 E0.06057
G1 F5760
G1 X211.703 Y186.061 E-0.66910
G1 F5760
G1 X211.588 Y185.825 E-0.09090
G1 E-0.04000 F2100.00000
G1 X213.966 Y189.069 F7200.000
G1 E0.80000 F2100.00000
G1 F1800
G1 X213.966 Y184.994 E0.12776
G1 X213.824 Y184.699 E0.01026
G1 X213.622 Y184.355 E0.01251
G1 X213.391 Y184.030 E0.01251
G1 X213.212 Y183.814 E0.00879
G1 X213.212 Y184.246 E0.01354
G1 X213.320 Y184.696 E0.01452
G1 X213.468 Y185.558 E0.02742
G1 X213.541 Y186.420 E0.02712
G1 X213.549 Y186.857 E0.01370
G1 X213.539 Y187.304 E0.01401
G1 X213.462 Y188.164 E0.02709
G1 X213.394 Y188.606 E0.01401
G1 X213.212 Y189.429 E0.02643
G1 X213.212 Y190.112 E0.02142
G1 X211.703 Y191.173 F7200.000
G1 F1800
G1 X211.703 Y190.772 E0.01256
G1 X210.949 Y190.772 E0.02365
G1 X210.949 Y191.259 E0.01526
G1 X210.605 Y191.337 E0.01107
G1 X210.195 Y191.392 E0.01297
G1 X210.195 Y190.772 E0.01944
G1 X209.441 Y190.772 E0.02365
G1 X209.441 Y191.398 E0.01963
G1 X209.214 Y191.376 E0.00715
G1 X208.687 Y191.278 E0.01682
G1 X208.687 Y190.772 E0.01585
G1 X207.932 Y190.772 E0.02365
G1 X207.932 Y193.836 E0.09609
G1 X207.178 Y193.836 E0.02365
G1 X207.178 Y190.771 E0.09609
G1 X206.424 Y190.771 E0.02365
G1 X206.424 Y193.836 E0.09610
G1 X205.670 Y193.836 E0.02365
G1 X205.670 Y180.899 E0.40563
G1 X206.424 Y180.899 E0.02365
G1 X206.424 Y182.904 E0.06286
G1 X207.178 Y182.904 E0.02365
G1 X207.178 Y180.899 E0.06286
G1 X207.932 Y180.899 E0.02365
G1 X207.932 Y182.904 E0.06286
G1 X208.687 Y182.904 E0.02365
G1 X208.687 Y182.398 E0.01587
G1 X208.957 Y182.339 E0.00869
G1 X209.352 Y182.284 E0.01251
G1 X209.441 Y182.278 E0.00277
G1 X209.441 Y182.904 E0.01964
G1 X210.195 Y182.904 E0.02365
G1 X210.195 Y182.283 E0.01945
G1 X210.546 Y182.328 E0.01109
G1 X210.949 Y182.416 E0.01294
G1 X210.949 Y182.904 E0.01530
G1 X211.703 Y182.904 E0.02365
G1 X211.703 Y182.502 E0.01260
G1 F5760
G1 X211.703 Y182.904 E-0.13916
G1 F5760
G1 X210.949 Y182.904 E-0.26121
G1 F5760
G1 X210.949 Y182.416 E-0.16903
G1 F5760
G1 X210.546 Y182.328 E-0.14298
G1 F5760
G1 X210.409 Y182.311 E-0.04763
G1 E-0.04000 F2100.00000
G1 X211.341 Y184.582 F7200.000
G1 E0.80000 F2100.00000
G1 F1800
G1 X211.718 Y184.896 E0.01541
G1 X211.955 Y185.166 E0.01126
G1 X212.096 Y185.368 E0.00772
G1 X212.314 Y185.786 E0.01477
G1 X212.424 Y186.108 E0.01067
G1 X212.483 Y186.365 E0.00828
G1 X212.524 Y186.835 E0.01479
G1 X212.500 Y187.193 E0.01125
G1 X212.458 Y187.436 E0.00772
G1 X212.315 Y187.887 E0.01485
G1 X212.096 Y188.307 E0.01485
G1 X211.955 Y188.509 E0.00772
G1 X211.722 Y188.775 E0.01110
G1 X211.542 Y188.940 E0.00764
G1 X211.268 Y189.142 E0.01067
G1 X210.833 Y189.370 E0.01540
G1 X210.511 Y189.481 E0.01069
G1 X210.253 Y189.539 E0.00828
G1 X209.783 Y189.580 E0.01479
G1 X209.425 Y189.557 E0.01125
G1 X209.183 Y189.514 E0.00772
G1 X208.734 Y189.373 E0.01477
G1 X208.428 Y189.223 E0.01067
G1 X208.205 Y189.082 E0.00828
G1 X207.843 Y188.779 E0.01479
G1 X207.607 Y188.509 E0.01125
G1 X207.466 Y188.307 E0.00772
G1 X207.248 Y187.890 E0.01477
G1 X207.138 Y187.568 E0.01067
G1 X207.079 Y187.310 E0.00828
G1 X207.038 Y186.840 E0.01479
G1 X207.062 Y186.482 E0.01125
G1 X207.104 Y186.240 E0.00772
G1 X207.246 Y185.790 E0.01477
G1 X207.396 Y185.485 E0.01067
G1 X207.537 Y185.261 E0.00828
G1 X207.839 Y184.902 E0.01472
G1 X208.020 Y184.735 E0.00772
G1 X208.309 Y184.523 E0.01125
G1 X208.731 Y184.304 E0.01492
G1 X209.183 Y184.161 E0.01485
G1 X209.425 Y184.118 E0.00771
G1 X209.765 Y184.095 E0.01067
G1 X210.254 Y184.136 E0.01541
G1 X210.586 Y184.216 E0.01069
G1 X210.830 Y184.304 E0.00814
G1 X211.049 Y184.406 E0.00758
G1 X211.289 Y184.551 E0.00879
G1 X211.706 Y184.419 F7200.000
G1 F5760
G1 X211.718 Y184.896 E-0.19082
G1 F5760
G1 X211.955 Y185.166 E-0.12441
G1 F5760
G1 X212.096 Y185.368 E-0.08525
G1 F5760
G1 X212.314 Y185.786 E-0.16312
G1 F5760
G1 X212.424 Y186.108 E-0.11788
G1 F5760
G1 X212.474 Y186.329 E-0.07852
G1 E-0.04000 F2100.00000
G1 X208.263 Y184.122 F7200.000
G1 E0.80000 F2100.00000
G1 F1800
G1 X208.110 Y184.202 E0.00543
G1 X207.780 Y184.443 E0.01280
G1 X207.566 Y184.640 E0.00914
G1 X207.058 Y185.245 E0.02475
G1 X207.058 Y183.950 E0.04061
G1 X208.221 Y183.950 E0.03646
G1 X208.249 Y184.064 E0.00369
G1 F5760
G1 X208.110 Y184.202 E-0.06794
G1 F5760
G1 X207.780 Y184.443 E-0.14136
G1 F5760
G1 X207.566 Y184.640 E-0.10094
G1 F5760
G1 X207.058 Y185.245 E-0.27343
G1 F5760
G1 X207.058 Y184.736 E-0.17632
G1 E-0.04000 F2100.00000
G1 X211.297 Y184.115 F7200.000
G1 E0.80000 F2100.00000
G1 F1800
G1 X211.343 Y183.950 E0.00539
G1 X212.025 Y183.950 E0.02139
G1 X212.231 Y184.652 E0.02296
G1 X212.075 Y184.731 E0.00549
G1 X211.982 Y184.625 E0.00440
G1 X211.560 Y184.274 E0.01724
G1 X211.348 Y184.146 E0.00775
G1 F5760
G1 X211.343 Y183.950 E-0.06811
G1 F5760
G1 X212.025 Y183.950 E-0.23626
G1 F5760
G1 X212.231 Y184.652 E-0.25365
G1 F5760
G1 X212.075 Y184.731 E-0.06067
G1 F5760
G1 X211.982 Y184.625 E-0.04866
G1 F5760
G1 X211.777 Y184.454 E-0.09265
G1 E-0.04000 F2100.00000
G1 X212.073 Y188.947 F7200.000
G1 E0.80000 F2100.00000
G1 F1800
G1 X212.230 Y189.026 E0.00551
G1 X212.027 Y189.727 E0.02287
G1 X211.336 Y189.727 E0.02166
G1 X211.293 Y189.555 E0.00555
G1 X211.469 Y189.462 E0.00622
G1 X211.782 Y189.231 E0.01220
G1 X212.034 Y188.992 E0.01089
G1 F5760
G1 X212.230 Y189.026 E-0.06898
G1 F5760
G1 X212.027 Y189.727 E-0.25266
G1 F5760
G1 X211.336 Y189.727 E-0.23923
G1 F5760
G1 X211.293 Y189.555 E-0.06136
G1 F5760
G1 X211.469 Y189.462 E-0.06868
G1 F5760
G1 X211.630 Y189.344 E-0.06910
G1 E-0.04000 F2100.00000
G1 X208.260 Y189.562 F7200.000
G1 E0.80000 F2100.00000
G1 F1800
G1 X208.213 Y189.726 E0.00534
G1 X207.058 Y189.726 E0.03620
G1 X207.058 Y188.659 E0.03346
G1 X207.216 Y188.609 E0.00520
G1 X207.310 Y188.742 E0.00510
G1 X207.579 Y189.049 E0.01280
G1 X207.982 Y189.387 E0.01650
G1 X208.209 Y189.530 E0.00842
G1 F5760
G1 X208.213 Y189.726 E-0.06771
G1 F5760
G1 X207.058 Y189.726 E-0.39989
G1 F5760
G1 X207.058 Y188.882 E-0.29240
G1 E-0.04000 F2100.00000
G1 X206.681 Y190.103 F7200.000
G1 E0.80000 F2100.00000
G1 F1800
G1 X206.681 Y183.573 E0.20474
G1 X212.297 Y183.572 E0.17609
G1 X212.571 Y184.437 E0.02843
G1 X212.744 Y185.236 E0.02562
G1 X212.847 Y186.043 E0.02553
G1 X212.881 Y186.860 E0.02565
G1 X212.843 Y187.676 E0.02559
G1 X212.736 Y188.485 E0.02558
G1 X212.559 Y189.284 E0.02566
G1 X212.294 Y190.104 E0.02703
G1 X206.741 Y190.103 E0.17409
G1 X206.865 Y189.747 F7200.000
G1 X207.478 Y189.537 F7200.000
G1 F1800
G1 X207.247 Y188.989 E0.00992
G1 X207.069 Y188.458 F7200.000
G1 F1800
G1 X206.934 Y187.755 E0.01035
G1 F1800
G1 X206.892 Y187.437 E0.00231
G1 F5760
G1 X206.934 Y187.755 E-0.11113
G1 E-0.68887 F2100.00000
G1 X206.893 Y186.223 F7200.000
G1 E0.80000 F2100.00000
G1 F1800
G1 X206.924 Y186.001 E0.00093
G1 F1800
G1 X206.982 Y185.630 E0.00408
G1 X207.202 Y185.401 F7200.000
G1 F1800
G1 X206.870 Y185.932 E0.00242
G1 F5760
G1 X207.202 Y185.401 E-0.21697
G1 E-0.58303 F2100.00000
G1 X207.247 Y184.700 F7200.000
G1 E0.80000 F2100.00000
G1 F1800
G1 X207.473 Y184.138 E0.00880
G1 X207.247 Y184.356 F7200.000
G1 F1800
G1 X207.823 Y184.150 E0.00714
G1 X208.477 Y184.204 F7200.000
G1 F1800
G1 X208.607 Y183.948 E0.00700
G1 X208.856 Y183.910 E0.00614
G1 F1800
G1 X209.105 Y183.872 E0.00454
G1 F1800
G1 X209.761 Y183.834 E0.00810
G1 X210.307 Y183.857 E0.00673
G1 F1800
G1 X210.687 Y183.902 E0.00764
G1 F1800
G1 X210.953 Y183.949 E0.00691
G1 X211.077 Y184.201 E0.00722
G1 F5760
G1 X210.953 Y183.949 E-0.09760
G1 F5760
G1 X210.687 Y183.902 E-0.09335
G1 E-0.60905 F2100.00000
G1 X212.252 Y184.853 F7200.000
G1 E0.80000 F2100.00000
G1 F1800
G1 X212.464 Y185.421 E0.01162
G1 F1800
G1 X212.545 Y185.681 E0.00306
G1 F1800
G1 X212.589 Y185.869 E0.00135
G1 F1800
G1 X212.638 Y186.093 E0.00017
G1 F5760
G1 X212.589 Y185.869 E-0.07929
G1 E-0.72071 F2100.00000
G1 X212.638 Y187.564 F7200.000
G1 E0.80000 F2100.00000
G1 F1800
G1 X212.586 Y187.817 E0.00054
G1 F1800
G1 X212.512 Y188.099 E0.00199
G1 F1800
G1 X212.443 Y188.317 E0.00314
G1 F1800
G1 X212.384 Y188.493 E0.00377
G1 F1800
G1 X212.240 Y188.820 E0.00881
G1 F5760
G1 X212.384 Y188.493 E-0.12353
G1 E-0.67647 F2100.00000
G1 X211.079 Y189.471 F7200.000
G1 E0.80000 F2100.00000
G1 F1800
G1 X210.949 Y189.728 E0.00703
G1 X210.604 Y189.785 E0.00853
G1 F1800
G1 X210.304 Y189.819 E0.00545
G1 F1800
G1 X209.781 Y189.842 E0.00646
G1 X209.105 Y189.804 E0.00835
G1 F1800
G1 X208.856 Y189.765 E0.00455
G1 F1800
G1 X208.604 Y189.727 E0.00622
G1 X208.482 Y189.474 E0.00687
;BEFORE_LAYER_CHANGE
;0.3


G1 F5760
G1 X208.604 Y189.727 E-0.09730
G1 F5760
G1 X208.856 Y189.765 E-0.08813
G1 E-0.61457 F2100.00000
G1 Z0.300 F7200.000
;AFTER_LAYER_CHANGE
;0.3
M104 S245 ; set temperature
M140 S90 ; set bed temperature
G1 X214.590 Y193.110 F7200.000
G1 E0.80000 F2100.00000
G1 F2178
G1 X214.006 Y193.571 E0.01233
G1 X209.265 Y196.247 E0.09022
G1 X208.350 Y196.559 E0.01602
G1 X204.923 Y196.760 E0.05687
G1 X198.703 Y196.585 E0.10311
G1 X197.768 Y196.355 E0.01595
G1 X196.972 Y195.820 E0.01588
G1 X196.378 Y194.982 E0.01702
G1 X196.132 Y193.985 E0.01702
G1 X196.144 Y180.435 E0.22451
G1 X196.431 Y179.474 E0.01662
G1 X197.043 Y178.680 E0.01662
G1 X197.899 Y178.157 E0.01662
G1 X198.886 Y177.976 E0.01662
G1 X208.368 Y178.180 E0.15714
G1 X213.577 Y179.900 E0.09090
G1 X214.079 Y180.149 E0.00929
G1 X214.517 Y180.493 E0.00922
G1 X214.981 Y181.080 E0.01239
G1 X216.385 Y183.662 E0.04869
G1 X216.634 Y184.313 E0.01156
G1 X216.720 Y184.978 E0.01111
G1 X216.719 Y189.118 E0.06859
G1 X216.630 Y189.767 E0.01084
G1 X216.317 Y190.503 E0.01327
G1 X214.623 Y193.060 E0.05081
G1 F5760
G1 X214.006 Y193.571 E-0.27748
G1 F5760
G1 X212.793 Y194.255 E-0.48252
G1 E-0.04000 F2100.00000
G1 X211.683 Y188.739 F7200.000
G1 E0.80000 F2100.00000
M204 S800
G1 F871
G1 X211.232 Y189.101 E0.01030
G1 X210.803 Y189.324 E0.00860
G1 X210.255 Y189.484 E0.01018
G1 X209.774 Y189.526 E0.00860
G1 X209.206 Y189.464 E0.01018
G1 X208.745 Y189.319 E0.00860
G1 X208.245 Y189.044 E0.01018
G1 X207.875 Y188.734 E0.00860
G1 X207.517 Y188.288 E0.01018
G1 X207.294 Y187.860 E0.00860
G1 X207.134 Y187.312 E0.01018
G1 X207.092 Y186.831 E0.00860
G1 X207.155 Y186.263 E0.01018
G1 X207.300 Y185.802 E0.00860
G1 X207.574 Y185.301 E0.01018
G1 X207.885 Y184.931 E0.00860
G1 X208.330 Y184.574 E0.01018
G1 X208.752 Y184.354 E0.00848
G1 X209.205 Y184.212 E0.00846
G1 X209.754 Y184.149 E0.00984
G1 X210.253 Y184.191 E0.00893
G1 X210.810 Y184.353 E0.01033
G1 X211.317 Y184.631 E0.01030
G1 X211.687 Y184.942 E0.00860
G1 X212.045 Y185.387 E0.01018
G1 X212.268 Y185.815 E0.00860
G1 X212.428 Y186.364 E0.01018
G1 X212.470 Y186.845 E0.00860
G1 X212.407 Y187.413 E0.01018
G1 X212.264 Y187.866 E0.00848
G1 X212.045 Y188.288 E0.00848
G1 X211.720 Y188.693 E0.00924
M204 S1000
G1 X211.386 Y188.424 F7200.000
M204 S800
G1 F1200
G1 X210.996 Y188.741 E0.01836
G1 X210.643 Y188.925 E0.01457
G1 X210.176 Y189.061 E0.01780
G1 X209.779 Y189.096 E0.01457
G1 X209.295 Y189.043 E0.01780
G1 X208.915 Y188.923 E0.01457
G1 X208.488 Y188.689 E0.01780
G1 X208.183 Y188.433 E0.01457
G1 X207.878 Y188.053 E0.01780
G1 X207.694 Y187.700 E0.01457
G1 X207.558 Y187.232 E0.01780
G1 X207.523 Y186.835 E0.01457
G1 X207.576 Y186.351 E0.01780
G1 X207.696 Y185.971 E0.01457
G1 X207.930 Y185.545 E0.01780
G1 X208.186 Y185.239 E0.01457
G1 X208.566 Y184.935 E0.01780
G1 X208.917 Y184.752 E0.01448
G1 X209.294 Y184.633 E0.01447
G1 X209.760 Y184.580 E0.01714
G1 X210.175 Y184.614 E0.01522
G1 X210.645 Y184.751 E0.01791
G1 X211.074 Y184.987 E0.01789
G1 X211.379 Y185.243 E0.01457
G1 X211.684 Y185.622 E0.01780
G1 X211.868 Y185.976 E0.01457
G1 X212.004 Y186.443 E0.01780
G1 X212.039 Y186.840 E0.01457
G1 X211.986 Y187.324 E0.01780
G1 X211.867 Y187.702 E0.01448
G1 X211.684 Y188.053 E0.01448
G1 X211.424 Y188.378 E0.01522
M204 S1000
G1 F5760
G1 X210.996 Y188.741 E-0.19423
G1 F5760
G1 X210.643 Y188.925 E-0.13803
G1 F5760
G1 X210.176 Y189.061 E-0.16859
G1 F5760
G1 X209.779 Y189.096 E-0.13803
G1 F5760
G1 X209.431 Y189.058 E-0.12112
G1 E-0.04000 F2100.00000
G1 X208.687 Y183.905 F7200.000
G1 E0.80000 F2100.00000
M204 S800
G1 F871
