; generated by Slic3r 1.37.2-prusa3d-win64 on 2018-02-05 at 19:28:17

; 

; external perimeters extrusion width = 0.45mm
; perimeters extrusion width = 0.45mm
; infill extrusion width = 0.45mm
; solid infill extrusion width = 0.45mm
; top infill extrusion width = 0.45mm
; support material extrusion width = 0.35mm
; first layer extrusion width = 0.42mm

M107
M115 U3.1.0 ; tell printer latest fw version
M83  ; extruder relative mode
M104 S150
M140 S75 ; set bed temp
G28 W ; home all without mesh bed level
G1 X125 Z80 F1000
M190 S75 ; wait for bed temp
M104 S230 ; set extruder temp
G80 ; mesh bed leveling
M109 S230 ; wait for extruder temp
G1 Y-3.0 F1000.0 ; go outside print area
G92 E0.0
G1 X60.0 E9.0  F1000.0 ; intro line
G1 X100.0 E12.5  F1000.0 ; intro line
G92 E0.0
M900 K45 ; Filament gcode
G21 ; set units to millimeters
G90 ; use absolute coordinates
M83 ; use relative distances for extrusion
;BEFORE_LAYER_CHANGE
;0.2


G1 E-0.80000 F2100.00000
G1 Z0.200 F7200.000
;AFTER_LAYER_CHANGE
;0.2
G1 X197.753 Y179.042 F7200.000
G1 E0.80000 F2100.00000
M204 S1000
G1 F1800
G1 X198.612 Y178.517 E0.03157
G1 X199.598 Y178.336 E0.03145
G1 X209.072 Y178.539 E0.29711
G1 X214.579 Y180.242 E0.18073
G1 X215.092 Y180.486 E0.01784
G1 X215.545 Y180.831 E0.01784
G1 X216.133 Y181.629 E0.03107
G1 X216.603 Y183.000 E0.04547
G1 X217.011 Y184.892 E0.06068
G1 X217.181 Y186.880 E0.06256
G1 X217.100 Y188.814 E0.06068
G1 X216.774 Y190.735 E0.06108
G1 X216.207 Y192.602 E0.06118
G1 X215.664 Y193.445 E0.03145
G1 X215.051 Y193.934 E0.02460
G1 X209.976 Y196.777 E0.18238
G1 X209.065 Y197.088 E0.03018
G1 X199.379 Y196.942 E0.30373
G1 X198.481 Y196.716 E0.02904
G1 X197.709 Y196.204 E0.02904
G1 X197.099 Y195.362 E0.03258
G1 X196.845 Y194.350 E0.03271
G1 X196.856 Y180.799 E0.42489
G1 X197.142 Y179.838 E0.03145
G1 X197.716 Y179.090 E0.02957
G1 X197.993 Y179.333 F7200.000
G1 F1800
G1 X198.737 Y178.873 E0.02743
G1 X199.597 Y178.713 E0.02743
G1 X209.000 Y178.909 E0.29488
G1 X214.437 Y180.592 E0.17845
G1 X215.263 Y181.084 E0.03013
G1 X215.798 Y181.803 E0.02813
G1 X216.242 Y183.111 E0.04330
G1 X216.639 Y184.950 E0.05898
G1 X216.804 Y186.889 E0.06102
G1 X216.725 Y188.771 E0.05905
G1 X216.412 Y190.628 E0.05907
G1 X215.870 Y192.428 E0.05894
G1 X215.413 Y193.161 E0.02708
G1 X214.859 Y193.610 E0.02237
G1 X209.800 Y196.444 E0.18182
G1 X209.023 Y196.713 E0.02579
G1 X199.432 Y196.568 E0.30073
G1 X198.662 Y196.383 E0.02484
G1 X197.992 Y195.952 E0.02496
G1 X197.446 Y195.212 E0.02884
G1 X197.221 Y194.317 E0.02896
G1 X197.228 Y180.869 E0.42164
G1 X197.466 Y180.031 E0.02731
G1 X197.957 Y179.381 E0.02555
G1 F5760
G1 X198.737 Y178.873 E-0.32247
G1 F5760
G1 X199.597 Y178.713 E-0.30301
G1 F5760
G1 X199.986 Y178.721 E-0.13451
G1 E-0.04000 F2100.00000
G1 X199.595 Y181.090 F7200.000
G1 E0.80000 F2100.00000
G1 F1800
G1 X199.595 Y194.196 E0.41095
G1 X200.349 Y194.196 E0.02365
G1 X200.349 Y181.260 E0.40563
G1 X201.103 Y181.260 E0.02365
G1 X201.103 Y194.196 E0.40563
G1 X201.857 Y194.196 E0.02365
G1 X201.857 Y181.260 E0.40563
G1 X202.611 Y181.260 E0.02365
G1 X202.611 Y194.196 E0.40563
G1 X203.366 Y194.196 E0.02365
G1 X203.366 Y181.260 E0.40563
G1 X204.120 Y181.260 E0.02365
G1 X204.120 Y194.196 E0.40563
G1 X204.874 Y194.196 E0.02365
G1 X204.874 Y181.260 E0.40563
G1 X205.628 Y181.260 E0.02365
G1 X205.628 Y194.196 E0.40563
G1 X206.382 Y194.196 E0.02365
G1 X206.382 Y181.260 E0.40563
G1 X207.136 Y181.260 E0.02365
G1 X207.136 Y182.764 E0.04718
G1 X207.891 Y182.764 E0.02365
G1 X207.891 Y181.260 E0.04717
G1 X208.645 Y181.260 E0.02365
G1 X208.645 Y182.933 E0.05248
G1 X210.153 Y182.478 F7200.000
G1 F1800
G1 X210.153 Y182.763 E0.00893
G1 X210.907 Y182.763 E0.02365
G1 X210.907 Y182.634 E0.00403
G1 X211.192 Y182.660 E0.00897
G1 X211.661 Y182.745 E0.01495
G1 X211.661 Y182.932 E0.00585
G1 F5760
G1 X211.661 Y182.745 E-0.06465
G1 F5760
G1 X211.192 Y182.660 E-0.16518
G1 F5760
G1 X210.907 Y182.634 E-0.09909
G1 F5760
G1 X210.907 Y182.763 E-0.04446
G1 F5760
G1 X210.153 Y182.763 E-0.26121
G1 F5760
G1 X210.153 Y182.478 E-0.09869
G1 E-0.06673 F2100.00000
G1 X211.661 Y188.595 F7200.000
G1 E0.80000 F2100.00000
G1 F1800
G1 X211.661 Y186.019 E0.08079
G1 X211.465 Y185.871 E0.00771
G1 X211.285 Y185.772 E0.00645
G1 X211.093 Y185.697 E0.00645
G1 X210.907 Y185.651 E0.00600
G1 X210.907 Y188.745 E0.09699
G1 X210.552 Y188.770 E0.01116
G1 X210.348 Y188.747 E0.00645
G1 X210.153 Y188.700 E0.00628
G1 X210.153 Y185.696 E0.09420
G1 X209.955 Y185.772 E0.00666
G1 X209.717 Y185.909 E0.00860
G1 X209.557 Y186.038 E0.00645
G1 X209.399 Y186.207 E0.00724
G1 X209.399 Y188.441 E0.07006
G1 F5760
G1 X209.399 Y186.247 E-0.76000
G1 E-0.04000 F2100.00000
G1 X210.153 Y191.463 F7200.000
G1 E0.80000 F2100.00000
G1 F1800
G1 X210.153 Y191.747 E0.00888
G1 X210.431 Y191.768 E0.00874
G1 X210.907 Y191.762 E0.01493
G1 X210.907 Y191.633 E0.00403
G1 X211.661 Y191.634 E0.02365
G1 X211.661 Y191.825 E0.00601
G1 F5760
G1 X211.661 Y191.634 E-0.06640
G1 F5760
G1 X210.907 Y191.633 E-0.26121
G1 F5760
G1 X210.907 Y191.762 E-0.04449
G1 F5760
G1 X210.431 Y191.768 E-0.16495
G1 F5760
G1 X210.153 Y191.747 E-0.09655
G1 F5760
G1 X210.153 Y191.463 E-0.09815
G1 E-0.06825 F2100.00000
G1 X208.645 Y194.366 F7200.000
G1 E0.80000 F2100.00000
G1 F1800
G1 X208.645 Y191.632 E0.08572
G1 X207.891 Y191.632 E0.02365
G1 X207.891 Y194.196 E0.08041
G1 X207.136 Y194.196 E0.02365
G1 X207.136 Y191.462 E0.08575
G1 F5760
G1 X207.136 Y193.656 E-0.76000
G1 E-0.04000 F2100.00000
G1 X209.122 Y189.349 F7200.000
G1 E0.80000 F2100.00000
G1 F1800
G1 X208.762 Y189.047 E0.01473
G1 X208.412 Y188.612 E0.01750
G1 X208.195 Y188.195 E0.01473
G1 X208.039 Y187.659 E0.01750
G1 X207.998 Y187.191 E0.01473
G1 X208.059 Y186.637 E0.01750
G1 X208.200 Y186.189 E0.01472
G1 X208.464 Y185.706 E0.01726
G1 X208.770 Y185.340 E0.01496
G1 X209.206 Y184.990 E0.01752
G1 X209.617 Y184.776 E0.01453
G1 X210.059 Y184.637 E0.01452
G1 X210.606 Y184.576 E0.01726
G1 X211.081 Y184.617 E0.01496
G1 X211.624 Y184.775 E0.01772
G1 X212.119 Y185.046 E0.01770
G1 X212.479 Y185.348 E0.01473
G1 X212.828 Y185.784 E0.01750
G1 X213.045 Y186.200 E0.01473
G1 X213.201 Y186.736 E0.01750
G1 X213.242 Y187.204 E0.01473
G1 X213.181 Y187.759 E0.01750
G1 X213.040 Y188.207 E0.01473
G1 X212.772 Y188.696 E0.01750
G1 X212.470 Y189.056 E0.01473
G1 X212.034 Y189.406 E0.01750
G1 X211.618 Y189.623 E0.01473
G1 X211.082 Y189.779 E0.01750
G1 X210.614 Y189.820 E0.01473
G1 X210.059 Y189.759 E0.01750
G1 X209.611 Y189.618 E0.01473
G1 X209.174 Y189.378 E0.01562
G1 X209.356 Y189.048 F7200.000
G1 F1800
G1 X209.033 Y188.782 E0.01311
G1 X208.730 Y188.405 E0.01517
G1 X208.547 Y188.054 E0.01240
G1 X208.412 Y187.590 E0.01517
G1 X208.377 Y187.196 E0.01240
G1 X208.430 Y186.715 E0.01517
G1 X208.549 Y186.338 E0.01240
G1 X208.777 Y185.919 E0.01494
G1 X209.036 Y185.610 E0.01262
G1 X209.413 Y185.307 E0.01518
G1 X209.762 Y185.126 E0.01233
G1 X210.137 Y185.008 E0.01233
G1 X210.611 Y184.955 E0.01494
G1 X211.012 Y184.989 E0.01262
G1 X211.479 Y185.125 E0.01525
G1 X211.905 Y185.359 E0.01524
G1 X212.208 Y185.613 E0.01240
G1 X212.511 Y185.991 E0.01517
G1 X212.693 Y186.342 E0.01240
G1 X212.829 Y186.806 E0.01517
G1 X212.863 Y187.200 E0.01240
G1 X212.811 Y187.681 E0.01517
G1 X212.692 Y188.058 E0.01240
G1 X212.459 Y188.483 E0.01517
G1 X212.205 Y188.786 E0.01240
G1 X211.827 Y189.088 E0.01517
G1 X211.476 Y189.271 E0.01240
G1 X211.012 Y189.406 E0.01517
G1 X210.618 Y189.441 E0.01240
G1 X210.137 Y189.388 E0.01517
G1 X209.760 Y189.269 E0.01240
G1 X209.408 Y189.076 E0.01257
G1 X208.996 Y189.222 F7200.000
G1 F5760
G1 X209.033 Y188.782 E-0.16525
G1 F5760
G1 X208.730 Y188.405 E-0.16757
G1 F5760
G1 X208.547 Y188.054 E-0.13701
G1 F5760
G1 X208.412 Y187.590 E-0.16757
G1 F5760
G1 X208.381 Y187.237 E-0.12261
G1 E-0.04000 F2100.00000
G1 X207.945 Y185.871 F7200.000
G1 E0.80000 F2100.00000
G1 F1800
G1 X207.774 Y185.827 E0.00551
G1 X207.774 Y184.187 E0.05143
G1 X209.597 Y184.186 E0.05714
G1 X209.626 Y184.378 E0.00609
G1 X209.472 Y184.426 E0.00506
G1 X208.999 Y184.673 E0.01673
G1 X208.505 Y185.069 E0.01986
G1 X208.151 Y185.493 E0.01730
G1 X207.973 Y185.818 E0.01162
G1 F5760
G1 X207.774 Y185.827 E-0.06900
G1 F5760
G1 X207.774 Y184.187 E-0.56812
G1 F5760
G1 X208.129 Y184.187 E-0.12288
G1 E-0.04000 F2100.00000
G1 X211.614 Y184.379 F7200.000
G1 E0.80000 F2100.00000
G1 F1800
G1 X211.642 Y184.185 E0.00615
G1 X213.065 Y184.184 E0.04463
G1 X213.143 Y184.467 E0.00918
G1 X213.347 Y185.568 E0.03511
G1 X213.190 Y185.632 E0.00532
G1 X212.750 Y185.083 E0.02207
G1 X212.333 Y184.734 E0.01706
G1 X211.769 Y184.424 E0.02016
G1 X211.672 Y184.396 E0.00318
G1 F5760
G1 X211.642 Y184.185 E-0.07382
G1 F5760
G1 X213.065 Y184.184 E-0.49296
G1 F5760
G1 X213.143 Y184.467 E-0.10136
G1 F5760
G1 X213.191 Y184.727 E-0.09187
G1 E-0.04000 F2100.00000
G1 X213.161 Y188.770 F7200.000
G1 E0.80000 F2100.00000
G1 F1800
G1 X213.341 Y188.830 E0.00594
G1 X213.255 Y189.409 E0.01835
G1 X213.065 Y190.211 E0.02584
G1 X211.642 Y190.211 E0.04463
G1 X211.614 Y190.016 E0.00615
G1 X211.759 Y189.974 E0.00472
G1 X212.241 Y189.723 E0.01706
G1 X212.735 Y189.327 E0.01983
G1 X213.084 Y188.910 E0.01706
G1 X213.133 Y188.823 E0.00314
G1 F5760
G1 X213.341 Y188.830 E-0.07219
G1 F5760
G1 X213.255 Y189.409 E-0.20266
G1 F5760
G1 X213.065 Y190.211 E-0.28543
G1 F5760
G1 X212.489 Y190.211 E-0.19971
G1 E-0.04000 F2100.00000
G1 X209.626 Y190.018 F7200.000
G1 E0.80000 F2100.00000
G1 F1800
G1 X209.597 Y190.210 E0.00609
G1 X207.774 Y190.209 E0.05713
G1 X207.774 Y188.577 E0.05118
G1 X207.947 Y188.534 E0.00557
G1 X208.095 Y188.819 E0.01007
G1 X208.491 Y189.312 E0.01983
G1 X208.908 Y189.662 E0.01706
G1 X209.462 Y189.966 E0.01983
G1 X209.569 Y190.000 E0.00351
G1 F5760
G1 X209.597 Y190.210 E-0.07333
G1 F5760
G1 X207.774 Y190.209 E-0.63113
G1 F5760
G1 X207.774 Y190.049 E-0.05554
G1 E-0.04000 F2100.00000
G1 X207.397 Y190.586 F7200.000
G1 E0.80000 F2100.00000
G1 F1800
G1 X207.397 Y183.810 E0.21246
G1 X213.352 Y183.807 E0.18671
G1 X213.510 Y184.380 E0.01864
G1 X213.707 Y185.392 E0.03231
G1 X213.817 Y186.413 E0.03220
G1 X213.840 Y187.440 E0.03222
G1 X213.776 Y188.466 E0.03222
G1 X213.626 Y189.480 E0.03216
G1 X213.357 Y190.588 E0.03575
G1 X207.457 Y190.586 E0.18497
G1 X207.020 Y190.963 F7200.000
G1 F1800
G1 X207.020 Y183.433 E0.23609
G1 X213.639 Y183.430 E0.20753
G1 X213.878 Y184.294 E0.02810
G1 X214.080 Y185.335 E0.03327
G1 X214.194 Y186.388 E0.03320
G1 X214.218 Y187.448 E0.03323
G1 X214.151 Y188.505 E0.03323
G1 X213.996 Y189.552 E0.03316
G1 X213.752 Y190.587 E0.03336
G1 X213.636 Y190.966 E0.01242
G1 X207.080 Y190.963 E0.20554
G1 X207.214 Y190.613 F7200.000
G1 F5760
G1 X207.063 Y188.769 E-0.76000
G1 E-0.04000 F2100.00000
G1 X208.363 Y190.021 F7200.000
G1 E0.80000 F2100.00000
G1 F1800
G1 X207.963 Y189.044 E0.03819
G1 X207.814 Y188.373 F7200.000
G1 F1800
G1 X207.783 Y188.159 E0.00638
G1 F1800
G1 X207.722 Y187.733 E0.00975
G1 F1800
G1 X207.698 Y187.199 E0.00947
G1 X207.714 Y186.880 E0.00567
G1 F1800
G1 X207.760 Y186.379 E0.01191
G1 F1800
G1 X207.813 Y186.032 E0.01030
G1 X207.963 Y185.335 F7200.000
G1 F1800
G1 X208.367 Y184.375 E0.03992
G1 F5760
G1 X207.963 Y185.335 E-0.36091
G1 E-0.43909 F2100.00000
G1 X209.834 Y184.491 F7200.000
G1 E0.80000 F2100.00000
G1 F1800
G1 X209.998 Y184.255 E0.00837
G1 F1800
G1 X210.022 Y184.224 E0.00137
G1 X210.302 Y184.208 E0.00955
G1 F1800
G1 X210.620 Y184.192 E0.00921
G1 F1800
G1 X211.134 Y184.214 E0.01759
G1 X211.441 Y184.256 E0.01058
G1 X212.146 Y184.375 F7200.000
G1 F1800
G1 X212.984 Y184.634 E0.01372
G1 X212.674 Y184.373 F7200.000
G1 F1800
G1 X213.075 Y185.136 E0.00962
G1 X213.315 Y185.785 F7200.000
G1 F1800
G1 X213.393 Y186.040 E0.00815
G1 F1800
G1 X213.473 Y186.435 E0.01011
G1 F1800
G1 X213.511 Y186.691 E0.00478
G1 X213.539 Y187.197 E0.00939
G1 X213.493 Y187.838 E0.01190
G1 F1800
G1 X213.431 Y188.173 E0.00864
G1 F1800
G1 X213.378 Y188.421 E0.00802
G1 X213.553 Y188.682 E0.00990
G1 X213.086 Y189.262 F7200.000
G1 F1800
G1 X212.656 Y190.023 E0.01124
G1 X212.976 Y189.770 F7200.000
G1 F1800
G1 X212.156 Y190.014 E0.00819
G1 X211.441 Y190.140 F7200.000
G1 F1800
G1 X211.136 Y190.182 E0.01054
G1 X210.629 Y190.204 E0.01733
G1 F1800
G1 X210.306 Y190.188 E0.00934
G1 F1800
G1 X210.022 Y190.172 E0.00969
G1 X209.998 Y190.141 E0.00132
G1 F1800
G1 X209.834 Y189.905 E0.00845
;BEFORE_LAYER_CHANGE
;0.3


G1 F5760
G1 X209.998 Y190.141 E-0.09961
G1 E-0.70039 F2100.00000
G1 Z0.300 F7200.000
;AFTER_LAYER_CHANGE
;0.3
M104 S245 ; set temperature
M140 S90 ; set bed temperature
G1 X209.065 Y197.088 F7200.000
G1 E0.80000 F2100.00000
G1 F2186
G1 X199.379 Y196.942 E0.16051
G1 X198.481 Y196.716 E0.01535
G1 X197.709 Y196.204 E0.01535
G1 X197.099 Y195.362 E0.01722
G1 X196.845 Y194.350 E0.01729
G1 X196.856 Y180.799 E0.22453
G1 X197.142 Y179.838 E0.01662
G1 X197.753 Y179.042 E0.01662
G1 X198.612 Y178.517 E0.01669
G1 X199.598 Y178.336 E0.01662
G1 X209.072 Y178.539 E0.15701
G1 X214.579 Y180.242 E0.09551
G1 X215.092 Y180.486 E0.00943
G1 X215.545 Y180.831 E0.00943
G1 X216.133 Y181.629 E0.01642
G1 X216.603 Y183.000 E0.02403
G1 X217.011 Y184.892 E0.03207
G1 X217.181 Y186.880 E0.03306
G1 X217.100 Y188.814 E0.03207
G1 X216.774 Y190.735 E0.03228
G1 X216.207 Y192.602 E0.03233
G1 X215.664 Y193.445 E0.01662
G1 X215.051 Y193.934 E0.01300
G1 X209.976 Y196.777 E0.09638
G1 X209.122 Y197.069 E0.01496
G1 F5760
G1 X206.928 Y197.040 E-0.76000
G1 E-0.04000 F2100.00000
G1 X210.045 Y189.824 F7200.000
G1 E0.80000 F2100.00000
M204 S800
G1 F875
G1 X209.586 Y189.679 E0.00858
G1 X209.101 Y189.416 E0.00984
G1 X208.715 Y189.095 E0.00893
G1 X208.356 Y188.649 E0.01021
G1 X208.133 Y188.220 E0.00860
G1 X207.974 Y187.672 E0.01018
G1 X207.932 Y187.191 E0.00860
G1 X207.994 Y186.623 E0.01018
G1 X208.137 Y186.169 E0.00848
G1 X208.356 Y185.747 E0.00848
G1 X208.719 Y185.296 E0.01030
G1 X209.170 Y184.934 E0.01030
G1 X209.592 Y184.714 E0.00848
G1 X210.044 Y184.572 E0.00846
G1 X210.593 Y184.510 E0.00984
G1 X211.093 Y184.551 E0.00893
G1 X211.649 Y184.713 E0.01033
G1 X212.157 Y184.991 E0.01030
G1 X212.526 Y185.302 E0.00860
G1 X212.884 Y185.747 E0.01018
G1 X213.107 Y186.176 E0.00860
G1 X213.267 Y186.724 E0.01018
G1 X213.309 Y187.205 E0.00860
G1 X213.247 Y187.773 E0.01018
G1 X213.101 Y188.233 E0.00860
G1 X212.827 Y188.734 E0.01018
G1 X212.516 Y189.104 E0.00860
G1 X212.071 Y189.462 E0.01018
G1 X211.643 Y189.685 E0.00860
G1 X211.094 Y189.844 E0.01018
G1 X210.613 Y189.887 E0.00860
G1 X210.105 Y189.831 E0.00911
M204 S1000
G1 X210.152 Y189.405 F7200.000
M204 S800
G1 F1200
G1 X209.754 Y189.283 E0.00740
G1 X209.342 Y189.059 E0.00835
G1 X209.022 Y188.793 E0.00742
G1 X208.717 Y188.413 E0.00868
G1 X208.533 Y188.060 E0.00710
G1 X208.397 Y187.592 E0.00867
G1 X208.362 Y187.195 E0.00710
G1 X208.415 Y186.712 E0.00867
G1 X208.534 Y186.334 E0.00706
G1 X208.717 Y185.983 E0.00706
G1 X209.023 Y185.601 E0.00872
G1 X209.405 Y185.295 E0.00872
G1 X209.756 Y185.112 E0.00706
G1 X210.134 Y184.993 E0.00705
G1 X210.599 Y184.940 E0.00835
G1 X211.014 Y184.974 E0.00742
G1 X211.484 Y185.111 E0.00873
G1 X211.913 Y185.347 E0.00872
G1 X212.219 Y185.603 E0.00710
G1 X212.523 Y185.983 E0.00867
G1 X212.707 Y186.336 E0.00710
G1 X212.844 Y186.803 E0.00867
G1 X212.878 Y187.200 E0.00710
G1 X212.825 Y187.684 E0.00867
G1 X212.705 Y188.064 E0.00710
G1 X212.471 Y188.491 E0.00867
G1 X212.215 Y188.796 E0.00710
G1 X211.836 Y189.101 E0.00867
G1 X211.482 Y189.285 E0.00710
G1 X211.015 Y189.421 E0.00867
G1 X210.618 Y189.456 E0.00710
G1 X210.211 Y189.411 E0.00729
M204 S1000
G1 X209.885 Y189.704 F7200.000
G1 F5760
G1 X209.754 Y189.283 E-0.16440
G1 F5760
G1 X209.342 Y189.059 E-0.16237
G1 F5760
G1 X209.022 Y188.793 E-0.14418
G1 F5760
G1 X208.717 Y188.413 E-0.16879
G1 F5760
G1 X208.557 Y188.105 E-0.12026
G1 E-0.04000 F2100.00000
G1 X208.064 Y185.427 F7200.000
G1 E0.80000 F2100.00000
M204 S800
G1 F875
G1 X207.892 Y185.366 E0.00325
G1 X207.892 Y184.070 E0.02310
G1 X209.478 Y184.070 E0.02824
G1 X209.526 Y184.266 E0.00360
G1 X208.934 Y184.573 E0.01188
G1 X208.414 Y184.991 E0.01189
G1 X208.102 Y185.380 E0.00888
M204 S1000
G1 F5760
G1 X207.892 Y185.366 E-0.07267
G1 F5760
G1 X207.892 Y184.070 E-0.44913
G1 F5760
G1 X208.580 Y184.070 E-0.23820
G1 E-0.04000 F2100.00000
