; generated by Slic3r 1.37.2-prusa3d-win64 on 2018-02-03 at 19:51:40

; 

; external perimeters extrusion width = 0.45mm
; perimeters extrusion width = 0.45mm
; infill extrusion width = 0.45mm
; solid infill extrusion width = 0.45mm
; top infill extrusion width = 0.45mm
; support material extrusion width = 0.35mm
; first layer extrusion width = 0.42mm

M107
M115 U3.1.0 ; tell printer latest fw version
M83  ; extruder relative mode
M104 S150
M140 S75 ; set bed temp
G28 W ; home all without mesh bed level
G1 X125 Z80 F1000
M190 S75 ; wait for bed temp
M104 S230 ; set extruder temp
G80 ; mesh bed leveling
M109 S230 ; wait for extruder temp
G1 Y-3.0 F1000.0 ; go outside print area
G92 E0.0
G1 X60.0 E9.0  F1000.0 ; intro line
G1 X100.0 E12.5  F1000.0 ; intro line
G92 E0.0
M900 K45 ; Filament gcode
G21 ; set units to millimeters
G90 ; use absolute coordinates
M83 ; use relative distances for extrusion
;BEFORE_LAYER_CHANGE
;0.2


G1 E-0.80000 F2100.00000
G1 Z0.200 F7200.000
;AFTER_LAYER_CHANGE
;0.2
G1 X109.425 Y102.766 F7200.000
G1 E0.80000 F2100.00000
M204 S1000
G1 F1800
G1 X109.801 Y102.221 E0.02078
G1 X114.379 Y97.178 E0.21356
G1 X114.792 Y96.817 E0.01720
G1 X115.268 Y96.545 E0.01720
G1 X115.777 Y96.376 E0.01681
G1 X116.309 Y96.309 E0.01681
G1 X126.306 Y96.310 E0.31345
G1 X127.027 Y96.437 E0.02294
G1 X131.738 Y98.142 E0.15708
G1 X132.395 Y98.570 E0.02460
G1 X132.905 Y99.167 E0.02460
G1 X133.386 Y100.345 E0.03992
G1 X133.806 Y101.982 E0.05298
G1 X134.014 Y103.336 E0.04295
G1 X134.101 Y104.682 E0.04231
G1 X134.070 Y106.022 E0.04202
G1 X133.833 Y107.882 E0.05879
G1 X133.515 Y109.225 E0.04325
G1 X133.016 Y110.642 E0.04711
G1 X132.628 Y111.199 E0.02129
G1 X132.116 Y111.645 E0.02129
G1 X127.607 Y114.531 E0.16788
G1 X126.743 Y114.867 E0.02904
G1 X126.165 Y114.922 E0.01822
G1 X115.581 Y114.751 E0.33191
G1 X114.970 Y114.661 E0.01937
G1 X114.394 Y114.437 E0.01937
G1 X113.758 Y113.977 E0.02460
G1 X113.278 Y113.357 E0.02460
G1 X109.329 Y105.492 E0.27593
G1 X109.136 Y104.799 E0.02256
G1 X109.110 Y103.953 E0.02653
G1 X109.200 Y103.342 E0.01937
G1 X109.403 Y102.822 E0.01749
G1 F5760
G1 X109.801 Y102.221 E-0.24976
G1 F5760
G1 X110.791 Y101.130 E-0.51024
G1 E-0.04000 F2100.00000
G1 X115.428 Y96.887 F7200.000
G1 E0.80000 F2100.00000
G1 F1800
G1 X116.329 Y96.685 E0.02896
G1 X126.275 Y96.686 E0.31186
G1 X126.897 Y96.792 E0.01977
G1 X131.559 Y98.475 E0.15542
G1 X132.137 Y98.846 E0.02154
G1 X132.587 Y99.370 E0.02166
G1 X133.031 Y100.472 E0.03724
G1 X133.439 Y102.071 E0.05174
G1 X133.641 Y103.388 E0.04180
G1 X133.724 Y104.703 E0.04129
G1 X133.649 Y106.523 E0.05714
G1 X133.462 Y107.813 E0.04086
G1 X133.154 Y109.117 E0.04202
G1 X132.670 Y110.489 E0.04562
G1 X132.336 Y110.960 E0.01811
G1 X131.898 Y111.337 E0.01811
G1 X127.418 Y114.204 E0.16677
G1 X126.655 Y114.500 E0.02567
G1 X126.166 Y114.545 E0.01538
G1 X115.594 Y114.374 E0.33153
G1 X115.057 Y114.294 E0.01704
G1 X114.548 Y114.092 E0.01716
G1 X114.007 Y113.693 E0.02107
G1 X113.598 Y113.156 E0.02119
G1 X109.677 Y105.348 E0.27394
G1 X109.507 Y104.733 E0.02000
G1 X109.487 Y103.956 E0.02437
G1 X109.569 Y103.422 E0.01692
G1 X109.771 Y102.918 E0.01704
G1 X110.087 Y102.467 E0.01728
G1 X114.653 Y97.436 E0.21301
G1 X115.379 Y96.922 E0.02789
G1 F5760
G1 X116.329 Y96.685 E-0.33912
G1 F5760
G1 X117.544 Y96.685 E-0.42088
G1 E-0.04000 F2100.00000
G1 X118.650 Y101.889 F7200.000
G1 E0.80000 F2100.00000
G1 F1800
G1 X118.650 Y104.089 E0.05615
G1 X119.179 Y104.089 E0.01350
G1 X119.179 Y102.037 E0.05238
G1 X119.707 Y102.037 E0.01350
G1 X119.707 Y104.089 E0.05238
G1 X120.236 Y104.089 E0.01350
G1 X120.236 Y102.037 E0.05238
G1 X120.764 Y102.037 E0.01350
G1 X120.764 Y104.089 E0.05238
G1 X121.293 Y104.089 E0.01350
G1 X121.293 Y102.037 E0.05238
G1 X121.821 Y102.037 E0.01350
G1 X121.821 Y109.023 E0.17837
G1 X122.350 Y109.023 E0.01350
G1 X122.350 Y102.037 E0.17837
G1 X122.878 Y102.037 E0.01350
G1 X122.878 Y109.171 E0.18215
G1 F5760
G1 X122.878 Y106.977 E-0.76000
G1 E-0.04000 F2100.00000
G1 X121.293 Y109.171 F7200.000
G1 E0.80000 F2100.00000
G1 F1800
G1 X121.293 Y105.911 E0.08323
G1 X120.764 Y105.911 E0.01350
G1 X120.764 Y109.023 E0.07945
G1 X120.236 Y109.023 E0.01350
G1 X120.236 Y105.911 E0.07945
G1 X119.707 Y105.911 E0.01350
G1 X119.707 Y109.023 E0.07945
G1 X119.179 Y109.023 E0.01350
G1 X119.179 Y105.911 E0.07945
G1 X118.650 Y105.911 E0.01350
G1 X118.650 Y109.171 E0.08323
G1 X120.912 Y105.728 F7200.000
G1 F1800
G1 X120.912 Y104.441 E0.04035
G1 X120.158 Y104.441 E0.02365
G1 X120.158 Y105.559 E0.03503
G1 X119.404 Y105.559 E0.02365
G1 X119.404 Y104.441 E0.03503
G1 X118.650 Y104.441 E0.02365
G1 X118.650 Y105.559 E0.03503
G1 X118.616 Y105.559 E0.00106
G1 X118.297 Y105.239 E0.01415
G1 X118.297 Y109.376 E0.12969
G1 X118.650 Y109.376 E0.01106
G1 X118.650 Y111.999 E0.08224
G1 X119.404 Y111.999 E0.02365
G1 X119.404 Y109.376 E0.08224
G1 X120.158 Y109.376 E0.02365
G1 X120.158 Y111.999 E0.08224
G1 X120.912 Y111.999 E0.02365
G1 X120.912 Y109.376 E0.08224
G1 X121.667 Y109.376 E0.02365
G1 X121.667 Y111.999 E0.08224
G1 X122.421 Y111.999 E0.02365
G1 X122.421 Y109.376 E0.08224
G1 X123.175 Y109.376 E0.02365
G1 X123.175 Y111.999 E0.08224
G1 X123.929 Y111.999 E0.02365
G1 X123.929 Y109.433 E0.08043
G1 X124.683 Y109.434 E0.02365
G1 X124.683 Y111.999 E0.08042
G1 X125.437 Y111.999 E0.02365
G1 X125.437 Y109.434 E0.08040
G1 X126.192 Y109.435 E0.02365
G1 X126.192 Y112.168 E0.08571
G1 F5760
G1 X126.192 Y109.974 E-0.76000
G1 E-0.04000 F2100.00000
G1 X126.946 Y105.443 F7200.000
G1 E0.80000 F2100.00000
G1 F1800
G1 X126.946 Y104.047 E0.04377
G1 X127.700 Y104.047 E0.02365
G1 X127.700 Y104.689 E0.02013
G1 F5760
G1 X127.700 Y104.047 E-0.22232
G1 F5760
G1 X126.946 Y104.047 E-0.26121
G1 F5760
G1 X126.946 Y104.846 E-0.27647
G1 E-0.04000 F2100.00000
G1 X126.192 Y100.735 F7200.000
G1 E0.80000 F2100.00000
G1 F1800
G1 X126.192 Y99.062 E0.05247
G1 X125.437 Y99.062 E0.02365
G1 X125.437 Y100.566 E0.04716
G1 X124.683 Y100.566 E0.02365
G1 X124.683 Y99.062 E0.04717
G1 X123.929 Y99.062 E0.02365
G1 X123.929 Y100.567 E0.04718
G1 X123.540 Y100.567 E0.01220
G1 X123.271 Y100.835 E0.01191
G1 X123.271 Y101.685 E0.02663
G1 X123.175 Y101.685 E0.00303
G1 X123.175 Y99.062 E0.08224
G1 X122.421 Y99.062 E0.02365
G1 X122.421 Y101.685 E0.08224
G1 X121.667 Y101.685 E0.02365
G1 X121.667 Y99.062 E0.08224
G1 X120.912 Y99.062 E0.02365
G1 X120.912 Y101.685 E0.08224
G1 X120.158 Y101.685 E0.02365
G1 X120.158 Y99.062 E0.08224
G1 X119.404 Y99.062 E0.02365
G1 X119.404 Y101.685 E0.08224
G1 X118.650 Y101.685 E0.02365
G1 X118.650 Y99.062 E0.08224
G1 X117.896 Y99.062 E0.02365
G1 X117.896 Y111.999 E0.40563
G1 X117.142 Y111.999 E0.02365
G1 X117.142 Y99.062 E0.40563
G1 X116.388 Y99.062 E0.02365
G1 X116.388 Y111.999 E0.40563
G1 X115.674 Y111.999 E0.02236
G1 X115.674 Y107.984 E0.12589
G1 X115.633 Y107.943 E0.00182
G1 X115.633 Y104.047 E0.12213
G1 X114.879 Y104.047 E0.02365
G1 X114.879 Y107.188 E0.09848
G1 X114.125 Y106.434 E0.03344
G1 X114.125 Y104.047 E0.07484
G1 X113.371 Y104.047 E0.02365
G1 X113.371 Y105.680 E0.05119
G1 X112.617 Y104.926 E0.03344
G1 X112.617 Y104.047 E0.02755
G1 X111.863 Y104.047 E0.02365
G1 X111.863 Y104.412 E0.01142
G1 F5760
G1 X111.863 Y104.047 E-0.12620
G1 F5760
G1 X112.617 Y104.047 E-0.26121
G1 F5760
G1 X112.617 Y104.926 E-0.30429
G1 F5760
G1 X112.756 Y105.065 E-0.06830
G1 E-0.04000 F2100.00000
G1 X124.884 Y105.105 F7200.000
G1 E0.80000 F2100.00000
G1 F1800
G1 X124.921 Y104.549 E0.01749
G1 X125.046 Y104.081 E0.01519
G1 X125.293 Y103.581 E0.01749
G1 X125.588 Y103.197 E0.01519
G1 X126.007 Y102.829 E0.01749
G1 X126.417 Y102.592 E0.01485
G1 X126.862 Y102.430 E0.01486
G1 X127.424 Y102.344 E0.01782
G1 X127.991 Y102.381 E0.01782
G1 X128.449 Y102.503 E0.01485
G1 X128.878 Y102.704 E0.01485
G1 X129.336 Y103.040 E0.01782
G1 X129.711 Y103.467 E0.01782
G1 X129.953 Y103.886 E0.01519
G1 X130.133 Y104.414 E0.01749
G1 X130.196 Y104.895 E0.01519
G1 X130.159 Y105.451 E0.01749
G1 X130.037 Y105.909 E0.01485
G1 X129.836 Y106.338 E0.01485
G1 X129.500 Y106.796 E0.01782
G1 X129.073 Y107.171 E0.01782
G1 X128.654 Y107.413 E0.01519
G1 X128.126 Y107.593 E0.01749
G1 X127.645 Y107.656 E0.01519
G1 X127.089 Y107.619 E0.01749
G1 X126.631 Y107.497 E0.01485
G1 X126.202 Y107.296 E0.01485
G1 X125.744 Y106.960 E0.01782
G1 X125.369 Y106.533 E0.01782
G1 X125.127 Y106.114 E0.01519
G1 X124.947 Y105.586 E0.01749
G1 X124.892 Y105.165 E0.01330
G1 X125.266 Y105.116 F7200.000
G1 F1800
G1 X125.295 Y104.611 E0.01586
G1 X125.401 Y104.214 E0.01286
G1 X125.614 Y103.781 E0.01516
G1 X125.864 Y103.456 E0.01286
G1 X126.228 Y103.137 E0.01516
G1 X126.577 Y102.935 E0.01265
G1 X126.956 Y102.797 E0.01266
G1 X127.441 Y102.722 E0.01536
G1 X127.929 Y102.755 E0.01536
G1 X128.319 Y102.859 E0.01266
G1 X128.685 Y103.030 E0.01266
G1 X129.080 Y103.319 E0.01536
G1 X129.403 Y103.688 E0.01536
G1 X129.608 Y104.043 E0.01286
G1 X129.764 Y104.500 E0.01516
G1 X129.817 Y104.907 E0.01286
G1 X129.785 Y105.389 E0.01516
G1 X129.681 Y105.779 E0.01266
G1 X129.510 Y106.145 E0.01266
G1 X129.221 Y106.540 E0.01536
G1 X128.852 Y106.863 E0.01536
G1 X128.497 Y107.068 E0.01286
G1 X128.040 Y107.224 E0.01516
G1 X127.633 Y107.277 E0.01286
G1 X127.151 Y107.245 E0.01516
G1 X126.761 Y107.141 E0.01266
G1 X126.395 Y106.970 E0.01265
G1 X126.000 Y106.681 E0.01536
G1 X125.677 Y106.312 E0.01536
G1 X125.472 Y105.957 E0.01286
G1 X125.316 Y105.500 E0.01516
G1 X125.274 Y105.175 E0.01026
G1 X125.642 Y105.081 F7200.000
G1 F1800
G1 X125.668 Y104.672 E0.01283
G1 X125.755 Y104.348 E0.01053
G1 X125.936 Y103.981 E0.01283
G1 X126.141 Y103.715 E0.01053
G1 X126.448 Y103.445 E0.01283
G1 X126.737 Y103.278 E0.01046
G1 X127.050 Y103.164 E0.01046
G1 X127.457 Y103.101 E0.01290
G1 X127.868 Y103.128 E0.01290
G1 X128.190 Y103.215 E0.01046
G1 X128.492 Y103.356 E0.01046
G1 X128.824 Y103.599 E0.01290
G1 X129.095 Y103.908 E0.01290
G1 X129.263 Y104.199 E0.01053
G1 X129.395 Y104.586 E0.01283
G1 X129.438 Y104.919 E0.01053
G1 X129.412 Y105.328 E0.01283
G1 X129.325 Y105.650 E0.01046
G1 X129.184 Y105.952 E0.01046
G1 X128.941 Y106.284 E0.01290
G1 X128.632 Y106.555 E0.01290
G1 X128.341 Y106.723 E0.01053
G1 X127.954 Y106.855 E0.01283
G1 X127.621 Y106.898 E0.01053
G1 X127.212 Y106.872 E0.01283
G1 X126.890 Y106.785 E0.01046
G1 X126.588 Y106.644 E0.01046
G1 X126.256 Y106.401 E0.01290
G1 X125.985 Y106.092 E0.01290
G1 X125.817 Y105.801 E0.01053
G1 X125.685 Y105.413 E0.01283
G1 X125.649 Y105.140 E0.00865
G1 X125.288 Y104.893 F7200.000
G1 F5760
G1 X125.668 Y104.672 E-0.16215
G1 F5760
G1 X125.755 Y104.348 E-0.11630
G1 F5760
G1 X125.936 Y103.981 E-0.14171
G1 F5760
G1 X126.141 Y103.715 E-0.11631
G1 F5760
G1 X126.448 Y103.445 E-0.14170
G1 F5760
G1 X126.653 Y103.327 E-0.08184
G1 E-0.04000 F2100.00000
G1 X124.694 Y108.011 F7200.000
G1 E0.80000 F2100.00000
G1 F1800
G1 X124.694 Y101.989 E0.18882
G1 X129.985 Y101.987 E0.16589
G1 X130.063 Y102.269 E0.00918
G1 X130.254 Y103.250 E0.03135
G1 X130.360 Y104.239 E0.03120
G1 X130.383 Y105.235 E0.03122
G1 X130.320 Y106.228 E0.03122
G1 X130.175 Y107.211 E0.03115
G1 X129.985 Y108.013 E0.02584
G1 X124.754 Y108.011 E0.16401
G1 X124.317 Y108.388 F7200.000
G1 F1800
G1 X124.317 Y101.612 E0.21246
G1 X130.272 Y101.609 E0.18671
G1 X130.430 Y102.182 E0.01864
G1 X130.627 Y103.194 E0.03231
G1 X130.737 Y104.215 E0.03220
G1 X130.760 Y105.242 E0.03222
G1 X130.696 Y106.268 E0.03222
G1 X130.545 Y107.282 E0.03216
G1 X130.277 Y108.391 E0.03575
G1 X124.377 Y108.388 E0.18497
G1 X123.940 Y108.765 F7200.000
G1 F1800
G1 X123.940 Y101.235 E0.23609
G1 X130.558 Y101.232 E0.20750
G1 X130.798 Y102.096 E0.02810
G1 X131.000 Y103.138 E0.03327
G1 X131.114 Y104.190 E0.03320
G1 X131.137 Y105.250 E0.03323
G1 X131.071 Y106.307 E0.03323
G1 X130.916 Y107.354 E0.03316
G1 X130.671 Y108.389 E0.03336
G1 X130.556 Y108.768 E0.01242
G1 X124.000 Y108.765 E0.20554
G1 X124.134 Y108.415 F7200.000
G1 F5760
G1 X123.983 Y106.571 E-0.76000
G1 E-0.04000 F2100.00000
G1 X125.724 Y107.898 F7200.000
G1 E0.80000 F2100.00000
G1 F1800
G1 X124.807 Y106.981 E0.04854
G1 X125.066 Y106.604 F7200.000
G1 F1800
G1 X126.109 Y107.646 E0.05516
G1 X126.216 Y107.689 F7200.000
G1 F1800
G1 X126.683 Y107.766 E0.00427
G1 F1800
G1 X126.956 Y107.802 E0.00094
G1 F5760
G1 X126.683 Y107.766 E-0.09528
G1 E-0.70472 F2100.00000
G1 X128.158 Y107.803 F7200.000
G1 E0.80000 F2100.00000
G1 F1800
G1 X128.500 Y107.747 E0.00281
G1 F1800
G1 X128.842 Y107.690 E0.00540
G1 X129.420 Y107.900 F7200.000
G1 F1800
G1 X129.112 Y107.592 E0.01638
G1 X129.095 Y107.485 E0.00408
G1 X129.239 Y107.402 E0.00626
G1 X129.411 Y107.251 E0.00862
G1 X129.927 Y107.767 E0.02747
G1 X129.915 Y106.822 F7200.000
G1 F1800
G1 X130.103 Y106.264 E0.00160
G1 F5760
G1 X129.915 Y106.822 E-0.20390
G1 E-0.59610 F2100.00000
G1 X130.109 Y103.098 F7200.000
G1 E0.80000 F2100.00000
G1 F1800
G1 X129.111 Y102.100 E0.04545
G1 X128.861 Y102.310 F7200.000
G1 F1800
G1 X128.259 Y102.216 E0.00579
G1 F1800
G1 X128.122 Y102.198 E0.00048
G1 F5760
G1 X128.259 Y102.216 E-0.04789
G1 E-0.75211 F2100.00000
G1 X126.966 Y102.200 F7200.000
G1 E0.80000 F2100.00000
G1 F1800
G1 X126.661 Y102.238 E0.00070
G1 F1800
G1 X126.378 Y102.288 E0.00260
G1 F1800
G1 X126.237 Y102.313 E0.00225
G1 X125.945 Y102.734 F7200.000
G1 F1800
G1 X125.483 Y102.271 E0.02066
G1 X124.977 Y102.272 E0.01599
G1 X124.977 Y102.303 E0.00099
G1 X125.538 Y102.864 E0.02507
G1 X125.380 Y103.002 E0.00664
G1 X125.276 Y103.139 E0.00543
G1 X124.977 Y102.840 E0.01334
G1 X124.977 Y103.377 E0.01698
G1 X125.171 Y103.572 E0.00868
G1 F5760
G1 X124.977 Y103.377 E-0.09511
G1 F5760
G1 X124.977 Y102.840 E-0.18612
G1 F5760
G1 X125.276 Y103.139 E-0.14625
G1 F5760
G1 X125.380 Y103.002 E-0.05953
G1 F5760
G1 X125.538 Y102.864 E-0.07274
G1 F5760
G1 X125.129 Y102.455 E-0.20024
G1 E-0.04000 F2100.00000
G1 X124.904 Y106.109 F7200.000
G1 E0.80000 F2100.00000
G1 F1800
G1 X124.931 Y106.247 E0.00061
G1 X125.080 Y106.455 E0.00112
;BEFORE_LAYER_CHANGE
;0.25


G1 F5760
G1 X124.931 Y106.247 E-0.08873
G1 F5760
G1 X124.904 Y106.109 E-0.04851
G1 E-0.66276 F2100.00000
G1 Z0.250 F7200.000
;AFTER_LAYER_CHANGE
;0.25
M104 S245 ; set temperature
M140 S90 ; set bed temperature
G1 X122.878 Y106.842 F7200.000
G1 E0.80000 F2100.00000
G1 F300
G1 X122.878 Y102.037 E0.03389
G1 X122.350 Y102.037 E0.00373
G1 X122.350 Y106.694 E0.03284
G1 X121.821 Y106.694 E0.00373
G1 X121.821 Y102.037 E0.03284
G1 X121.293 Y102.037 E0.00373
G1 X121.293 Y104.089 E0.01447
G1 X120.764 Y104.089 E0.00373
G1 X120.764 Y102.037 E0.01447
G1 X120.236 Y102.037 E0.00373
G1 X120.236 Y104.089 E0.01447
G1 X119.707 Y104.089 E0.00373
G1 X119.707 Y102.037 E0.01447
G1 X119.179 Y102.037 E0.00373
G1 X119.179 Y104.089 E0.01447
G1 X118.650 Y104.089 E0.00373
G1 X118.650 Y101.889 E0.01551
G1 F5760
G1 X118.650 Y104.084 E-0.76000
G1 E-0.04000 F2100.00000
G1 X118.650 Y106.842 F7200.000
G1 E0.80000 F2100.00000
G1 F300
G1 X118.650 Y105.911 E0.00657
G1 X119.179 Y105.911 E0.00373
G1 X119.179 Y106.694 E0.00552
G1 X119.707 Y106.694 E0.00373
G1 X119.707 Y105.911 E0.00552
G1 X120.236 Y105.911 E0.00373
G1 X120.236 Y106.694 E0.00552
G1 X120.764 Y106.694 E0.00373
G1 X120.764 Y105.911 E0.00552
G1 X121.293 Y105.911 E0.00373
G1 X121.293 Y106.842 E0.00657
;BEFORE_LAYER_CHANGE
;0.3


G1 F5760
G1 X121.293 Y105.911 E-0.32243
G1 F5760
G1 X120.764 Y105.911 E-0.18306
G1 F5760
G1 X120.764 Y106.646 E-0.25451
G1 E-0.04000 F2100.00000
G1 Z0.300 F7200.000
;AFTER_LAYER_CHANGE
;0.3
G1 X126.743 Y114.867 F7200.000
G1 E0.80000 F2100.00000
G1 F2491
G1 X126.165 Y114.922 E0.00963
G1 X115.581 Y114.751 E0.17540
G1 X114.970 Y114.661 E0.01024
G1 X114.394 Y114.437 E0.01024
G1 X113.758 Y113.977 E0.01300
G1 X113.278 Y113.357 E0.01300
G1 X109.329 Y105.492 E0.14582
G1 X109.136 Y104.799 E0.01192
G1 X109.110 Y103.953 E0.01402
G1 X109.200 Y103.342 E0.01024
G1 X109.425 Y102.766 E0.01024
G1 X109.801 Y102.221 E0.01098
G1 X114.379 Y97.178 E0.11286
G1 X114.792 Y96.817 E0.00909
G1 X115.268 Y96.545 E0.00909
G1 X115.777 Y96.376 E0.00889
G1 X116.309 Y96.309 E0.00889
G1 X126.306 Y96.310 E0.16565
G1 X127.027 Y96.437 E0.01212
G1 X131.738 Y98.142 E0.08301
G1 X132.395 Y98.570 E0.01300
G1 X132.905 Y99.167 E0.01300
G1 X133.386 Y100.345 E0.02110
G1 X133.806 Y101.982 E0.02800
G1 X134.014 Y103.336 E0.02270
