; generated by Slic3r 1.37.2-prusa3d-win64 on 2018-02-11 at 18:34:32

; 

; external perimeters extrusion width = 0.45mm
; perimeters extrusion width = 0.45mm
; infill extrusion width = 0.45mm
; solid infill extrusion width = 0.45mm
; top infill extrusion width = 0.45mm
; support material extrusion width = 0.35mm
; first layer extrusion width = 0.42mm

M107
M115 U3.1.0 ; tell printer latest fw version
M83  ; extruder relative mode
M104 S150
M140 S75 ; set bed temp
G28 W ; home all without mesh bed level
G1 X125 Z80 F1000
M190 S75 ; wait for bed temp
M104 S230 ; set extruder temp
G80 ; mesh bed leveling
M109 S230 ; wait for extruder temp
G1 Y-3.0 F1000.0 ; go outside print area
G92 E0.0
G1 X60.0 E9.0  F1000.0 ; intro line
G1 X100.0 E12.5  F1000.0 ; intro line
G92 E0.0
M900 K45 ; Filament gcode
G21 ; set units to millimeters
G90 ; use absolute coordinates
M83 ; use relative distances for extrusion
;BEFORE_LAYER_CHANGE
;0.2


G1 E-0.80000 F2100.00000
G1 Z0.200 F7200.000
;AFTER_LAYER_CHANGE
;0.2
G1 X174.690 Y176.571 F7200.000
G1 E0.80000 F2100.00000
M204 S1000
G1 F1800
G1 X174.973 Y175.923 E0.02218
G1 X175.357 Y175.423 E0.01975
G1 X175.844 Y175.024 E0.01975
G1 X176.414 Y174.744 E0.01988
G1 X177.027 Y174.603 E0.01975
G1 X186.838 Y174.586 E0.30760
G1 X187.778 Y174.751 E0.02993
G1 X191.958 Y176.361 E0.14045
G1 X192.478 Y176.638 E0.01848
G1 X192.897 Y176.986 E0.01707
G1 X193.236 Y177.407 E0.01694
G1 X194.565 Y179.817 E0.08631
G1 X196.440 Y183.746 E0.13649
G1 X196.653 Y184.480 E0.02396
G1 X196.677 Y190.582 E0.19131
G1 X196.562 Y191.246 E0.02116
G1 X196.288 Y191.863 E0.02116
G1 X195.873 Y192.395 E0.02116
G1 X195.337 Y192.812 E0.02129
G1 X194.719 Y193.084 E0.02116
G1 X194.054 Y193.198 E0.02116
G1 X177.278 Y193.200 E0.52602
G1 X176.574 Y193.093 E0.02231
G1 X175.918 Y192.808 E0.02243
G1 X175.392 Y192.398 E0.02090
G1 X174.978 Y191.871 E0.02103
G1 X174.703 Y191.259 E0.02103
G1 X174.585 Y190.599 E0.02103
G1 X174.582 Y177.266 E0.41804
G1 X174.681 Y176.630 E0.02017
G1 X175.052 Y176.688 F7200.000
G1 F1800
G1 X175.310 Y176.095 E0.02030
G1 X175.648 Y175.665 E0.01716
G1 X176.073 Y175.325 E0.01704
G1 X176.567 Y175.090 E0.01716
G1 X177.102 Y174.974 E0.01716
G1 X186.838 Y174.963 E0.30526
G1 X187.655 Y175.108 E0.02602
G1 X191.816 Y176.711 E0.13982
G1 X192.273 Y176.954 E0.01621
G1 X192.932 Y177.632 E0.02966
G1 X194.236 Y180.001 E0.08481
G1 X196.093 Y183.893 E0.13520
G1 X196.279 Y184.527 E0.02071
G1 X196.301 Y190.553 E0.18893
G1 X196.199 Y191.144 E0.01882
G1 X195.952 Y191.691 E0.01882
G1 X195.589 Y192.146 E0.01823
G1 X195.127 Y192.498 E0.01823
G1 X194.593 Y192.728 E0.01823
G1 X194.019 Y192.822 E0.01823
G1 X177.289 Y192.823 E0.52455
G1 X176.666 Y192.727 E0.01977
G1 X176.090 Y192.471 E0.01977
G1 X175.641 Y192.114 E0.01799
G1 X175.289 Y191.656 E0.01811
G1 X175.058 Y191.127 E0.01811
G1 X174.961 Y190.558 E0.01811
G1 X174.959 Y177.283 E0.41624
G1 X175.042 Y176.748 E0.01698
G1 F5760
G1 X175.310 Y176.095 E-0.24440
G1 F5760
G1 X175.648 Y175.665 E-0.18955
G1 F5760
G1 X176.073 Y175.325 E-0.18824
G1 F5760
G1 X176.432 Y175.154 E-0.13781
G1 E-0.04000 F2100.00000
G1 X186.385 Y184.716 F7200.000
G1 E0.80000 F2100.00000
G1 F1800
G1 X186.385 Y182.123 E0.08129
G1 X186.518 Y181.945 E0.00697
G1 X186.706 Y181.749 E0.00850
G1 X186.917 Y181.580 E0.00850
G1 X187.139 Y181.444 E0.00815
G1 X187.139 Y185.112 E0.11499
G1 X187.483 Y185.256 E0.01169
G1 X187.893 Y185.340 E0.01313
G1 X187.893 Y181.216 E0.12931
G1 X188.287 Y181.212 E0.01235
G1 X188.647 Y181.276 E0.01147
G1 X188.647 Y185.280 E0.12552
G1 X189.064 Y185.117 E0.01402
G1 X189.402 Y184.897 E0.01264
G1 X189.402 Y181.659 E0.10150
G1 X189.635 Y181.877 E0.01002
G1 X189.805 Y182.089 E0.00850
G1 X189.946 Y182.321 E0.00850
G1 X190.084 Y182.655 E0.01133
G1 X190.156 Y182.965 E0.00999
G1 X190.156 Y184.189 E0.03838
G1 F5760
G1 X190.156 Y182.965 E-0.42398
G1 F5760
G1 X190.084 Y182.655 E-0.11040
G1 F5760
G1 X189.946 Y182.321 E-0.12518
G1 F5760
G1 X189.805 Y182.089 E-0.09395
G1 F5760
G1 X189.793 Y182.074 E-0.00649
G1 E-0.04000 F2100.00000
G1 X190.156 Y179.514 F7200.000
G1 E0.80000 F2100.00000
G1 F1800
G1 X190.156 Y179.190 E0.01016
G1 X189.829 Y179.041 E0.01126
G1 X189.402 Y178.892 E0.01419
G1 X189.402 Y179.344 E0.01417
G1 X188.647 Y179.344 E0.02365
G1 X188.647 Y178.737 E0.01904
G1 X188.276 Y178.707 E0.01168
G1 X187.893 Y178.710 E0.01200
G1 X187.893 Y179.344 E0.01990
G1 X187.139 Y179.344 E0.02365
G1 X187.139 Y178.809 E0.01680
G1 X186.838 Y178.882 E0.00972
G1 X186.838 Y177.340 E0.04836
G1 X186.385 Y177.340 E0.01420
G1 X186.385 Y179.344 E0.06285
G1 X185.631 Y179.345 E0.02365
G1 X185.631 Y177.340 E0.06286
G1 X184.877 Y177.340 E0.02365
G1 X184.877 Y179.345 E0.06286
G1 X184.607 Y179.345 E0.00847
G1 X184.338 Y179.613 E0.01191
G1 X184.338 Y186.943 E0.22982
G1 X184.606 Y187.212 E0.01191
G1 X184.877 Y187.212 E0.00847
G1 X184.877 Y190.277 E0.09610
G1 X185.631 Y190.277 E0.02365
G1 X185.631 Y187.212 E0.09609
G1 X186.385 Y187.212 E0.02365
G1 X186.385 Y190.277 E0.09609
G1 X187.139 Y190.277 E0.02365
G1 X187.139 Y190.078 E0.00622
G1 X186.838 Y190.016 E0.00964
G1 X186.838 Y187.677 E0.07335
G1 X187.139 Y187.748 E0.00971
G1 X187.139 Y187.212 E0.01680
G1 X187.893 Y187.213 E0.02365
G1 X187.893 Y190.277 E0.09607
G1 X188.647 Y190.277 E0.02365
G1 X188.647 Y187.213 E0.09607
G1 X189.402 Y187.213 E0.02365
G1 X189.402 Y190.277 E0.09607
G1 X190.156 Y190.277 E0.02365
G1 X190.156 Y187.213 E0.09607
G1 X190.910 Y187.213 E0.02365
G1 X190.910 Y190.277 E0.09607
G1 X191.664 Y190.277 E0.02365
G1 X191.664 Y185.323 E0.15532
G1 X191.786 Y184.615 E0.02254
G1 X191.835 Y184.180 E0.01370
G1 X191.875 Y183.298 E0.02771
G1 X191.839 Y182.422 E0.02746
G1 X191.792 Y181.989 E0.01368
G1 X191.664 Y181.231 E0.02410
G1 X191.664 Y180.405 E0.02589
G1 X191.836 Y180.630 E0.00887
G1 X192.052 Y180.965 E0.01251
G1 X192.239 Y181.318 E0.01251
G1 X192.418 Y181.755 E0.01482
G1 X192.418 Y190.277 E0.26719
G1 X193.172 Y190.277 E0.02365
G1 X193.172 Y184.723 E0.17413
G1 X193.927 Y184.872 E0.02410
G1 X193.927 Y190.446 E0.17479
G1 X184.122 Y190.446 F7200.000
G1 F1800
G1 X184.122 Y177.340 E0.41095
G1 X183.368 Y177.340 E0.02365
G1 X183.368 Y190.277 E0.40563
G1 X182.614 Y190.277 E0.02365
G1 X182.614 Y177.340 E0.40563
G1 X181.860 Y177.340 E0.02365
G1 X181.860 Y190.277 E0.40563
G1 X181.106 Y190.277 E0.02365
G1 X181.106 Y177.340 E0.40563
G1 X180.352 Y177.340 E0.02365
G1 X180.352 Y190.277 E0.40563
G1 X179.598 Y190.277 E0.02365
G1 X179.598 Y177.340 E0.40563
G1 X178.843 Y177.340 E0.02365
G1 X178.843 Y190.277 E0.40563
G1 X178.089 Y190.277 E0.02365
G1 X178.089 Y177.340 E0.40563
G1 X177.335 Y177.340 E0.02365
G1 X177.335 Y190.446 E0.41095
G1 F5760
G1 X177.335 Y188.252 E-0.76000
G1 E-0.04000 F2100.00000
G1 X185.572 Y184.328 F7200.000
G1 E0.80000 F2100.00000
G1 F1800
G1 X185.429 Y183.874 E0.01491
G1 X185.377 Y183.538 E0.01067
G1 X185.364 Y183.274 E0.00828
G1 X185.405 Y182.804 E0.01478
G1 X185.485 Y182.473 E0.01067
G1 X185.573 Y182.227 E0.00820
G1 X185.721 Y181.925 E0.01054
G1 X185.862 Y181.702 E0.00828
G1 X186.166 Y181.340 E0.01479
G1 X186.435 Y181.104 E0.01125
G1 X186.637 Y180.963 E0.00772
G1 X187.057 Y180.744 E0.01485
G1 X187.508 Y180.602 E0.01485
G1 X187.751 Y180.559 E0.00771
G1 X188.090 Y180.536 E0.01067
G1 X188.580 Y180.576 E0.01541
G1 X188.911 Y180.657 E0.01069
G1 X189.155 Y180.744 E0.00814
G1 X189.375 Y180.846 E0.00758
G1 X189.666 Y181.022 E0.01068
G1 X190.044 Y181.337 E0.01540
G1 X190.269 Y181.592 E0.01069
G1 X190.422 Y181.808 E0.00829
G1 X190.639 Y182.226 E0.01478
G1 X190.750 Y182.548 E0.01067
G1 X190.808 Y182.806 E0.00828
G1 X190.849 Y183.276 E0.01479
G1 X190.826 Y183.634 E0.01125
G1 X190.783 Y183.876 E0.00772
G1 X190.641 Y184.328 E0.01485
G1 X190.421 Y184.750 E0.01492
G1 X190.209 Y185.039 E0.01125
G1 X190.046 Y185.217 E0.00757
G1 X189.868 Y185.380 E0.00756
G1 X189.594 Y185.582 E0.01067
G1 X189.159 Y185.811 E0.01540
G1 X188.836 Y185.921 E0.01069
G1 X188.579 Y185.980 E0.00828
G1 X188.109 Y186.021 E0.01479
G1 X187.751 Y185.997 E0.01125
G1 X187.508 Y185.955 E0.00772
G1 X187.059 Y185.813 E0.01477
G1 X186.754 Y185.663 E0.01067
G1 X186.530 Y185.522 E0.00828
G1 X186.169 Y185.219 E0.01479
G1 X185.932 Y184.949 E0.01125
G1 X185.791 Y184.748 E0.00772
G1 X185.600 Y184.381 E0.01297
G1 X185.177 Y184.270 F7200.000
G1 F5760
G1 X185.429 Y183.874 E-0.18522
G1 F5760
G1 X185.377 Y183.538 E-0.11788
G1 F5760
G1 X185.364 Y183.274 E-0.09152
G1 F5760
G1 X185.405 Y182.804 E-0.16330
G1 F5760
G1 X185.485 Y182.473 E-0.11789
G1 F5760
G1 X185.567 Y182.245 E-0.08419
G1 E-0.04000 F2100.00000
G1 X185.384 Y181.685 F7200.000
G1 E0.80000 F2100.00000
G1 F1800
G1 X185.384 Y180.390 E0.04061
G1 X186.546 Y180.390 E0.03646
G1 X186.589 Y180.563 E0.00557
G1 X186.441 Y180.640 E0.00522
G1 X186.202 Y180.807 E0.00914
G1 X185.895 Y181.076 E0.01280
G1 X185.422 Y181.640 E0.02307
G1 F5760
G1 X185.384 Y180.390 E-0.43292
G1 F5760
G1 X186.328 Y180.390 E-0.32708
G1 E-0.04000 F2100.00000
G1 X189.622 Y180.556 F7200.000
G1 E0.80000 F2100.00000
G1 F1800
G1 X189.668 Y180.390 E0.00539
G1 X190.351 Y180.390 E0.02139
G1 X190.557 Y181.092 E0.02296
G1 X190.401 Y181.171 E0.00548
G1 X190.307 Y181.065 E0.00443
G1 X189.885 Y180.714 E0.01721
G1 X189.674 Y180.587 E0.00775
G1 F5760
G1 X189.668 Y180.390 E-0.06811
G1 F5760
G1 X190.351 Y180.390 E-0.23626
G1 F5760
G1 X190.557 Y181.092 E-0.25360
G1 F5760
G1 X190.401 Y181.171 E-0.06059
G1 F5760
G1 X190.307 Y181.065 E-0.04896
G1 F5760
G1 X190.102 Y180.895 E-0.09248
G1 E-0.04000 F2100.00000
G1 X190.401 Y185.388 F7200.000
G1 E0.80000 F2100.00000
G1 F1800
G1 X190.555 Y185.468 E0.00544
G1 X190.352 Y186.167 E0.02283
G1 X189.661 Y186.167 E0.02166
G1 X189.619 Y185.995 E0.00555
G1 X189.794 Y185.903 E0.00622
G1 X190.108 Y185.672 E0.01220
G1 X190.360 Y185.432 E0.01092
G1 F5760
G1 X190.555 Y185.468 E-0.06852
G1 F5760
G1 X190.352 Y186.167 E-0.25215
G1 F5760
G1 X189.661 Y186.167 E-0.23923
G1 F5760
G1 X189.619 Y185.995 E-0.06136
G1 F5760
G1 X189.794 Y185.903 E-0.06868
G1 F5760
G1 X189.957 Y185.783 E-0.07006
G1 E-0.04000 F2100.00000
G1 X186.585 Y186.003 F7200.000
G1 E0.80000 F2100.00000
G1 F1800
G1 X186.538 Y186.166 E0.00534
G1 X185.384 Y186.166 E0.03620
G1 X185.384 Y185.099 E0.03346
G1 X185.542 Y185.049 E0.00520
G1 X185.635 Y185.183 E0.00510
G1 X185.904 Y185.489 E0.01280
G1 X186.307 Y185.828 E0.01650
G1 X186.535 Y185.971 E0.00842
G1 F5760
G1 X186.538 Y186.166 E-0.06771
G1 F5760
G1 X185.384 Y186.166 E-0.39989
G1 F5760
G1 X185.384 Y185.322 E-0.29240
G1 E-0.04000 F2100.00000
G1 X185.007 Y186.543 F7200.000
G1 E0.80000 F2100.00000
G1 F1800
G1 X185.007 Y180.013 E0.20474
G1 X190.623 Y180.013 E0.17609
G1 X190.896 Y180.877 E0.02843
G1 X191.069 Y181.676 E0.02562
G1 X191.173 Y182.484 E0.02553
G1 X191.206 Y183.301 E0.02565
G1 X191.169 Y184.116 E0.02559
G1 X191.062 Y184.925 E0.02558
G1 X190.884 Y185.724 E0.02566
G1 X190.619 Y186.544 E0.02703
G1 X185.067 Y186.543 E0.17409
G1 X185.190 Y186.188 F7200.000
G1 X185.803 Y185.978 F7200.000
G1 F1800
G1 X185.572 Y185.429 E0.00992
G1 X185.392 Y184.899 F7200.000
G1 F1800
G1 X185.260 Y184.178 E0.01046
G1 F1800
G1 X185.221 Y183.925 E0.00184
G1 F1800
G1 X185.218 Y183.895 E0.00002
G1 F5760
G1 X185.221 Y183.925 E-0.01041
G1 E-0.78959 F2100.00000
G1 X185.217 Y182.684 F7200.000
G1 E0.80000 F2100.00000
G1 F1800
G1 X185.251 Y182.400 E0.00165
G1 F1800
G1 X185.280 Y182.234 E0.00178
G1 X185.339 Y182.132 E0.00125
G1 F1800
G1 X185.528 Y181.841 E0.00131
G1 X185.572 Y181.136 F7200.000
G1 F1800
G1 X185.800 Y180.579 E0.00918
G1 X185.572 Y180.791 F7200.000
G1 F1800
G1 X186.142 Y180.594 E0.00240
G1 X186.803 Y180.644 F7200.000
G1 F1800
G1 X186.933 Y180.389 E0.00700
G1 X187.182 Y180.351 E0.00614
G1 F1800
G1 X187.430 Y180.312 E0.00454
G1 F1800
G1 X188.087 Y180.274 E0.00810
G1 X188.632 Y180.297 E0.00673
G1 F1800
G1 X189.013 Y180.343 E0.00764
G1 F1800
G1 X189.278 Y180.389 E0.00691
G1 X189.403 Y180.642 E0.00722
G1 F5760
G1 X189.278 Y180.389 E-0.09760
G1 F5760
G1 X189.013 Y180.343 E-0.09335
G1 E-0.60905 F2100.00000
G1 X190.577 Y181.294 F7200.000
G1 E0.80000 F2100.00000
G1 F1800
G1 X190.789 Y181.861 E0.01162
G1 F1800
G1 X190.871 Y182.122 E0.00306
G1 F1800
G1 X190.915 Y182.310 E0.00135
G1 F1800
G1 X190.963 Y182.533 E0.00017
G1 F5760
G1 X190.915 Y182.310 E-0.07929
G1 E-0.72071 F2100.00000
G1 X190.963 Y184.004 F7200.000
G1 E0.80000 F2100.00000
G1 F1800
G1 X190.911 Y184.258 E0.00054
G1 F1800
G1 X190.838 Y184.539 E0.00199
G1 F1800
G1 X190.769 Y184.758 E0.00314
G1 F1800
G1 X190.574 Y185.265 E0.01104
G1 F5760
G1 X190.769 Y184.758 E-0.18828
G1 E-0.61172 F2100.00000
G1 X189.404 Y185.911 F7200.000
G1 E0.80000 F2100.00000
G1 F1800
G1 X189.275 Y186.168 E0.00703
G1 X188.930 Y186.226 E0.00853
G1 F1800
G1 X188.629 Y186.260 E0.00545
G1 F1800
G1 X188.106 Y186.282 E0.00646
G1 X187.430 Y186.244 E0.00835
G1 F1800
G1 X187.181 Y186.206 E0.00455
G1 F1800
G1 X186.930 Y186.167 E0.00622
G1 X186.807 Y185.914 E0.00687
;BEFORE_LAYER_CHANGE
;0.3


G1 F5760
G1 X186.930 Y186.167 E-0.09730
G1 F5760
G1 X187.181 Y186.206 E-0.08813
G1 E-0.61458 F2100.00000
G1 Z0.300 F7200.000
;AFTER_LAYER_CHANGE
;0.3
M104 S245 ; set temperature
M140 S90 ; set bed temperature
G1 X196.653 Y184.480 F7200.000
G1 E0.80000 F2100.00000
G1 F2266
G1 X196.677 Y190.582 E0.10110
G1 X196.562 Y191.246 E0.01118
G1 X196.288 Y191.863 E0.01118
G1 X195.873 Y192.395 E0.01118
G1 X195.337 Y192.812 E0.01125
G1 X194.719 Y193.084 E0.01118
G1 X194.054 Y193.198 E0.01118
G1 X177.278 Y193.200 E0.27798
G1 X176.574 Y193.093 E0.01179
G1 X175.918 Y192.808 E0.01185
G1 X175.392 Y192.398 E0.01105
G1 X174.978 Y191.871 E0.01111
G1 X174.703 Y191.259 E0.01111
G1 X174.585 Y190.599 E0.01111
G1 X174.582 Y177.266 E0.22092
G1 X174.690 Y176.571 E0.01165
G1 X174.973 Y175.923 E0.01172
G1 X175.357 Y175.423 E0.01044
G1 X175.844 Y175.024 E0.01044
G1 X176.414 Y174.744 E0.01051
G1 X177.027 Y174.603 E0.01044
G1 X186.838 Y174.586 E0.16255
G1 X187.778 Y174.751 E0.01582
G1 X191.958 Y176.361 E0.07422
G1 X192.478 Y176.638 E0.00976
G1 X192.897 Y176.986 E0.00902
G1 X193.236 Y177.407 E0.00895
G1 X194.565 Y179.817 E0.04561
G1 X196.440 Y183.746 E0.07213
G1 X196.636 Y184.422 E0.01167
G1 F5760
G1 X196.651 Y186.617 E-0.76000
G1 E-0.04000 F2100.00000
G1 X190.733 Y183.853 F7200.000
G1 E0.80000 F2100.00000
M204 S800
G1 F906
G1 X190.588 Y184.314 E0.00860
G1 X190.313 Y184.814 E0.01018
G1 X190.003 Y185.184 E0.00860
G1 X189.557 Y185.542 E0.01018
G1 X189.129 Y185.765 E0.00860
G1 X188.580 Y185.925 E0.01018
G1 X188.099 Y185.967 E0.00860
G1 X187.532 Y185.905 E0.01018
G1 X187.071 Y185.759 E0.00860
G1 X186.570 Y185.485 E0.01018
G1 X186.206 Y185.179 E0.00848
G1 X185.900 Y184.814 E0.00848
G1 X185.622 Y184.307 E0.01030
G1 X185.460 Y183.752 E0.01030
G1 X185.418 Y183.271 E0.00860
G1 X185.480 Y182.703 E0.01018
G1 X185.625 Y182.243 E0.00860
G1 X185.900 Y181.742 E0.01018
G1 X186.210 Y181.372 E0.00860
G1 X186.656 Y181.014 E0.01018
G1 X187.078 Y180.795 E0.00848
G1 X187.530 Y180.652 E0.00846
G1 X188.079 Y180.590 E0.00984
G1 X188.579 Y180.631 E0.00893
G1 X189.136 Y180.793 E0.01033
G1 X189.643 Y181.072 E0.01030
G1 X190.013 Y181.382 E0.00860
G1 X190.370 Y181.827 E0.01018
G1 X190.593 Y182.256 E0.00860
G1 X190.753 Y182.804 E0.01018
G1 X190.795 Y183.285 E0.00860
G1 X190.740 Y183.793 E0.00911
M204 S1000
G1 X190.314 Y183.747 F7200.000
M204 S800
G1 F1200
G1 X190.192 Y184.144 E0.01521
G1 X189.958 Y184.571 E0.01780
G1 X189.701 Y184.877 E0.01457
G1 X189.322 Y185.181 E0.01780
G1 X188.968 Y185.365 E0.01457
G1 X188.501 Y185.501 E0.01780
G1 X188.104 Y185.536 E0.01457
G1 X187.620 Y185.483 E0.01780
G1 X187.240 Y185.363 E0.01457
G1 X186.813 Y185.129 E0.01780
G1 X186.510 Y184.875 E0.01448
G1 X186.255 Y184.571 E0.01448
G1 X186.020 Y184.142 E0.01789
G1 X185.883 Y183.673 E0.01789
G1 X185.848 Y183.276 E0.01457
G1 X185.901 Y182.792 E0.01780
G1 X186.021 Y182.412 E0.01457
G1 X186.255 Y181.985 E0.01780
G1 X186.512 Y181.680 E0.01457
G1 X186.891 Y181.375 E0.01780
G1 X187.242 Y181.192 E0.01448
G1 X187.620 Y181.073 E0.01447
G1 X188.086 Y181.020 E0.01714
G1 X188.500 Y181.055 E0.01522
G1 X188.971 Y181.192 E0.01791
G1 X189.400 Y181.427 E0.01789
G1 X189.705 Y181.683 E0.01457
G1 X190.010 Y182.063 E0.01780
G1 X190.194 Y182.416 E0.01457
G1 X190.330 Y182.884 E0.01780
G1 X190.365 Y183.281 E0.01457
