; generated by Slic3r 1.37.2-prusa3d-win64 on 2018-02-05 at 19:09:01

; 

; external perimeters extrusion width = 0.45mm
; perimeters extrusion width = 0.45mm
; infill extrusion width = 0.45mm
; solid infill extrusion width = 0.45mm
; top infill extrusion width = 0.45mm
; first layer extrusion width = 0.42mm

M107
M115 U3.1.0 ; tell printer latest fw version
M83  ; extruder relative mode
M104 S150
M140 S75 ; set bed temp
G28 W ; home all without mesh bed level
G1 X125 Z80 F1000
M190 S75 ; wait for bed temp
M104 S230 ; set extruder temp
G80 ; mesh bed leveling
M109 S230 ; wait for extruder temp
G1 Y-3.0 F1000.0 ; go outside print area
G92 E0.0
G1 X60.0 E9.0  F1000.0 ; intro line
G1 X100.0 E12.5  F1000.0 ; intro line
G92 E0.0
M900 K45 ; Filament gcode
G21 ; set units to millimeters
G90 ; use absolute coordinates
M83 ; use relative distances for extrusion
;BEFORE_LAYER_CHANGE
;0.2


G1 E-0.80000 F2100.00000
G1 Z0.200 F7200.000
;AFTER_LAYER_CHANGE
;0.2
G1 X222.528 Y183.943 F7200.000
G1 E0.80000 F2100.00000
M204 S1000
G1 F1800
G1 X223.579 Y183.080 E0.04266
G1 X224.685 Y182.497 E0.03918
G1 X225.948 Y182.127 E0.04128
G1 X226.863 Y182.025 E0.02887
G1 X229.152 Y182.019 E0.07176
G1 X230.519 Y182.167 E0.04312
G1 X231.804 Y182.593 E0.04244
G1 X232.901 Y183.227 E0.03974
G1 X233.937 Y184.154 E0.04360
G1 X234.726 Y185.241 E0.04210
G1 X235.287 Y186.516 E0.04367
G1 X235.560 Y187.872 E0.04339
G1 X235.538 Y189.252 E0.04325
G1 X235.293 Y190.382 E0.03628
G1 X234.844 Y191.461 E0.03664
G1 X233.453 Y193.845 E0.08653
G1 X232.481 Y194.966 E0.04651
G1 X231.399 Y195.766 E0.04222
G1 X230.141 Y196.335 E0.04326
G1 X228.813 Y196.620 E0.04261
G1 X227.410 Y196.615 E0.04397
G1 X226.111 Y196.330 E0.04172
G1 X224.912 Y195.792 E0.04119
G1 X223.817 Y194.994 E0.04249
G1 X222.996 Y194.099 E0.03809
G1 X221.519 Y191.639 E0.08995
G1 X221.061 Y190.644 E0.03435
G1 X220.726 Y189.235 E0.04539
G1 X220.728 Y187.667 E0.04917
G1 X221.059 Y186.281 E0.04468
G1 X221.665 Y185.034 E0.04346
G1 X222.491 Y183.990 E0.04172
G1 X222.785 Y184.225 F7200.000
G1 F1800
G1 X223.815 Y183.376 E0.04185
G1 X224.836 Y182.843 E0.03610
G1 X226.038 Y182.494 E0.03925
G1 X226.882 Y182.401 E0.02665
G1 X229.152 Y182.396 E0.07115
G1 X230.447 Y182.537 E0.04087
G1 X231.680 Y182.951 E0.04075
G1 X232.803 Y183.623 E0.04106
G1 X233.740 Y184.502 E0.04029
G1 X234.483 Y185.580 E0.04104
G1 X234.940 Y186.671 E0.03709
G1 X235.187 Y187.928 E0.04017
G1 X235.158 Y189.252 E0.04151
G1 X234.917 Y190.319 E0.03429
G1 X234.431 Y191.431 E0.03804
G1 X233.120 Y193.664 E0.08120
G1 X232.118 Y194.785 E0.04713
G1 X231.026 Y195.544 E0.04169
G1 X229.845 Y196.032 E0.04009
G1 X228.562 Y196.263 E0.04088
G1 X227.293 Y196.220 E0.03979
G1 X226.171 Y195.952 E0.03618
G1 X225.026 Y195.422 E0.03956
G1 X224.017 Y194.668 E0.03949
G1 X223.194 Y193.732 E0.03908
G1 X221.772 Y191.316 E0.08788
G1 X221.361 Y190.356 E0.03275
G1 X221.081 Y189.012 E0.04305
G1 X221.109 Y187.662 E0.04234
G1 X221.421 Y186.388 E0.04112
G1 X221.996 Y185.216 E0.04093
G1 X222.748 Y184.272 E0.03785
G1 X223.042 Y184.508 F7200.000
G1 F1800
G1 X223.096 Y184.440 E0.00271
G1 X224.055 Y183.670 E0.03856
G1 X225.104 Y183.143 E0.03682
G1 X226.129 Y182.860 E0.03332
G1 X226.901 Y182.778 E0.02435
G1 X229.151 Y182.773 E0.07056
G1 X230.371 Y182.907 E0.03848
G1 X231.537 Y183.300 E0.03857
G1 X232.594 Y183.937 E0.03869
G1 X233.462 Y184.757 E0.03746
G1 X234.155 Y185.766 E0.03838
G1 X234.581 Y186.787 E0.03470
G1 X234.812 Y187.967 E0.03767
G1 X234.781 Y189.223 E0.03939
G1 X234.515 Y190.334 E0.03583
G1 X234.099 Y191.253 E0.03163
G1 X232.815 Y193.442 E0.07957
G1 X231.868 Y194.503 E0.04457
G1 X230.840 Y195.216 E0.03924
G1 X229.714 Y195.677 E0.03816
G1 X228.519 Y195.888 E0.03804
G1 X227.311 Y195.842 E0.03788
G1 X226.168 Y195.551 E0.03700
G1 X225.209 Y195.092 E0.03332
G1 X224.267 Y194.385 E0.03694
G1 X223.492 Y193.500 E0.03688
G1 X222.169 Y191.256 E0.08169
G1 X221.762 Y190.364 E0.03074
G1 X221.459 Y189.002 E0.04373
G1 X221.485 Y187.695 E0.04099
G1 X221.778 Y186.509 E0.03830
G1 X222.321 Y185.407 E0.03852
G1 X223.005 Y184.555 E0.03426
G1 X223.297 Y184.790 F7200.000
G1 F1800
G1 X223.366 Y184.704 E0.00344
G1 X224.277 Y183.975 E0.03660
G1 X225.249 Y183.491 E0.03402
G1 X226.210 Y183.229 E0.03124
G1 X226.915 Y183.155 E0.02225
G1 X229.151 Y183.150 E0.07010
G1 X230.290 Y183.275 E0.03593
G1 X231.382 Y183.644 E0.03614
G1 X232.368 Y184.239 E0.03612
G1 X233.178 Y185.005 E0.03496
G1 X233.837 Y185.972 E0.03669
G1 X234.256 Y187.017 E0.03529
G1 X234.438 Y188.025 E0.03213
G1 X234.407 Y189.179 E0.03620
G1 X234.209 Y190.058 E0.02823
G1 X233.838 Y190.945 E0.03015
G1 X232.521 Y193.203 E0.08195
G1 X231.708 Y194.140 E0.03890
G1 X230.687 Y194.870 E0.03936
G1 X229.630 Y195.309 E0.03587
G1 X228.497 Y195.512 E0.03611
G1 X227.354 Y195.467 E0.03585
G1 X226.295 Y195.196 E0.03431
G1 X225.404 Y194.769 E0.03097
G1 X224.523 Y194.108 E0.03451
G1 X223.795 Y193.276 E0.03468
G1 X222.499 Y191.074 E0.08012
G1 X222.120 Y190.245 E0.02859
G1 X221.835 Y188.966 E0.04108
G1 X221.860 Y187.738 E0.03849
G1 X222.132 Y186.638 E0.03553
G1 X222.644 Y185.603 E0.03621
G1 X223.260 Y184.836 E0.03083
G1 F5760
G1 X223.366 Y184.704 E-0.05879
G1 F5760
G1 X224.277 Y183.975 E-0.40430
G1 F5760
G1 X225.045 Y183.593 E-0.29691
G1 E-0.04000 F2100.00000
G1 X226.072 Y187.225 F7200.000
G1 E0.80000 F2100.00000
G1 F1800
G1 X226.377 Y187.021 E0.01150
G1 X226.762 Y186.881 E0.01285
G1 X227.087 Y186.845 E0.01023
G1 X229.180 Y186.845 E0.06562
G1 X229.504 Y186.881 E0.01023
G1 X229.895 Y187.023 E0.01305
G1 X230.241 Y187.266 E0.01325
G1 X230.508 Y187.584 E0.01305
G1 X230.667 Y187.906 E0.01124
G1 X230.751 Y188.248 E0.01104
G1 X230.758 Y188.600 E0.01104
G1 X230.691 Y188.939 E0.01084
G1 X230.586 Y189.194 E0.00864
G1 X229.449 Y191.157 E0.07114
G1 X229.130 Y191.493 E0.01453
G1 X228.709 Y191.730 E0.01514
G1 X228.237 Y191.833 E0.01514
G1 X227.756 Y191.792 E0.01514
G1 X227.316 Y191.614 E0.01489
G1 X226.983 Y191.354 E0.01323
G1 X226.755 Y191.055 E0.01179
G1 X225.709 Y189.244 E0.06560
G1 X225.595 Y189.000 E0.00843
G1 X225.508 Y188.606 E0.01264
G1 X225.516 Y188.241 E0.01145
G1 X225.622 Y187.846 E0.01284
G1 X225.797 Y187.526 E0.01144
G1 X226.032 Y187.269 E0.01091
G1 X226.310 Y187.524 F7200.000
G1 F1800
G1 X226.549 Y187.360 E0.00909
G1 X226.849 Y187.251 E0.00999
G1 X227.107 Y187.222 E0.00816
G1 X229.159 Y187.222 E0.06433
G1 X229.418 Y187.251 E0.00816
G1 X229.719 Y187.361 E0.01006
G1 X229.984 Y187.546 E0.01014
G1 X230.190 Y187.792 E0.01006
G1 X230.311 Y188.036 E0.00852
G1 X230.375 Y188.297 E0.00845
G1 X230.381 Y188.567 E0.00845
G1 X230.328 Y188.829 E0.00838
G1 X230.247 Y189.026 E0.00669
G1 X229.144 Y190.930 E0.06897
G1 X228.895 Y191.193 E0.01136
G1 X228.573 Y191.374 E0.01158
G1 X228.213 Y191.452 E0.01158
G1 X227.845 Y191.421 E0.01158
G1 X227.506 Y191.284 E0.01146
G1 X227.253 Y191.087 E0.01005
G1 X227.069 Y190.846 E0.00951
G1 X226.043 Y189.069 E0.06432
G1 X225.954 Y188.878 E0.00662
G1 X225.886 Y188.569 E0.00992
G1 X225.892 Y188.295 E0.00860
G1 X225.974 Y187.987 E0.00999
G1 X226.106 Y187.747 E0.00859
G1 X226.270 Y187.568 E0.00760
G1 X226.255 Y187.239 F7200.000
G1 F5760
G1 X226.549 Y187.360 E-0.12073
G1 F5760
G1 X226.849 Y187.251 E-0.11039
G1 F5760
G1 X227.107 Y187.222 E-0.09015
G1 F5760
G1 X228.374 Y187.222 E-0.43873
G1 E-0.04000 F2100.00000
G1 X225.694 Y186.598 F7200.000
G1 E0.80000 F2100.00000
G1 F1800
G1 X225.854 Y186.486 E0.00614
G1 X226.123 Y186.338 E0.00960
G1 X226.513 Y186.197 E0.01300
G1 X226.916 Y186.125 E0.01283
G1 X229.247 Y186.117 E0.07309
G1 X229.447 Y186.135 E0.00631
G1 X229.760 Y186.197 E0.01000
G1 X229.943 Y186.254 E0.00601
G1 X230.230 Y186.381 E0.00982
G1 X230.494 Y186.541 E0.00969
G1 X230.800 Y186.797 E0.01252
G1 X231.011 Y187.037 E0.01001
G1 X231.121 Y187.194 E0.00601
G1 X231.274 Y187.474 E0.01001
G1 X231.348 Y187.651 E0.00601
G1 X231.437 Y187.958 E0.01001
G1 X231.470 Y188.147 E0.00601
G1 X231.491 Y188.465 E0.01001
G1 X231.483 Y188.657 E0.00601
G1 X231.435 Y188.966 E0.00981
G1 X231.349 Y189.260 E0.00961
G1 X231.223 Y189.547 E0.00982
G1 X230.176 Y191.367 E0.06583
G1 X229.933 Y191.715 E0.01332
G1 X229.643 Y192.008 E0.01294
G1 X229.500 Y192.120 E0.00569
G1 X229.239 Y192.282 E0.00961
G1 X228.966 Y192.406 E0.00941
G1 X228.673 Y192.497 E0.00961
G1 X228.183 Y192.559 E0.01548
G1 X227.883 Y192.546 E0.00941
G1 X227.594 Y192.496 E0.00922
G1 X227.196 Y192.364 E0.01313
G1 X226.777 Y192.127 E0.01508
G1 X226.458 Y191.855 E0.01313
G1 X226.152 Y191.468 E0.01549
G1 X225.101 Y189.653 E0.06575
G1 X224.915 Y189.254 E0.01380
G1 X224.831 Y188.966 E0.00941
G1 X224.784 Y188.663 E0.00961
G1 X224.778 Y188.363 E0.00941
G1 X224.834 Y187.939 E0.01341
G1 X224.882 Y187.760 E0.00581
G1 X224.995 Y187.469 E0.00982
G1 X225.144 Y187.198 E0.00969
G1 X225.256 Y187.037 E0.00614
G1 X225.462 Y186.802 E0.00981
G1 X225.649 Y186.638 E0.00781
G1 X225.967 Y185.994 F7200.000
G1 F1800
G1 X226.415 Y185.831 E0.01494
G1 X226.882 Y185.749 E0.01488
G1 X229.262 Y185.740 E0.07464
G1 X229.501 Y185.761 E0.00749
G1 X229.854 Y185.831 E0.01130
G1 X230.076 Y185.901 E0.00730
G1 X230.404 Y186.045 E0.01123
G1 X230.707 Y186.229 E0.01110
G1 X230.897 Y186.374 E0.00750
G1 X231.070 Y186.533 E0.00737
G1 X231.308 Y186.804 E0.01130
G1 X231.441 Y186.995 E0.00730
G1 X231.615 Y187.311 E0.01130
G1 X231.704 Y187.526 E0.00730
G1 X231.805 Y187.872 E0.01130
G1 X231.845 Y188.101 E0.00730
G1 X231.869 Y188.461 E0.01130
G1 X231.859 Y188.694 E0.00730
G1 X231.804 Y189.048 E0.01123
G1 X231.704 Y189.390 E0.01116
G1 X231.560 Y189.718 E0.01124
G1 X230.494 Y191.569 E0.06698
G1 X230.224 Y191.957 E0.01485
G1 X229.894 Y192.291 E0.01471
G1 X229.716 Y192.430 E0.00708
G1 X229.417 Y192.615 E0.01100
G1 X229.100 Y192.759 E0.01093
G1 X228.765 Y192.863 E0.01100
G1 X228.541 Y192.906 E0.00715
G1 X228.191 Y192.936 E0.01100
G1 X227.843 Y192.921 E0.01093
G1 X227.502 Y192.863 E0.01086
G1 X227.054 Y192.714 E0.01478
G1 X226.851 Y192.616 E0.00708
G1 X226.555 Y192.432 E0.01093
G1 X226.196 Y192.127 E0.01478
G1 X226.044 Y191.959 E0.00708
G1 X225.835 Y191.674 E0.01108
G1 X224.766 Y189.828 E0.06690
G1 X224.561 Y189.387 E0.01523
G1 X224.462 Y189.048 E0.01109
G1 X224.408 Y188.696 E0.01116
G1 X224.400 Y188.343 E0.01109
G1 X224.463 Y187.866 E0.01509
G1 X224.523 Y187.643 E0.00723
G1 X224.653 Y187.309 E0.01123
G1 X224.823 Y186.998 E0.01110
G1 X224.959 Y186.804 E0.00743
G1 X225.195 Y186.535 E0.01123
G1 X225.461 Y186.301 E0.01110
G1 X225.655 Y186.165 E0.00743
G1 X225.914 Y186.023 E0.00928
G1 X226.289 Y186.230 F7200.000
G1 X226.196 Y186.709 F7200.000
G1 F1800
G1 X226.607 Y186.550 E0.01114
G1 X226.948 Y186.492 E0.00874
G1 X229.190 Y186.481 E0.05658
G1 X229.396 Y186.499 E0.00521
G1 X229.669 Y186.552 E0.00704
G1 X230.082 Y186.713 E0.01118
G1 X230.502 Y187.014 E0.01305
G1 X230.823 Y187.404 E0.01274
G1 X231.005 Y187.772 E0.01036
G1 X231.110 Y188.190 E0.01089
G1 X231.121 Y188.621 E0.01089
G1 X231.076 Y188.886 E0.00679
G1 X231.005 Y189.135 E0.00653
G1 X230.897 Y189.382 E0.00681
G1 X229.747 Y191.356 E0.05766
G1 X229.372 Y191.762 E0.01397
G1 X229.064 Y191.955 E0.00917
G1 X228.813 Y192.076 E0.00704
G1 X228.438 Y192.167 E0.00975
G1 X228.175 Y192.193 E0.00665
G1 X227.681 Y192.146 E0.01253
G1 X227.335 Y192.020 E0.00930
G1 X227.116 Y191.913 E0.00616
G1 X226.711 Y191.595 E0.01301
G1 X226.458 Y191.268 E0.01042
G1 X225.425 Y189.484 E0.05204
G1 X225.255 Y189.126 E0.01000
G1 X225.150 Y188.662 E0.01201
G1 X225.145 Y188.383 E0.00705
G1 X225.196 Y188.011 E0.00948
G1 X225.295 Y187.692 E0.00843
G1 X225.515 Y187.298 E0.01140
G1 X225.822 Y186.965 E0.01144
G1 X226.145 Y186.740 E0.00992
;BEFORE_LAYER_CHANGE
;0.3


G1 F5760
G1 X226.607 Y186.550 E-0.17328
G1 F5760
G1 X226.948 Y186.492 E-0.11985
G1 F5760
G1 X228.296 Y186.486 E-0.46686
G1 E-0.04000 F2100.00000
G1 Z0.300 F7200.000
;AFTER_LAYER_CHANGE
;0.3
M104 S245 ; set temperature
M140 S90 ; set bed temperature
G1 X223.579 Y183.080 F7200.000
G1 E0.80000 F2100.00000
G1 F1268
G1 X224.685 Y182.497 E0.02070
G1 X225.948 Y182.127 E0.02182
G1 X226.863 Y182.025 E0.01526
G1 X229.152 Y182.019 E0.03792
G1 X230.519 Y182.167 E0.02279
G1 X231.804 Y182.593 E0.02243
G1 X232.901 Y183.227 E0.02100
G1 X233.937 Y184.154 E0.02304
G1 X234.726 Y185.241 E0.02225
G1 X235.287 Y186.516 E0.02308
G1 X235.560 Y187.872 E0.02293
G1 X235.538 Y189.252 E0.02285
G1 X235.293 Y190.382 E0.01917
G1 X234.844 Y191.461 E0.01936
G1 X233.453 Y193.845 E0.04573
G1 X232.481 Y194.966 E0.02458
G1 X231.399 Y195.766 E0.02231
G1 X230.141 Y196.335 E0.02286
G1 X228.813 Y196.620 E0.02252
G1 X227.410 Y196.615 E0.02324
G1 X226.111 Y196.330 E0.02204
G1 X224.912 Y195.792 E0.02177
G1 X223.817 Y194.994 E0.02245
G1 X222.996 Y194.099 E0.02013
G1 X221.519 Y191.639 E0.04753
G1 X221.061 Y190.644 E0.01815
G1 X220.726 Y189.235 E0.02399
G1 X220.728 Y187.667 E0.02598
G1 X221.059 Y186.281 E0.02361
G1 X221.665 Y185.034 E0.02297
G1 X222.528 Y183.943 E0.02304
G1 X223.533 Y183.118 E0.02155
G1 F5760
G1 X224.685 Y182.497 E-0.45314
G1 F5760
G1 X225.535 Y182.248 E-0.30686
G1 E-0.04000 F2100.00000
G1 X226.185 Y187.070 F7200.000
G1 E0.80000 F2100.00000
M204 S800
G1 F507
G1 X226.347 Y186.961 E0.00346
G1 X226.747 Y186.816 E0.00759
G1 X227.083 Y186.779 E0.00602
G1 X229.183 Y186.779 E0.03742
G1 X229.519 Y186.816 E0.00602
G1 X229.926 Y186.964 E0.00771
G1 X230.286 Y187.216 E0.00784
G1 X230.565 Y187.548 E0.00771
G1 X230.730 Y187.883 E0.00666
G1 X230.817 Y188.239 E0.00653
G1 X230.825 Y188.606 E0.00653
G1 X230.755 Y188.958 E0.00640
G1 X230.645 Y189.223 E0.00511
G1 X229.502 Y191.197 E0.04064
G1 X229.171 Y191.546 E0.00857
G1 X228.733 Y191.793 E0.00896
G1 X228.241 Y191.900 E0.00896
G1 X227.740 Y191.857 E0.00896
G1 X227.280 Y191.671 E0.00883
G1 X226.935 Y191.401 E0.00781
G1 X226.699 Y191.092 E0.00693
G1 X225.650 Y189.274 E0.03740
G1 X225.532 Y189.021 E0.00497
G1 X225.441 Y188.613 E0.00745
G1 X225.449 Y188.232 E0.00679
G1 X225.559 Y187.821 E0.00758
G1 X225.743 Y187.487 E0.00678
G1 X226.027 Y187.176 E0.00750
G1 X226.136 Y187.103 E0.00234
M204 S1000
G1 X226.542 Y187.346 F7200.000
M204 S800
G1 F1200
G1 X226.845 Y187.236 E0.00575
G1 X227.106 Y187.207 E0.00468
G1 X229.160 Y187.207 E0.03658
G1 X229.421 Y187.236 E0.00468
G1 X229.726 Y187.347 E0.00579
G1 X229.994 Y187.535 E0.00583
G1 X230.203 Y187.784 E0.00579
G1 X230.325 Y188.030 E0.00490
G1 X230.390 Y188.295 E0.00486
G1 X230.396 Y188.568 E0.00486
G1 X230.343 Y188.833 E0.00482
G1 X230.260 Y189.033 E0.00385
G1 X229.157 Y190.939 E0.03924
G1 X228.905 Y191.205 E0.00653
G1 X228.579 Y191.388 E0.00666
G1 X228.213 Y191.467 E0.00666
G1 X227.841 Y191.435 E0.00666
G1 X227.497 Y191.296 E0.00662
G1 X227.242 Y191.097 E0.00575
G1 X227.056 Y190.854 E0.00545
G1 X226.030 Y189.076 E0.03658
G1 X225.940 Y188.883 E0.00380
G1 X225.871 Y188.571 E0.00570
G1 X225.877 Y188.293 E0.00495
G1 X225.960 Y187.982 E0.00574
G1 X226.094 Y187.738 E0.00495
G1 X226.308 Y187.503 E0.00567
G1 X226.492 Y187.380 E0.00395
M204 S1000
G1 X226.559 Y187.024 F7200.000
G1 F5760
G1 X226.845 Y187.236 E-0.13196
G1 F5760
G1 X227.106 Y187.207 E-0.09106
G1 F5760
G1 X228.657 Y187.207 E-0.53698
G1 E-0.04000 F2100.00000
G1 X226.000 Y186.482 F7200.000
G1 E0.80000 F2100.00000
M204 S800
G1 F507
G1 X226.150 Y186.399 E0.00306
G1 X226.530 Y186.261 E0.00719
G1 X226.922 Y186.192 E0.00709
G1 X229.238 Y186.184 E0.04128
G1 X229.438 Y186.201 E0.00358
G1 X229.737 Y186.260 E0.00543
G1 X230.017 Y186.355 E0.00526
G1 X230.194 Y186.437 E0.00347
G1 X230.452 Y186.593 E0.00537
G1 X230.753 Y186.844 E0.00698
G1 X230.958 Y187.078 E0.00556
G1 X231.064 Y187.229 E0.00329
G1 X231.214 Y187.503 E0.00556
G1 X231.285 Y187.673 E0.00329
G1 X231.372 Y187.973 E0.00556
G1 X231.404 Y188.155 E0.00329
G1 X231.425 Y188.466 E0.00556
G1 X231.417 Y188.650 E0.00329
G1 X231.370 Y188.952 E0.00543
G1 X231.287 Y189.238 E0.00531
G1 X231.164 Y189.517 E0.00544
G1 X230.120 Y191.331 E0.03729
G1 X229.882 Y191.672 E0.00742
G1 X229.598 Y191.959 E0.00717
G1 X229.208 Y192.223 E0.00840
G1 X228.942 Y192.344 E0.00520
G1 X228.657 Y192.432 E0.00532
G1 X228.182 Y192.492 E0.00853
G1 X227.890 Y192.480 E0.00520
G1 X227.610 Y192.431 E0.00507
G1 X227.221 Y192.302 E0.00730
G1 X226.817 Y192.073 E0.00828
G1 X226.505 Y191.807 E0.00730
G1 X226.208 Y191.431 E0.00854
G1 X225.160 Y189.622 E0.03725
G1 X224.977 Y189.231 E0.00770
