; generated by Slic3r 1.37.2-prusa3d-win64 on 2018-01-02 at 19:38:12

; 

; external perimeters extrusion width = 0.60mm
; perimeters extrusion width = 0.43mm
; infill extrusion width = 0.70mm
; solid infill extrusion width = 0.70mm
; top infill extrusion width = 0.43mm
; first layer extrusion width = 0.42mm

M107
M115 U3.1.0 ; tell printer latest fw version
M83  ; extruder relative mode
M104 S150
M140 S65 ; set bed temp
G28 W ; home all without mesh bed level
G1 X125 Z80 F1000
M190 S65 ; wait for bed temp
M104 S220 ; set extruder temp
G80 ; mesh bed leveling
M109 S220 ; wait for extruder temp
G1 Y-3.0 F1000.0 ; go outside print area
G92 E0.0
G1 X60.0 E9.0  F1000.0 ; intro line
G1 X100.0 E12.5  F1000.0 ; intro line
G92 E0.0
M900 K30 ; Filament gcode
G21 ; set units to millimeters
G90 ; use absolute coordinates
M83 ; use relative distances for extrusion
;BEFORE_LAYER_CHANGE
;0.2


G1 E-0.80000 F2100.00000
G1 Z0.200 F7200.000
;AFTER_LAYER_CHANGE
;0.2
G1 X104.482 Y87.795 F7200.000
G1 E0.80000 F2100.00000
M204 S1000
G1 F3600
G1 X106.365 Y85.771 E0.08669
G1 X107.820 Y84.461 E0.06138
G1 X110.059 Y82.779 E0.08779
G1 X112.429 Y81.357 E0.08668
G1 X114.966 Y80.174 E0.08776
G1 X117.616 Y79.261 E0.08788
G1 X120.309 Y78.637 E0.08669
G1 X122.239 Y78.366 E0.06111
G1 X125.004 Y78.223 E0.08680
G1 X127.796 Y78.369 E0.08765
G1 X130.527 Y78.800 E0.08668
G1 X132.421 Y79.272 E0.06120
G1 X135.066 Y80.187 E0.08779
G1 X137.572 Y81.358 E0.08669
G1 X139.974 Y82.801 E0.08788
G1 X142.212 Y84.488 E0.08788
G1 X144.233 Y86.369 E0.08657
G1 X146.071 Y88.477 E0.08769
G1 X147.217 Y90.053 E0.06111
G1 X148.640 Y92.424 E0.08670
G1 X149.826 Y94.966 E0.08794
G1 X150.739 Y97.616 E0.08788
G1 X151.363 Y100.309 E0.08667
G1 X151.634 Y102.239 E0.06112
G1 X151.777 Y105.000 E0.08668
G1 X151.631 Y107.790 E0.08759
G1 X151.201 Y110.521 E0.08668
G1 X150.728 Y112.421 E0.06137
G1 X149.815 Y115.061 E0.08761
G1 X148.642 Y117.572 E0.08687
G1 X147.199 Y119.974 E0.08787
G1 X145.512 Y122.212 E0.08788
G1 X143.631 Y124.232 E0.08655
G1 X142.180 Y125.539 E0.06122
G1 X139.941 Y127.221 E0.08779
G1 X137.571 Y128.643 E0.08669
G1 X135.034 Y129.826 E0.08776
G1 X132.417 Y130.729 E0.08681
G1 X130.506 Y131.204 E0.06174
G1 X127.795 Y131.631 E0.08605
G1 X125.000 Y131.777 E0.08776
G1 X122.204 Y131.631 E0.08777
G1 X119.470 Y131.199 E0.08680
G1 X116.765 Y130.479 E0.08776
G1 X114.934 Y129.813 E0.06111
G1 X112.428 Y128.642 E0.08669
G1 X110.026 Y127.199 E0.08788
G1 X107.791 Y125.515 E0.08776
G1 X105.771 Y123.635 E0.08651
G1 X104.461 Y122.180 E0.06138
G1 X102.779 Y119.941 E0.08779
G1 X101.357 Y117.571 E0.08668
G1 X100.176 Y115.039 E0.08758
G1 X99.263 Y112.389 E0.08788
G1 X98.637 Y109.691 E0.08685
G1 X98.367 Y107.766 E0.06095
G1 X98.223 Y105.000 E0.08686
G1 X98.369 Y102.204 E0.08777
G1 X98.800 Y99.473 E0.08668
G1 X99.521 Y96.766 E0.08786
G1 X100.185 Y94.939 E0.06095
G1 X101.358 Y92.428 E0.08687
G1 X102.798 Y90.031 E0.08770
G1 X104.446 Y87.843 E0.08587
G1 F5760
G1 X105.937 Y86.233 E-0.76000
G1 E-0.04000 F2100.00000
G1 X107.389 Y90.227 F7200.000
G1 E0.80000 F2100.00000
G1 F3600
G1 X107.917 Y89.619 E0.02527
G1 X108.464 Y89.032 E0.02516
G1 X109.032 Y88.464 E0.02516
G1 X109.619 Y87.917 E0.02516
G1 X110.224 Y87.391 E0.02516
G1 X110.848 Y86.886 E0.02516
G1 X111.488 Y86.403 E0.02516
G1 X112.146 Y85.943 E0.02516
G1 X112.819 Y85.506 E0.02516
G1 X113.506 Y85.092 E0.02516
G1 X114.208 Y84.704 E0.02516
G1 X114.918 Y84.342 E0.02499
G1 X115.650 Y84.000 E0.02532
G1 X116.389 Y83.687 E0.02516
G1 X117.138 Y83.399 E0.02516
G1 X117.897 Y83.138 E0.02516
G1 X118.664 Y82.903 E0.02516
G1 X119.439 Y82.696 E0.02516
G1 X120.221 Y82.515 E0.02516
G1 X121.008 Y82.362 E0.02516
G1 X121.801 Y82.237 E0.02516
G1 X122.597 Y82.139 E0.02516
G1 X123.396 Y82.069 E0.02516
G1 X124.198 Y82.027 E0.02516
G1 X124.995 Y82.013 E0.02499
G1 X125.802 Y82.027 E0.02532
G1 X126.604 Y82.069 E0.02516
G1 X127.403 Y82.139 E0.02516
G1 X128.199 Y82.237 E0.02516
G1 X128.992 Y82.362 E0.02516
G1 X129.779 Y82.515 E0.02516
G1 X130.561 Y82.696 E0.02516
G1 X131.336 Y82.903 E0.02516
G1 X132.103 Y83.138 E0.02516
G1 X132.862 Y83.399 E0.02516
G1 X133.611 Y83.687 E0.02516
G1 X134.350 Y84.000 E0.02516
G1 X135.077 Y84.339 E0.02516
G1 X135.792 Y84.704 E0.02516
G1 X136.494 Y85.092 E0.02516
G1 X137.181 Y85.506 E0.02516
G1 X137.854 Y85.943 E0.02516
G1 X138.512 Y86.403 E0.02516
G1 X139.152 Y86.886 E0.02516
G1 X139.776 Y87.391 E0.02516
G1 X140.381 Y87.917 E0.02516
G1 X140.968 Y88.464 E0.02516
G1 X141.539 Y89.036 E0.02532
G1 X142.083 Y89.619 E0.02499
G1 X142.609 Y90.224 E0.02516
G1 X143.114 Y90.848 E0.02516
G1 X143.597 Y91.488 E0.02516
G1 X144.057 Y92.146 E0.02516
G1 X144.497 Y92.823 E0.02532
G1 X144.908 Y93.506 E0.02499
G1 X145.296 Y94.208 E0.02516
G1 X145.661 Y94.923 E0.02516
G1 X146.002 Y95.655 E0.02532
G1 X146.313 Y96.389 E0.02499
G1 X146.601 Y97.138 E0.02516
G1 X146.862 Y97.897 E0.02516
G1 X147.097 Y98.664 E0.02516
G1 X147.304 Y99.439 E0.02516
G1 X147.485 Y100.221 E0.02516
G1 X147.639 Y101.014 E0.02532
G1 X147.763 Y101.801 E0.02499
G1 X147.861 Y102.597 E0.02516
G1 X147.931 Y103.396 E0.02516
G1 X147.973 Y104.198 E0.02516
G1 X147.987 Y105.000 E0.02516
G1 X147.973 Y105.808 E0.02532
G1 X147.931 Y106.604 E0.02499
G1 X147.861 Y107.403 E0.02516
G1 X147.763 Y108.199 E0.02516
G1 X147.638 Y108.992 E0.02516
G1 X147.485 Y109.779 E0.02516
G1 X147.304 Y110.561 E0.02516
G1 X147.097 Y111.336 E0.02516
G1 X146.862 Y112.103 E0.02516
G1 X146.601 Y112.862 E0.02516
G1 X146.311 Y113.616 E0.02532
G1 X146.000 Y114.350 E0.02499
G1 X145.661 Y115.077 E0.02516
G1 X145.296 Y115.792 E0.02516
G1 X144.908 Y116.494 E0.02516
G1 X144.494 Y117.181 E0.02516
G1 X144.057 Y117.854 E0.02516
G1 X143.594 Y118.516 E0.02532
G1 X143.114 Y119.152 E0.02499
G1 X142.609 Y119.776 E0.02516
G1 X142.083 Y120.381 E0.02516
G1 X141.536 Y120.968 E0.02516
G1 X140.968 Y121.536 E0.02516
G1 X140.381 Y122.083 E0.02516
G1 X139.776 Y122.609 E0.02516
G1 X139.152 Y123.114 E0.02516
G1 X138.512 Y123.597 E0.02516
G1 X137.854 Y124.057 E0.02516
G1 X137.181 Y124.494 E0.02516
G1 X136.494 Y124.908 E0.02516
G1 X135.792 Y125.296 E0.02516
G1 X135.077 Y125.661 E0.02516
G1 X134.350 Y126.000 E0.02516
G1 X133.611 Y126.313 E0.02516
G1 X132.862 Y126.601 E0.02516
G1 X132.108 Y126.860 E0.02499
G1 X131.336 Y127.097 E0.02532
G1 X130.561 Y127.304 E0.02516
G1 X129.779 Y127.485 E0.02516
G1 X128.992 Y127.638 E0.02516
G1 X128.199 Y127.763 E0.02516
G1 X127.403 Y127.861 E0.02516
G1 X126.604 Y127.931 E0.02516
G1 X125.802 Y127.973 E0.02516
G1 X125.000 Y127.987 E0.02516
G1 X124.198 Y127.973 E0.02516
G1 X123.396 Y127.931 E0.02516
G1 X122.597 Y127.861 E0.02516
G1 X121.801 Y127.763 E0.02516
G1 X121.014 Y127.639 E0.02499
G1 X120.221 Y127.485 E0.02532
G1 X119.439 Y127.304 E0.02516
G1 X118.664 Y127.097 E0.02516
G1 X117.897 Y126.862 E0.02516
G1 X117.138 Y126.601 E0.02516
G1 X116.389 Y126.313 E0.02516
G1 X115.650 Y126.000 E0.02516
G1 X114.923 Y125.661 E0.02516
G1 X114.208 Y125.296 E0.02516
G1 X113.506 Y124.908 E0.02516
G1 X112.819 Y124.494 E0.02516
G1 X112.146 Y124.057 E0.02516
G1 X111.488 Y123.597 E0.02516
G1 X110.848 Y123.114 E0.02516
G1 X110.224 Y122.609 E0.02516
G1 X109.619 Y122.083 E0.02516
G1 X109.036 Y121.539 E0.02499
G1 X108.464 Y120.968 E0.02532
G1 X107.917 Y120.381 E0.02516
G1 X107.391 Y119.776 E0.02516
G1 X106.886 Y119.152 E0.02516
G1 X106.403 Y118.512 E0.02516
G1 X105.943 Y117.854 E0.02516
G1 X105.506 Y117.181 E0.02516
G1 X105.092 Y116.494 E0.02516
G1 X104.704 Y115.792 E0.02516
G1 X104.339 Y115.077 E0.02516
G1 X104.000 Y114.350 E0.02516
G1 X103.687 Y113.611 E0.02516
G1 X103.399 Y112.862 E0.02516
G1 X103.138 Y112.103 E0.02516
G1 X102.903 Y111.336 E0.02516
G1 X102.696 Y110.561 E0.02516
G1 X102.515 Y109.779 E0.02516
G1 X102.362 Y108.992 E0.02516
G1 X102.237 Y108.199 E0.02516
G1 X102.138 Y107.398 E0.02532
G1 X102.069 Y106.604 E0.02499
G1 X102.027 Y105.802 E0.02516
G1 X102.013 Y105.000 E0.02516
G1 X102.027 Y104.192 E0.02532
G1 X102.069 Y103.396 E0.02499
G1 X102.139 Y102.597 E0.02516
G1 X102.237 Y101.801 E0.02516
G1 X102.363 Y101.003 E0.02532
G1 X102.515 Y100.221 E0.02499
G1 X102.696 Y99.439 E0.02516
G1 X102.903 Y98.664 E0.02516
G1 X103.140 Y97.892 E0.02532
G1 X103.399 Y97.138 E0.02499
G1 X103.687 Y96.389 E0.02516
G1 X104.000 Y95.650 E0.02516
G1 X104.339 Y94.923 E0.02516
G1 X104.704 Y94.208 E0.02516
G1 X105.093 Y93.506 E0.02516
G1 X105.509 Y92.814 E0.02532
G1 X105.943 Y92.146 E0.02499
G1 X106.403 Y91.488 E0.02516
G1 X106.886 Y90.848 E0.02516
G1 X107.351 Y90.274 E0.02316
G1 X107.644 Y90.511 F7200.000
G1 F3600
G1 X108.198 Y89.871 E0.02654
G1 X108.736 Y89.294 E0.02474
G1 X109.294 Y88.736 E0.02475
G1 X109.871 Y88.198 E0.02474
G1 X110.467 Y87.680 E0.02475
G1 X111.080 Y87.183 E0.02474
G1 X111.710 Y86.708 E0.02475
G1 X112.357 Y86.255 E0.02474
G1 X113.018 Y85.826 E0.02474
G1 X113.695 Y85.419 E0.02475
G1 X114.385 Y85.037 E0.02474
G1 X115.084 Y84.681 E0.02458
G1 X115.804 Y84.345 E0.02491
G1 X116.530 Y84.036 E0.02475
G1 X117.267 Y83.754 E0.02474
G1 X118.013 Y83.497 E0.02475
G1 X118.768 Y83.266 E0.02475
G1 X119.530 Y83.062 E0.02474
G1 X120.299 Y82.884 E0.02474
G1 X121.074 Y82.733 E0.02474
G1 X121.853 Y82.610 E0.02474
G1 X122.637 Y82.514 E0.02474
G1 X123.423 Y82.445 E0.02474
G1 X124.211 Y82.404 E0.02474
G1 X124.995 Y82.390 E0.02458
G1 X125.789 Y82.404 E0.02491
G1 X126.577 Y82.445 E0.02475
G1 X127.363 Y82.514 E0.02474
G1 X128.147 Y82.610 E0.02474
G1 X128.926 Y82.733 E0.02474
G1 X129.701 Y82.884 E0.02474
G1 X130.470 Y83.062 E0.02474
G1 X131.232 Y83.266 E0.02474
G1 X131.987 Y83.497 E0.02475
G1 X132.733 Y83.754 E0.02475
G1 X133.470 Y84.036 E0.02474
G1 X134.196 Y84.345 E0.02474
G1 X134.912 Y84.678 E0.02474
G1 X135.615 Y85.037 E0.02475
G1 X136.305 Y85.419 E0.02474
G1 X136.982 Y85.826 E0.02475
G1 X137.643 Y86.255 E0.02474
G1 X138.290 Y86.708 E0.02474
G1 X138.920 Y87.183 E0.02475
G1 X139.533 Y87.680 E0.02474
G1 X140.129 Y88.198 E0.02475
G1 X140.706 Y88.736 E0.02474
G1 X141.268 Y89.298 E0.02491
G1 X141.802 Y89.871 E0.02458
G1 X142.320 Y90.467 E0.02475
G1 X142.817 Y91.080 E0.02474
G1 X143.292 Y91.710 E0.02475
G1 X143.745 Y92.357 E0.02475
G1 X144.177 Y93.023 E0.02491
G1 X144.581 Y93.695 E0.02458
G1 X144.963 Y94.385 E0.02474
G1 X145.322 Y95.088 E0.02475
G1 X145.657 Y95.808 E0.02491
G1 X145.964 Y96.530 E0.02458
G1 X146.246 Y97.267 E0.02474
G1 X146.503 Y98.013 E0.02475
G1 X146.734 Y98.768 E0.02475
G1 X146.938 Y99.530 E0.02474
G1 X147.116 Y100.299 E0.02475
G1 X147.267 Y101.079 E0.02491
G1 X147.390 Y101.853 E0.02458
G1 X147.486 Y102.637 E0.02474
G1 X147.555 Y103.423 E0.02474
G1 X147.596 Y104.211 E0.02474
G1 X147.610 Y105.000 E0.02475
G1 X147.596 Y105.794 E0.02491
G1 X147.555 Y106.577 E0.02458
G1 X147.486 Y107.363 E0.02474
G1 X147.390 Y108.147 E0.02474
G1 X147.267 Y108.926 E0.02474
G1 X147.116 Y109.701 E0.02474
G1 X146.938 Y110.470 E0.02474
G1 X146.734 Y111.232 E0.02474
G1 X146.503 Y111.987 E0.02475
G1 X146.246 Y112.733 E0.02475
G1 X145.962 Y113.475 E0.02491
G1 X145.655 Y114.196 E0.02458
G1 X145.322 Y114.912 E0.02474
G1 X144.963 Y115.615 E0.02475
G1 X144.581 Y116.305 E0.02474
G1 X144.174 Y116.982 E0.02475
G1 X143.745 Y117.643 E0.02475
G1 X143.289 Y118.294 E0.02491
G1 X142.817 Y118.920 E0.02458
G1 X142.320 Y119.533 E0.02474
G1 X141.802 Y120.129 E0.02475
G1 X141.264 Y120.706 E0.02474
G1 X140.706 Y121.264 E0.02475
G1 X140.129 Y121.802 E0.02474
G1 X139.533 Y122.320 E0.02475
G1 X138.920 Y122.817 E0.02474
G1 X138.290 Y123.292 E0.02475
G1 X137.643 Y123.745 E0.02474
G1 X136.982 Y124.174 E0.02474
G1 X136.305 Y124.581 E0.02475
G1 X135.615 Y124.963 E0.02474
G1 X134.912 Y125.322 E0.02475
G1 X134.196 Y125.655 E0.02474
G1 X133.470 Y125.964 E0.02474
G1 X132.733 Y126.246 E0.02474
G1 X131.992 Y126.502 E0.02458
G1 X131.232 Y126.734 E0.02491
G1 X130.470 Y126.938 E0.02475
G1 X129.701 Y127.116 E0.02474
G1 X128.926 Y127.267 E0.02474
G1 X128.147 Y127.390 E0.02474
G1 X127.363 Y127.486 E0.02474
G1 X126.577 Y127.555 E0.02474
G1 X125.789 Y127.596 E0.02474
G1 X125.000 Y127.610 E0.02474
G1 X124.211 Y127.596 E0.02474
G1 X123.423 Y127.555 E0.02474
G1 X122.637 Y127.486 E0.02474
G1 X121.853 Y127.390 E0.02474
G1 X121.079 Y127.267 E0.02458
G1 X120.299 Y127.116 E0.02491
G1 X119.530 Y126.938 E0.02475
G1 X118.768 Y126.734 E0.02474
G1 X118.013 Y126.503 E0.02475
G1 X117.267 Y126.246 E0.02475
G1 X116.530 Y125.964 E0.02474
G1 X115.804 Y125.655 E0.02474
G1 X115.088 Y125.322 E0.02474
G1 X114.385 Y124.963 E0.02475
G1 X113.695 Y124.581 E0.02474
G1 X113.018 Y124.174 E0.02475
G1 X112.357 Y123.745 E0.02474
G1 X111.710 Y123.292 E0.02474
G1 X111.080 Y122.817 E0.02475
G1 X110.467 Y122.320 E0.02474
G1 X109.871 Y121.802 E0.02475
G1 X109.298 Y121.268 E0.02458
G1 X108.736 Y120.706 E0.02491
G1 X108.198 Y120.129 E0.02474
G1 X107.680 Y119.533 E0.02475
G1 X107.183 Y118.920 E0.02474
G1 X106.708 Y118.290 E0.02475
G1 X106.255 Y117.643 E0.02474
G1 X105.826 Y116.982 E0.02474
G1 X105.419 Y116.305 E0.02475
G1 X105.037 Y115.615 E0.02474
G1 X104.678 Y114.912 E0.02475
G1 X104.345 Y114.196 E0.02474
G1 X104.036 Y113.470 E0.02474
G1 X103.754 Y112.733 E0.02474
G1 X103.497 Y111.987 E0.02475
G1 X103.266 Y111.232 E0.02475
G1 X103.062 Y110.470 E0.02474
G1 X102.884 Y109.701 E0.02474
G1 X102.733 Y108.926 E0.02474
G1 X102.610 Y108.147 E0.02475
G1 X102.513 Y107.358 E0.02491
G1 X102.445 Y106.577 E0.02458
G1 X102.404 Y105.789 E0.02474
G1 X102.390 Y105.000 E0.02475
G1 X102.404 Y104.206 E0.02491
G1 X102.445 Y103.423 E0.02458
G1 X102.514 Y102.637 E0.02474
G1 X102.610 Y101.853 E0.02475
G1 X102.734 Y101.069 E0.02491
G1 X102.884 Y100.299 E0.02458
G1 X103.062 Y99.530 E0.02474
G1 X103.266 Y98.768 E0.02475
G1 X103.498 Y98.008 E0.02491
G1 X103.754 Y97.267 E0.02458
G1 X104.036 Y96.530 E0.02474
G1 X104.345 Y95.804 E0.02474
G1 X104.678 Y95.088 E0.02474
G1 X105.037 Y94.385 E0.02475
G1 X105.419 Y93.695 E0.02474
G1 X105.828 Y93.014 E0.02491
G1 X106.255 Y92.357 E0.02458
G1 X106.708 Y91.710 E0.02474
G1 X107.183 Y91.080 E0.02475
G1 X107.606 Y90.558 E0.02107
G1 X107.506 Y90.135 F7200.000
G1 F5760
G1 X108.198 Y89.871 E-0.31391
G1 F5760
G1 X108.736 Y89.294 E-0.27333
G1 F5760
G1 X109.088 Y88.941 E-0.17277
G1 E-0.04000 F2100.00000
G1 X106.671 Y89.801 F7200.000
G1 E0.80000 F2100.00000
G1 F3600
G1 X107.304 Y89.066 E0.03039
G1 X107.870 Y88.458 E0.02606
G1 X108.454 Y87.874 E0.02588
G1 X109.066 Y87.304 E0.02624
G1 X109.693 Y86.758 E0.02606
G1 X110.339 Y86.235 E0.02606
G1 X111.003 Y85.735 E0.02606
G1 X111.684 Y85.258 E0.02606
G1 X112.381 Y84.806 E0.02606
G1 X113.094 Y84.378 E0.02606
G1 X113.821 Y83.975 E0.02606
G1 X114.561 Y83.597 E0.02606
G1 X115.314 Y83.246 E0.02606
G1 X116.080 Y82.921 E0.02606
G1 X116.856 Y82.623 E0.02606
G1 X117.641 Y82.353 E0.02606
G1 X118.436 Y82.110 E0.02606
G1 X119.239 Y81.895 E0.02606
G1 X120.049 Y81.708 E0.02606
G1 X120.865 Y81.549 E0.02606
G1 X121.686 Y81.419 E0.02606
G1 X122.511 Y81.318 E0.02606
G1 X123.339 Y81.245 E0.02606
G1 X124.169 Y81.202 E0.02606
G1 X125.006 Y81.187 E0.02624
G1 X125.831 Y81.202 E0.02589
G1 X126.661 Y81.245 E0.02606
G1 X127.489 Y81.318 E0.02606
G1 X128.314 Y81.419 E0.02606
G1 X129.135 Y81.549 E0.02606
G1 X129.951 Y81.708 E0.02606
G1 X130.761 Y81.895 E0.02606
G1 X131.564 Y82.110 E0.02606
G1 X132.359 Y82.353 E0.02606
G1 X133.144 Y82.623 E0.02606
G1 X133.920 Y82.921 E0.02606
G1 X134.685 Y83.246 E0.02606
G1 X135.444 Y83.600 E0.02624
G1 X136.179 Y83.975 E0.02588
G1 X136.906 Y84.378 E0.02606
G1 X137.619 Y84.806 E0.02606
G1 X138.316 Y85.258 E0.02606
G1 X138.997 Y85.735 E0.02606
G1 X139.661 Y86.235 E0.02606
G1 X140.307 Y86.758 E0.02606
G1 X140.934 Y87.304 E0.02606
G1 X141.542 Y87.870 E0.02606
G1 X142.130 Y88.458 E0.02606
G1 X142.696 Y89.066 E0.02606
G1 X143.238 Y89.689 E0.02589
G1 X143.765 Y90.339 E0.02624
G1 X144.265 Y91.003 E0.02606
G1 X144.742 Y91.684 E0.02606
G1 X145.191 Y92.376 E0.02589
G1 X145.623 Y93.094 E0.02624
G1 X146.025 Y93.821 E0.02606
G1 X146.403 Y94.561 E0.02606
G1 X146.754 Y95.314 E0.02606
G1 X147.079 Y96.080 E0.02606
G1 X147.377 Y96.856 E0.02606
G1 X147.647 Y97.641 E0.02606
G1 X147.890 Y98.436 E0.02606
G1 X148.105 Y99.239 E0.02606
G1 X148.292 Y100.049 E0.02606
G1 X148.451 Y100.865 E0.02606
G1 X148.581 Y101.686 E0.02606
G1 X148.682 Y102.511 E0.02606
G1 X148.755 Y103.339 E0.02606
G1 X148.798 Y104.169 E0.02606
