; generated by Slic3r 1.37.2-prusa3d-win64 on 2018-01-02 at 20:26:49

; 

; external perimeters extrusion width = 0.60mm
; perimeters extrusion width = 0.43mm
; infill extrusion width = 0.70mm
; solid infill extrusion width = 0.70mm
; top infill extrusion width = 0.43mm
; first layer extrusion width = 0.42mm

M107
M115 U3.1.0 ; tell printer latest fw version
M83  ; extruder relative mode
M104 S150
M140 S65 ; set bed temp
G28 W ; home all without mesh bed level
G1 X125 Z80 F1000
M190 S65 ; wait for bed temp
M104 S220 ; set extruder temp
G80 ; mesh bed leveling
M109 S220 ; wait for extruder temp
G1 Y-3.0 F1000.0 ; go outside print area
G92 E0.0
G1 X60.0 E9.0  F1000.0 ; intro line
G1 X100.0 E12.5  F1000.0 ; intro line
G92 E0.0
M900 K30 ; Filament gcode
G21 ; set units to millimeters
G90 ; use absolute coordinates
M83 ; use relative distances for extrusion
;BEFORE_LAYER_CHANGE
;0.2


G1 E-0.80000 F2100.00000
G1 Z0.200 F7200.000
;AFTER_LAYER_CHANGE
;0.2
G1 X117.690 Y73.500 F7200.000
G1 E0.80000 F2100.00000
M204 S1000
G1 F3600
G1 X118.195 Y72.920 E0.02409
G1 X118.839 Y72.502 E0.02409
G1 X119.579 Y72.278 E0.02422
G1 X130.004 Y72.246 E0.32688
G1 X131.005 Y72.436 E0.03195
G1 X131.872 Y72.980 E0.03208
G1 X132.478 Y73.799 E0.03195
G1 X132.746 Y74.786 E0.03208
G1 X132.754 Y105.008 E0.94759
G1 X132.634 Y105.804 E0.02523
G1 X132.303 Y106.511 E0.02447
G1 X131.787 Y107.096 E0.02447
G1 X131.127 Y107.513 E0.02447
G1 X130.373 Y107.729 E0.02460
G1 X119.975 Y107.754 E0.32600
G1 X119.196 Y107.634 E0.02473
G1 X118.445 Y107.273 E0.02612
G1 X117.834 Y106.701 E0.02625
G1 X117.423 Y105.972 E0.02625
G1 X117.250 Y105.152 E0.02625
G1 X117.246 Y74.992 E0.94566
G1 X117.366 Y74.196 E0.02523
G1 X117.665 Y73.554 E0.02221
G1 X118.005 Y73.715 F7200.000
G1 F3600
G1 X118.464 Y73.185 E0.02198
G1 X119.034 Y72.828 E0.02107
G1 X119.680 Y72.645 E0.02107
G1 X130.004 Y72.623 E0.32370
G1 X130.874 Y72.789 E0.02778
G1 X131.623 Y73.263 E0.02778
G1 X132.146 Y73.978 E0.02778
G1 X132.372 Y74.839 E0.02790
G1 X132.377 Y105.008 E0.94591
G1 X132.271 Y105.702 E0.02201
G1 X131.980 Y106.316 E0.02130
G1 X131.524 Y106.824 E0.02142
G1 X130.945 Y107.181 E0.02130
G1 X130.286 Y107.360 E0.02142
G1 X119.981 Y107.377 E0.32311
G1 X119.298 Y107.271 E0.02166
G1 X118.647 Y106.954 E0.02272
G1 X118.121 Y106.456 E0.02272
G1 X117.769 Y105.822 E0.02272
G1 X117.626 Y105.111 E0.02272
G1 X117.623 Y74.992 E0.94436
G1 X117.729 Y74.298 E0.02201
G1 X117.979 Y73.769 E0.01836
G1 F5760
G1 X118.464 Y73.185 E-0.26283
G1 F5760
G1 X119.034 Y72.828 E-0.23273
G1 F5760
G1 X119.680 Y72.645 E-0.23273
G1 F5760
G1 X119.771 Y72.644 E-0.03171
G1 E-0.04000 F2100.00000
G1 X120.587 Y75.587 F7200.000
G1 E0.80000 F2100.00000
G1 F3600
G1 X129.413 Y75.587 E0.27673
G1 X129.413 Y104.413 E0.90381
G1 X120.587 Y104.413 E0.27673
G1 X120.587 Y75.647 E0.90193
G1 X120.210 Y75.210 F7200.000
G1 F3600
G1 X129.790 Y75.210 E0.30037
G1 X129.790 Y104.790 E0.92746
G1 X120.210 Y104.790 E0.30037
G1 X120.210 Y75.270 E0.92558
G1 X120.575 Y75.373 F7200.000
G1 F5760
G1 X122.404 Y75.256 E-0.76000
G1 E-0.04000 F2100.00000
G1 X129.300 Y76.473 F7200.000
G1 E0.80000 F2100.00000
G1 F3600
G1 X128.697 Y75.870 E0.02709
G1 X128.157 Y75.870 E0.01716
G1 X129.130 Y76.843 E0.04373
G1 X129.130 Y77.384 E0.01716
G1 X127.616 Y75.870 E0.06800
G1 X127.076 Y75.870 E0.01716
G1 X129.130 Y77.924 E0.09226
G1 X129.130 Y78.464 E0.01716
G1 X126.536 Y75.870 E0.11653
G1 X125.996 Y75.870 E0.01716
G1 X129.130 Y79.004 E0.14079
G1 X129.130 Y79.544 E0.01716
G1 X125.456 Y75.870 E0.16506
G1 X124.915 Y75.870 E0.01716
G1 X129.130 Y80.085 E0.18932
G1 X129.130 Y80.625 E0.01716
G1 X124.375 Y75.870 E0.21359
G1 X123.835 Y75.870 E0.01716
G1 X129.130 Y81.165 E0.23786
G1 X129.130 Y81.705 E0.01716
G1 X123.295 Y75.870 E0.26212
G1 X122.754 Y75.870 E0.01716
G1 X129.130 Y82.246 E0.28639
G1 X129.130 Y82.786 E0.01716
G1 X122.214 Y75.870 E0.31065
G1 X121.674 Y75.870 E0.01716
G1 X129.130 Y83.326 E0.33492
G1 X129.130 Y83.866 E0.01716
G1 X121.134 Y75.870 E0.35918
G1 X120.870 Y75.870 E0.00838
G1 X120.870 Y76.146 E0.00877
G1 X129.130 Y84.406 E0.37104
G1 X129.130 Y84.947 E0.01716
G1 X120.870 Y76.686 E0.37104
G1 X120.870 Y77.227 E0.01716
G1 X129.130 Y85.487 E0.37104
G1 X129.130 Y86.027 E0.01716
G1 X120.870 Y77.767 E0.37104
G1 X120.870 Y78.307 E0.01716
G1 X129.130 Y86.567 E0.37104
G1 X129.130 Y87.107 E0.01716
G1 X120.870 Y78.847 E0.37104
G1 X120.870 Y79.387 E0.01716
G1 X129.130 Y87.648 E0.37104
G1 X129.130 Y88.188 E0.01716
G1 X120.870 Y79.928 E0.37104
G1 X120.870 Y80.468 E0.01716
G1 X129.130 Y88.728 E0.37104
G1 X129.130 Y89.268 E0.01716
G1 X120.870 Y81.008 E0.37104
G1 X120.870 Y81.548 E0.01716
G1 X129.130 Y89.808 E0.37104
G1 X129.130 Y90.349 E0.01716
G1 X120.870 Y82.088 E0.37104
G1 X120.870 Y82.629 E0.01716
G1 X129.130 Y90.889 E0.37104
G1 X129.130 Y91.429 E0.01716
G1 X120.870 Y83.169 E0.37104
G1 X120.870 Y83.709 E0.01716
G1 X129.130 Y91.969 E0.37104
G1 X129.130 Y92.510 E0.01716
G1 X120.870 Y84.249 E0.37104
G1 X120.870 Y84.790 E0.01716
G1 X129.130 Y93.050 E0.37104
G1 X129.130 Y93.590 E0.01716
G1 X120.870 Y85.330 E0.37104
G1 X120.870 Y85.870 E0.01716
G1 X129.130 Y94.130 E0.37104
G1 X129.130 Y94.670 E0.01716
G1 X120.870 Y86.410 E0.37104
G1 X120.870 Y86.950 E0.01716
G1 X129.130 Y95.211 E0.37104
G1 X129.130 Y95.751 E0.01716
G1 X120.870 Y87.491 E0.37104
G1 X120.870 Y88.031 E0.01716
G1 X129.130 Y96.291 E0.37104
G1 X129.130 Y96.831 E0.01716
G1 X120.870 Y88.571 E0.37104
G1 X120.870 Y89.111 E0.01716
G1 X129.130 Y97.371 E0.37104
G1 X129.130 Y97.912 E0.01716
G1 X120.870 Y89.651 E0.37104
G1 X120.870 Y90.192 E0.01716
G1 X129.130 Y98.452 E0.37104
G1 X129.130 Y98.992 E0.01716
G1 X120.870 Y90.732 E0.37104
G1 X120.870 Y91.272 E0.01716
G1 X129.130 Y99.532 E0.37104
G1 X129.130 Y100.073 E0.01716
G1 X120.870 Y91.812 E0.37104
G1 X120.870 Y92.352 E0.01716
G1 X129.130 Y100.613 E0.37104
G1 X129.130 Y101.153 E0.01716
G1 X120.870 Y92.893 E0.37104
G1 X120.870 Y93.433 E0.01716
G1 X129.130 Y101.693 E0.37104
G1 X129.130 Y102.233 E0.01716
G1 X120.870 Y93.973 E0.37104
G1 X120.870 Y94.513 E0.01716
G1 X129.130 Y102.774 E0.37104
G1 X129.130 Y103.314 E0.01716
G1 X120.870 Y95.054 E0.37104
G1 X120.870 Y95.594 E0.01716
G1 X129.130 Y103.854 E0.37104
G1 X129.130 Y104.130 E0.00877
G1 X128.866 Y104.130 E0.00839
G1 X120.870 Y96.134 E0.35918
G1 X120.870 Y96.674 E0.01716
G1 X128.326 Y104.130 E0.33491
G1 X127.786 Y104.130 E0.01716
G1 X120.870 Y97.214 E0.31065
G1 X120.870 Y97.755 E0.01716
G1 X127.245 Y104.130 E0.28638
G1 X126.705 Y104.130 E0.01716
G1 X120.870 Y98.295 E0.26212
G1 X120.870 Y98.835 E0.01716
G1 X126.165 Y104.130 E0.23785
G1 X125.625 Y104.130 E0.01716
G1 X120.870 Y99.375 E0.21358
G1 X120.870 Y99.915 E0.01716
G1 X125.085 Y104.130 E0.18932
G1 X124.544 Y104.130 E0.01716
G1 X120.870 Y100.456 E0.16505
G1 X120.870 Y100.996 E0.01716
G1 X124.004 Y104.130 E0.14079
G1 X123.464 Y104.130 E0.01716
G1 X120.870 Y101.536 E0.11652
G1 X120.870 Y102.076 E0.01716
G1 X122.924 Y104.130 E0.09226
G1 X122.383 Y104.130 E0.01716
G1 X120.870 Y102.617 E0.06799
G1 X120.870 Y103.157 E0.01716
G1 X121.843 Y104.130 E0.04372
G1 X121.303 Y104.130 E0.01716
G1 X120.700 Y103.527 E0.02708
M106 S252.45
;BEFORE_LAYER_CHANGE
;0.55


G1 F5760
G1 X121.303 Y104.130 E-0.29530
G1 F5760
G1 X121.843 Y104.130 E-0.18711
G1 F5760
G1 X121.277 Y103.563 E-0.27759
G1 E-0.04000 F2100.00000
G1 Z0.550 F7200.000
;AFTER_LAYER_CHANGE
;0.55
M104 S215 ; set temperature
M140 S55 ; set bed temperature
G1 X117.423 Y105.972 F7200.000
G1 E0.80000 F2100.00000
G1 F3000
G1 X117.250 Y105.152 E0.04202
G1 X117.246 Y74.992 E1.51363
G1 X117.366 Y74.196 E0.04039
G1 X117.690 Y73.500 E0.03856
G1 X118.195 Y72.920 E0.03856
G1 X118.839 Y72.502 E0.03856
G1 X119.579 Y72.278 E0.03876
G1 X130.004 Y72.246 E0.52321
G1 X131.005 Y72.436 E0.05114
G1 X131.872 Y72.980 E0.05135
G1 X132.478 Y73.799 E0.05114
G1 X132.746 Y74.786 E0.05135
G1 X132.754 Y105.008 E1.51671
G1 X132.634 Y105.804 E0.04039
G1 X132.303 Y106.511 E0.03917
G1 X131.787 Y107.096 E0.03917
G1 X131.127 Y107.513 E0.03917
G1 X130.373 Y107.729 E0.03937
G1 X119.975 Y107.754 E0.52180
G1 X119.196 Y107.634 E0.03958
G1 X118.445 Y107.273 E0.04181
G1 X117.834 Y106.701 E0.04202
G1 X117.452 Y106.024 E0.03901
G1 F5760
G1 X117.250 Y105.152 E-0.30987
G1 F5760
G1 X117.250 Y103.853 E-0.45013
G1 E-0.04000 F2100.00000
G1 X120.740 Y104.260 F7200.000
G1 E0.80000 F2100.00000
M204 S800
G1 F4200
G1 X120.740 Y75.740 E1.47281
G1 X129.260 Y75.740 E0.43999
G1 X129.260 Y104.260 E1.47281
G1 X120.800 Y104.260 E0.43689
M204 S1000
G1 X120.300 Y104.700 F7200.000
M204 S800
G1 F3000
G1 X120.300 Y75.300 E2.24552
G1 X129.700 Y75.300 E0.71796
G1 X129.700 Y104.700 E2.24552
G1 X120.360 Y104.700 E0.71337
M204 S1000
G1 X120.341 Y104.302 F7200.000
G1 F5760
G1 X120.356 Y102.506 E-0.76000
G1 E-0.04000 F2100.00000
G1 X127.889 Y104.174 F7200.000
G1 E0.80000 F2100.00000
M204 S2000
G1 F4049.33
G1 X128.893 Y103.170 E0.13113
G1 X128.893 Y102.272 E0.08299
G1 X127.272 Y103.893 E0.21175
G1 X126.374 Y103.893 E0.08299
G1 X128.893 Y101.374 E0.32910
G1 X128.893 Y100.476 E0.08299
G1 X125.476 Y103.893 E0.44646
G1 X124.578 Y103.893 E0.08299
G1 X128.893 Y99.578 E0.56382
G1 X128.893 Y98.680 E0.08299
G1 X123.680 Y103.893 E0.68118
G1 X122.782 Y103.893 E0.08299
G1 X128.893 Y97.782 E0.79854
G1 X128.893 Y96.884 E0.08299
G1 X121.884 Y103.893 E0.91590
G1 X121.107 Y103.893 E0.07177
G1 X121.107 Y103.771 E0.01121
G1 X128.893 Y95.986 E1.01740
G1 X128.893 Y95.088 E0.08299
G1 X121.107 Y102.873 E1.01740
G1 X121.107 Y101.975 E0.08299
G1 X128.893 Y94.190 E1.01740
G1 X128.893 Y93.292 E0.08299
G1 X121.107 Y101.077 E1.01740
G1 X121.107 Y100.179 E0.08299
G1 X128.893 Y92.394 E1.01740
G1 X128.893 Y91.496 E0.08299
G1 X121.107 Y99.281 E1.01740
G1 X121.107 Y98.383 E0.08299
G1 X128.893 Y90.598 E1.01740
G1 X128.893 Y89.699 E0.08299
G1 X121.107 Y97.485 E1.01740
G1 X121.107 Y96.587 E0.08299
G1 X128.893 Y88.801 E1.01740
G1 X128.893 Y87.903 E0.08299
G1 X121.107 Y95.689 E1.01740
G1 X121.107 Y94.791 E0.08299
G1 X128.893 Y87.005 E1.01740
G1 X128.893 Y86.107 E0.08299
G1 X121.107 Y93.893 E1.01740
G1 X121.107 Y92.995 E0.08299
G1 X128.893 Y85.209 E1.01740
G1 X128.893 Y84.311 E0.08299
G1 X121.107 Y92.097 E1.01740
G1 X121.107 Y91.198 E0.08299
G1 X128.893 Y83.413 E1.01740
G1 X128.893 Y82.515 E0.08299
G1 X121.107 Y90.300 E1.01740
G1 X121.107 Y89.402 E0.08299
G1 X128.893 Y81.617 E1.01740
G1 X128.893 Y80.719 E0.08299
G1 X121.107 Y88.504 E1.01740
G1 X121.107 Y87.606 E0.08299
G1 X128.893 Y79.821 E1.01740
G1 X128.893 Y78.923 E0.08299
G1 X121.107 Y86.708 E1.01740
G1 X121.107 Y85.810 E0.08298
G1 X128.893 Y78.025 E1.01740
G1 X128.893 Y77.127 E0.08299
G1 X121.107 Y84.912 E1.01740
G1 X121.107 Y84.014 E0.08299
G1 X128.893 Y76.229 E1.01740
G1 X128.893 Y76.107 E0.01121
G1 X128.116 Y76.107 E0.07178
G1 X121.107 Y83.116 E0.91588
G1 X121.107 Y82.218 E0.08299
G1 X127.218 Y76.107 E0.79853
G1 X126.320 Y76.107 E0.08299
G1 X121.107 Y81.320 E0.68117
G1 X121.107 Y80.422 E0.08299
G1 X125.422 Y76.107 E0.56381
G1 X124.524 Y76.107 E0.08299
G1 X121.107 Y79.524 E0.44645
G1 X121.107 Y78.626 E0.08299
G1 X123.626 Y76.107 E0.32909
G1 X122.728 Y76.107 E0.08299
G1 X121.107 Y77.728 E0.21173
G1 X121.107 Y76.829 E0.08299
G1 X122.111 Y75.826 E0.13112
M204 S1000
;BEFORE_LAYER_CHANGE
;0.9


G1 F5760
G1 X121.107 Y76.829 E-0.49147
G1 F5760
G1 X121.107 Y77.605 E-0.26853
G1 E-0.04000 F2100.00000
G1 Z0.900 F7200.000
;AFTER_LAYER_CHANGE
;0.9
G1 X131.005 Y72.436 F7200.000
G1 E0.80000 F2100.00000
G1 F3000
G1 X131.872 Y72.980 E0.05135
G1 X132.478 Y73.799 E0.05114
G1 X132.746 Y74.786 E0.05135
G1 X132.754 Y105.008 E1.51671
G1 X132.634 Y105.804 E0.04039
G1 X132.303 Y106.511 E0.03917
G1 X131.787 Y107.096 E0.03917
G1 X131.127 Y107.513 E0.03917
G1 X130.373 Y107.729 E0.03937
G1 X119.975 Y107.754 E0.52180
G1 X119.196 Y107.634 E0.03958
G1 X118.445 Y107.273 E0.04181
G1 X117.834 Y106.701 E0.04202
G1 X117.423 Y105.972 E0.04202
G1 X117.250 Y105.152 E0.04202
G1 X117.246 Y74.992 E1.51363
G1 X117.366 Y74.196 E0.04039
G1 X117.690 Y73.500 E0.03856
G1 X118.195 Y72.920 E0.03856
G1 X118.839 Y72.502 E0.03856
G1 X119.579 Y72.278 E0.03876
G1 X130.004 Y72.246 E0.52321
G1 X130.946 Y72.425 E0.04813
G1 F5760
G1 X131.872 Y72.980 E-0.37379
G1 F5760
G1 X132.478 Y73.799 E-0.35297
G1 F5760
G1 X132.503 Y73.891 E-0.03324
G1 E-0.04000 F2100.00000
G1 X129.260 Y75.740 F7200.000
G1 E0.80000 F2100.00000
M204 S800
G1 F4200
G1 X129.260 Y104.260 E1.47281
G1 X120.740 Y104.260 E0.43999
G1 X120.740 Y75.740 E1.47281
G1 X129.200 Y75.740 E0.43689
M204 S1000
G1 X129.700 Y75.300 F7200.000
M204 S800
G1 F3000
G1 X129.700 Y104.700 E2.24552
G1 X120.300 Y104.700 E0.71796
G1 X120.300 Y75.300 E2.24552
G1 X129.640 Y75.300 E0.71337
M204 S1000
G1 X129.659 Y75.698 F7200.000
G1 F5760
G1 X129.644 Y77.494 E-0.76000
G1 E-0.04000 F2100.00000
G1 X129.174 Y77.111 F7200.000
G1 E0.80000 F2100.00000
M204 S2000
G1 F4049.33
G1 X128.170 Y76.107 E0.13113
G1 X127.272 Y76.107 E0.08299
G1 X128.893 Y77.728 E0.21175
G1 X128.893 Y78.626 E0.08299
G1 X126.374 Y76.107 E0.32910
G1 X125.476 Y76.107 E0.08299
G1 X128.893 Y79.524 E0.44646
G1 X128.893 Y80.422 E0.08299
G1 X124.578 Y76.107 E0.56382
G1 X123.680 Y76.107 E0.08299
G1 X128.893 Y81.320 E0.68118
G1 X128.893 Y82.218 E0.08299
G1 X122.782 Y76.107 E0.79854
G1 X121.884 Y76.107 E0.08299
G1 X128.893 Y83.116 E0.91590
G1 X128.893 Y84.014 E0.08299
G1 X121.107 Y76.229 E1.01740
G1 X121.107 Y77.127 E0.08299
G1 X128.893 Y84.912 E1.01740
G1 X128.893 Y85.810 E0.08299
G1 X121.107 Y78.025 E1.01740
G1 X121.107 Y78.923 E0.08299
G1 X128.893 Y86.708 E1.01740
G1 X128.893 Y87.606 E0.08299
G1 X121.107 Y79.821 E1.01740
G1 X121.107 Y80.719 E0.08299
G1 X128.893 Y88.504 E1.01740
G1 X128.893 Y89.402 E0.08299
G1 X121.107 Y81.617 E1.01740
G1 X121.107 Y82.515 E0.08299
G1 X128.893 Y90.301 E1.01740
G1 X128.893 Y91.199 E0.08299
G1 X121.107 Y83.413 E1.01740
G1 X121.107 Y84.311 E0.08299
G1 X128.893 Y92.097 E1.01740
G1 X128.893 Y92.995 E0.08299
G1 X121.107 Y85.209 E1.01740
G1 X121.107 Y86.107 E0.08299
G1 X128.893 Y93.893 E1.01740
G1 X128.893 Y94.791 E0.08299
G1 X121.107 Y87.005 E1.01740
G1 X121.107 Y87.903 E0.08299
G1 X128.893 Y95.689 E1.01740
G1 X128.893 Y96.587 E0.08299
G1 X121.107 Y88.802 E1.01740
G1 X121.107 Y89.700 E0.08299
G1 X128.893 Y97.485 E1.01740
G1 X128.893 Y98.383 E0.08299
G1 X121.107 Y90.598 E1.01740
G1 X121.107 Y91.496 E0.08299
G1 X128.893 Y99.281 E1.01740
G1 X128.893 Y100.179 E0.08299
G1 X121.107 Y92.394 E1.01740
G1 X121.107 Y93.292 E0.08299
G1 X128.893 Y101.077 E1.01740
G1 X128.893 Y101.975 E0.08299
G1 X121.107 Y94.190 E1.01740
G1 X121.107 Y95.088 E0.08299
G1 X128.893 Y102.873 E1.01740
G1 X128.893 Y103.771 E0.08299
G1 X121.107 Y95.986 E1.01740
G1 X121.107 Y96.884 E0.08299
G1 X128.116 Y103.893 E0.91588
G1 X127.218 Y103.893 E0.08299
G1 X121.107 Y97.782 E0.79853
G1 X121.107 Y98.680 E0.08299
G1 X126.320 Y103.893 E0.68117
G1 X125.422 Y103.893 E0.08299
G1 X121.107 Y99.578 E0.56381
G1 X121.107 Y100.476 E0.08299
G1 X124.524 Y103.893 E0.44645
G1 X123.626 Y103.893 E0.08299
G1 X121.107 Y101.374 E0.32909
G1 X121.107 Y102.272 E0.08299
G1 X122.728 Y103.893 E0.21173
G1 X121.829 Y103.893 E0.08299
G1 X120.826 Y102.889 E0.13112
M204 S1000
;BEFORE_LAYER_CHANGE
;1.25


G1 F5760
G1 X121.829 Y103.893 E-0.49147
G1 F5760
G1 X122.605 Y103.893 E-0.26853
G1 E-0.04000 F2100.00000
G1 Z1.250 F7200.000
;AFTER_LAYER_CHANGE
;1.25
G1 Z1.750 F7200.000
G1 X120.740 Y104.260 F7200.000
G1 Z1.250 F7200.000
G1 E0.80000 F2100.00000
M204 S800
G1 F2284
G1 X120.740 Y75.740 E1.47281
G1 X129.260 Y75.740 E0.43999
G1 X129.260 Y104.260 E1.47281
G1 X120.800 Y104.260 E0.43689
M204 S1000
G1 X120.300 Y104.700 F7200.000
M204 S800
G1 F3000
G1 X120.300 Y75.300 E2.24552
G1 X129.700 Y75.300 E0.71796
G1 X129.700 Y104.700 E2.24552
G1 X120.360 Y104.700 E0.71337
M204 S1000
G1 X120.341 Y104.302 F7200.000
G1 F5760
G1 X120.356 Y102.506 E-0.76000
G1 E-0.04000 F2100.00000
G1 Z1.750 F7200.000
G1 X120.826 Y101.737 F7200.000
G1 Z1.250 F7200.000
G1 E0.80000 F2100.00000
M204 S2000
G1 F2238
G1 X128.893 Y99.576 E0.75937
G1 X128.893 Y94.724 E0.44119
G1 X121.107 Y96.810 E0.73290
G1 X121.107 Y91.958 E0.44119
G1 X128.893 Y89.872 E0.73290
G1 X128.893 Y85.020 E0.44119
G1 X121.107 Y87.106 E0.73290
G1 X121.107 Y82.254 E0.44119
