; generated by Slic3r 1.37.2-prusa3d-win64 on 2017-12-17 at 20:43:04

; 

; external perimeters extrusion width = 0.45mm
; perimeters extrusion width = 0.45mm
; infill extrusion width = 0.45mm
; solid infill extrusion width = 0.45mm
; top infill extrusion width = 0.40mm
; first layer extrusion width = 0.42mm

M107
M115 U3.1.0 ; tell printer latest fw version
M83  ; extruder relative mode
M104 S150
M140 S100 ; set bed temp
G28 W ; home all without mesh bed level
G1 X125 Z80 F1000
M190 S100 ; wait for bed temp
M104 S280 ; set extruder temp
G80 ; mesh bed leveling
M109 S280 ; wait for extruder temp
G1 Y-3.0 F1000.0 ; go outside print area
G92 E0.0
G1 X60.0 E9.0  F1000.0 ; intro line
G1 X100.0 E12.5  F1000.0 ; intro line
G92 E0.0
M900 K30 ; Filament gcode
G21 ; set units to millimeters
G90 ; use absolute coordinates
M83 ; use relative distances for extrusion
;BEFORE_LAYER_CHANGE
;0.2


G1 E-0.80000 F2100.00000
G1 Z0.200 F7200.000
;AFTER_LAYER_CHANGE
;0.2
G1 X114.928 Y72.074 F7200.000
G1 E0.80000 F2100.00000
M204 S1000
G1 F1800
G1 X115.656 Y71.407 E0.03098
G1 X124.689 Y66.181 E0.32719
G1 X125.639 Y65.847 E0.03157
G1 X126.685 Y65.770 E0.03290
G1 X127.628 Y65.891 E0.02979
G1 X128.513 Y66.247 E0.02994
G1 X145.031 Y75.784 E0.59801
G1 X145.957 Y76.556 E0.03781
G1 X146.701 Y77.755 E0.04424
G1 X146.901 Y78.338 E0.01934
G1 X147.003 Y78.947 E0.01934
G1 X147.016 Y89.214 E0.32194
G1 X146.895 Y90.128 E0.02889
G1 X146.552 Y90.989 E0.02904
G1 X145.950 Y91.894 E0.03411
G1 X145.172 Y92.570 E0.03232
G1 X128.457 Y102.225 E0.60521
G1 X127.463 Y102.589 E0.03321
G1 X126.364 Y102.672 E0.03454
G1 X125.488 Y102.560 E0.02770
G1 X124.658 Y102.244 E0.02785
G1 X115.847 Y97.160 E0.31895
G1 X114.930 Y96.370 E0.03796
G1 X114.236 Y95.240 E0.04157
G1 X113.999 Y94.523 E0.02367
G1 X113.911 Y93.773 E0.02367
G1 X113.911 Y74.695 E0.59816
G1 X114.026 Y73.805 E0.02815
G1 X114.350 Y72.968 E0.02815
G1 X114.895 Y72.124 E0.03149
G1 X115.210 Y72.328 F7200.000
G1 F1800
G1 X115.890 Y71.704 E0.02894
G1 X124.853 Y66.521 E0.32463
G1 X125.724 Y66.215 E0.02895
G1 X126.685 Y66.147 E0.03022
G1 X127.534 Y66.256 E0.02683
G1 X128.332 Y66.578 E0.02697
G1 X144.837 Y76.107 E0.59756
G1 X145.673 Y76.805 E0.03416
G1 X146.358 Y77.912 E0.04084
G1 X146.629 Y79.000 E0.03514
G1 X146.639 Y89.208 E0.32008
G1 X146.529 Y90.039 E0.02627
G1 X146.219 Y90.812 E0.02613
G1 X145.666 Y91.646 E0.03136
G1 X144.954 Y92.262 E0.02951
G1 X128.286 Y101.889 E0.60354
G1 X127.381 Y102.221 E0.03022
G1 X126.370 Y102.295 E0.03178
G1 X125.571 Y102.192 E0.02528
G1 X124.818 Y101.903 E0.02528
G1 X116.044 Y96.838 E0.31766
G1 X115.210 Y96.116 E0.03458
G1 X114.572 Y95.069 E0.03844
G1 X114.365 Y94.431 E0.02103
G1 X114.288 Y93.760 E0.02117
G1 X114.288 Y74.702 E0.59756
G1 X114.392 Y73.898 E0.02542
G1 X114.686 Y73.137 E0.02556
G1 X115.177 Y72.378 E0.02835
G1 F5760
G1 X115.890 Y71.704 E-0.33985
G1 F5760
G1 X116.940 Y71.096 E-0.42015
G1 E-0.04000 F2100.00000
G1 X115.563 Y73.468 F7200.000
G1 E0.80000 F2100.00000
G1 F1800
G1 X115.904 Y72.919 E0.02027
G1 X116.365 Y72.486 E0.01985
G1 X125.387 Y67.277 E0.32664
G1 X126.051 Y67.086 E0.02167
G1 X126.765 Y67.087 E0.02236
G1 X127.413 Y67.280 E0.02121
G1 X144.693 Y77.256 E0.62560
G1 X145.105 Y77.621 E0.01725
G1 X145.518 Y78.275 E0.02428
G1 X145.713 Y79.011 E0.02385
G1 X145.713 Y89.430 E0.32669
G1 X145.568 Y90.046 E0.01984
G1 X145.264 Y90.616 E0.02027
G1 X144.704 Y91.179 E0.02489
G1 X127.408 Y101.165 E0.62620
G1 X126.802 Y101.347 E0.01985
G1 X126.155 Y101.369 E0.02027
G1 X125.388 Y101.165 E0.02489
G1 X116.364 Y95.955 E0.32673
G1 X115.858 Y95.463 E0.02212
G1 X115.504 Y94.838 E0.02252
G1 X115.355 Y94.195 E0.02069
G1 X115.355 Y74.235 E0.62583
G1 X115.547 Y73.526 E0.02301
G1 X115.899 Y73.641 F7200.000
G1 F1800
G1 X116.183 Y73.174 E0.01714
G1 X116.574 Y72.801 E0.01693
G1 X125.556 Y67.615 E0.32521
G1 X126.081 Y67.462 E0.01715
G1 X126.688 Y67.458 E0.01902
G1 X127.245 Y67.618 E0.01818
G1 X144.486 Y77.573 E0.62422
G1 X144.832 Y77.882 E0.01455
G1 X145.183 Y78.449 E0.02090
G1 X145.336 Y79.035 E0.01898
G1 X145.336 Y89.407 E0.32521
G1 X145.208 Y89.931 E0.01693
G1 X144.946 Y90.411 E0.01714
G1 X144.494 Y90.865 E0.02009
G1 X127.239 Y100.827 E0.62469
G1 X126.721 Y100.978 E0.01693
G1 X126.174 Y100.991 E0.01714
G1 X125.555 Y100.826 E0.02009
G1 X116.574 Y95.641 E0.32517
G1 X116.143 Y95.215 E0.01898
G1 X115.848 Y94.680 E0.01917
G1 X115.732 Y94.174 E0.01626
G1 X115.732 Y74.259 E0.62441
G1 X115.883 Y73.699 E0.01821
G1 X116.236 Y73.810 F7200.000
G1 F1800
G1 X116.465 Y73.425 E0.01404
G1 X116.784 Y73.115 E0.01393
G1 X125.724 Y67.954 E0.32367
G1 X126.156 Y67.833 E0.01408
G1 X126.659 Y67.834 E0.01577
G1 X127.076 Y67.956 E0.01362
G1 X144.282 Y77.890 E0.62295
G1 X144.529 Y78.108 E0.01033
G1 X144.827 Y78.577 E0.01743
G1 X144.959 Y79.061 E0.01571
G1 X144.959 Y89.382 E0.32362
G1 X144.850 Y89.813 E0.01393
G1 X144.631 Y90.203 E0.01404
G1 X144.284 Y90.550 E0.01539
G1 X127.072 Y100.488 E0.62316
G1 X126.644 Y100.608 E0.01393
G1 X126.196 Y100.614 E0.01404
G1 X125.722 Y100.487 E0.01539
G1 X116.785 Y95.327 E0.32358
G1 X116.432 Y94.970 E0.01574
G1 X116.192 Y94.525 E0.01584
G1 X116.109 Y94.154 E0.01194
G1 X116.109 Y74.284 E0.62300
G1 X116.221 Y73.868 E0.01351
G1 X116.576 Y73.976 F7200.000
G1 F1800
G1 X116.751 Y73.672 E0.01099
G1 X116.995 Y73.429 E0.01080
G1 X125.889 Y68.293 E0.32203
G1 X126.225 Y68.204 E0.01090
G1 X126.626 Y68.211 E0.01256
G1 X126.906 Y68.293 E0.00918
G1 X144.075 Y78.206 E0.62160
G1 X144.255 Y78.368 E0.00759
G1 X144.492 Y78.751 E0.01412
G1 X144.582 Y79.085 E0.01085
G1 X144.582 Y89.356 E0.32203
G1 X144.493 Y89.689 E0.01080
G1 X144.317 Y89.993 E0.01099
G1 X144.074 Y90.236 E0.01080
G1 X126.906 Y100.148 E0.62157
G1 X126.573 Y100.237 E0.01080
G1 X126.222 Y100.237 E0.01099
G1 X125.890 Y100.148 E0.01080
G1 X116.995 Y95.013 E0.32203
G1 X116.751 Y94.768 E0.01085
G1 X116.538 Y94.371 E0.01412
G1 X116.487 Y94.134 E0.00759
G1 X116.487 Y74.309 E0.62162
G1 X116.560 Y74.034 E0.00892
G1 X116.915 Y74.143 F7200.000
G1 F1800
G1 X117.065 Y73.882 E0.00944
G1 X117.205 Y73.743 E0.00618
G1 X126.057 Y68.632 E0.32049
G1 X126.246 Y68.581 E0.00613
G1 X126.593 Y68.587 E0.01088
G1 X126.736 Y68.631 E0.00469
G1 X143.867 Y78.521 E0.62021
G1 X143.976 Y78.623 E0.00469
G1 X144.154 Y78.921 E0.01088
G1 X144.205 Y79.110 E0.00613
G1 X144.205 Y89.331 E0.32049
G1 X144.154 Y89.522 E0.00618
G1 X144.003 Y89.783 E0.00944
G1 X143.864 Y89.922 E0.00618
G1 X126.739 Y99.809 E0.62002
G1 X126.548 Y99.860 E0.00618
G1 X126.247 Y99.860 E0.00944
G1 X126.057 Y99.809 E0.00618
G1 X117.205 Y94.699 E0.32049
G1 X117.066 Y94.560 E0.00613
G1 X116.898 Y94.257 E0.01088
G1 X116.864 Y94.111 E0.00469
G1 X116.864 Y74.333 E0.62012
G1 X116.899 Y74.201 E0.00430
G1 X117.254 Y74.310 F7200.000
G1 F1800
G1 X117.415 Y74.057 E0.00940
G1 X126.224 Y68.971 E0.31894
G1 X126.272 Y68.958 E0.00156
G1 X126.571 Y68.971 E0.00940
G1 X143.654 Y78.834 E0.61847
G1 X143.689 Y78.869 E0.00156
G1 X143.828 Y79.135 E0.00940
G1 X143.828 Y89.307 E0.31894
G1 X143.815 Y89.355 E0.00156
G1 X143.654 Y89.608 E0.00940
G1 X126.571 Y99.470 E0.61847
G1 X126.524 Y99.483 E0.00156
G1 X126.224 Y99.470 E0.00940
G1 X117.415 Y94.384 E0.31894
G1 X117.254 Y94.131 E0.00940
G1 X117.241 Y94.083 E0.00156
G1 X117.241 Y74.368 E0.61814
G1 X117.668 Y74.346 F7200.000
G1 F1800
G1 X126.347 Y69.335 E0.31422
G1 X126.448 Y69.335 E0.00317
G1 X143.400 Y79.122 E0.61374
G1 X143.451 Y79.210 E0.00317
G1 X143.451 Y89.231 E0.31422
G1 X143.400 Y89.319 E0.00317
G1 X126.448 Y99.106 E0.61374
G1 X126.347 Y99.106 E0.00317
G1 X117.668 Y94.095 E0.31422
G1 X117.618 Y94.008 E0.00317
G1 X117.618 Y74.433 E0.61374
G1 X117.638 Y74.398 E0.00129
G1 X118.016 Y74.605 F7200.000
G1 F1800
G1 X126.398 Y69.766 E0.30344
G1 X143.052 Y79.382 E0.60297
G1 X143.052 Y89.060 E0.30345
G1 X126.398 Y98.675 E0.60297
G1 X118.016 Y93.836 E0.30344
G1 X118.016 Y74.665 E0.60109
G1 X118.416 Y74.630 F7200.000
G1 X118.393 Y74.823 F7200.000
G1 F1800
G1 X126.398 Y70.202 E0.28979
G1 X142.675 Y79.599 E0.58932
G1 X142.675 Y88.842 E0.28979
G1 X126.398 Y98.240 E0.58932
G1 X118.393 Y93.618 E0.28979
G1 X118.393 Y74.883 E0.58744
G1 X118.771 Y75.041 F7200.000
G1 F1800
G1 X126.398 Y70.637 E0.27614
G1 X142.298 Y79.817 E0.57567
G1 X142.298 Y88.624 E0.27614
G1 X126.398 Y97.804 E0.57567
G1 X118.771 Y93.401 E0.27614
G1 X118.771 Y75.101 E0.57379
G1 X119.148 Y75.258 F7200.000
G1 F1800
G1 X126.398 Y71.073 E0.26249
G1 X141.921 Y80.035 E0.56202
G1 X141.921 Y88.407 E0.26249
G1 X126.398 Y97.369 E0.56202
G1 X119.148 Y93.183 E0.26249
G1 X119.148 Y75.318 E0.56014
G1 F5760
G1 X121.041 Y74.209 E-0.76000
G1 E-0.04000 F2100.00000
G1 X127.895 Y83.061 F7200.000
G1 E0.80000 F2100.00000
G1 F1800
G1 X128.340 Y82.714 E0.01768
G1 X128.873 Y82.531 E0.01768
G1 X129.437 Y82.531 E0.01768
G1 X129.971 Y82.714 E0.01768
G1 X130.416 Y83.061 E0.01768
G1 X130.724 Y83.533 E0.01768
G1 X130.862 Y84.079 E0.01768
G1 X130.816 Y84.641 E0.01768
G1 X130.589 Y85.158 E0.01768
G1 X130.207 Y85.572 E0.01768
G1 X129.712 Y85.841 E0.01768
G1 X129.155 Y85.934 E0.01768
G1 X128.599 Y85.841 E0.01768
G1 X128.103 Y85.572 E0.01768
G1 X127.721 Y85.158 E0.01768
G1 X127.495 Y84.641 E0.01768
G1 X127.448 Y84.079 E0.01768
G1 X127.587 Y83.533 E0.01768
G1 X127.862 Y83.111 E0.01580
G1 X127.776 Y82.679 F7200.000
G1 X127.614 Y82.802 F7200.000
G1 F1800
G1 X128.158 Y82.378 E0.02163
G1 X128.811 Y82.154 E0.02163
G1 X129.500 Y82.154 E0.02163
G1 X130.153 Y82.378 E0.02163
G1 X130.697 Y82.802 E0.02163
G1 X131.074 Y83.379 E0.02163
G1 X131.243 Y84.048 E0.02163
G1 X131.186 Y84.735 E0.02163
G1 X130.909 Y85.367 E0.02163
G1 X130.442 Y85.874 E0.02163
G1 X129.836 Y86.202 E0.02163
G1 X129.155 Y86.316 E0.02163
G1 X128.475 Y86.202 E0.02163
G1 X127.869 Y85.874 E0.02163
G1 X127.401 Y85.367 E0.02163
G1 X127.124 Y84.735 E0.02163
G1 X127.067 Y84.048 E0.02163
G1 X127.237 Y83.379 E0.02163
G1 X127.581 Y82.852 E0.01974
G1 X127.333 Y82.543 F7200.000
G1 F1800
G1 X127.976 Y82.042 E0.02557
G1 X128.748 Y81.777 E0.02557
G1 X129.563 Y81.777 E0.02557
G1 X130.335 Y82.042 E0.02557
G1 X130.978 Y82.543 E0.02557
G1 X131.424 Y83.225 E0.02557
G1 X131.624 Y84.016 E0.02557
G1 X131.557 Y84.829 E0.02557
G1 X131.229 Y85.576 E0.02557
G1 X130.677 Y86.176 E0.02557
G1 X129.960 Y86.564 E0.02557
G1 X129.155 Y86.698 E0.02557
G1 X128.351 Y86.564 E0.02557
G1 X127.634 Y86.176 E0.02557
G1 X127.081 Y85.576 E0.02557
G1 X126.754 Y84.829 E0.02557
G1 X126.686 Y84.016 E0.02557
G1 X126.887 Y83.225 E0.02557
G1 X127.300 Y82.593 E0.02369
G1 X127.051 Y82.284 F7200.000
G1 F1800
G1 X127.794 Y81.706 E0.02952
G1 X128.685 Y81.400 E0.02952
G1 X129.626 Y81.400 E0.02952
G1 X130.516 Y81.706 E0.02952
G1 X131.259 Y82.284 E0.02952
G1 X131.774 Y83.072 E0.02952
G1 X132.005 Y83.985 E0.02952
G1 X131.928 Y84.923 E0.02952
G1 X131.550 Y85.785 E0.02952
G1 X130.912 Y86.477 E0.02952
G1 X130.084 Y86.926 E0.02952
G1 X129.155 Y87.080 E0.02952
G1 X128.227 Y86.926 E0.02952
G1 X127.399 Y86.477 E0.02952
G1 X126.761 Y85.785 E0.02952
G1 X126.383 Y84.923 E0.02952
G1 X126.305 Y83.985 E0.02952
G1 X126.536 Y83.072 E0.02952
G1 X127.019 Y82.334 E0.02764
G1 F5760
G1 X127.794 Y81.706 E-0.34579
G1 F5760
G1 X128.685 Y81.400 E-0.32606
G1 F5760
G1 X128.939 Y81.400 E-0.08815
G1 E-0.04000 F2100.00000
G1 X132.300 Y74.611 F7200.000
G1 E0.80000 F2100.00000
G1 F1800
G1 X141.808 Y84.119 E0.42673
G1 X141.808 Y84.658 F7200.000
G1 F1800
G1 X131.023 Y73.873 E0.48404
G1 F5760
G1 X132.574 Y75.425 E-0.76000
G1 E-0.04000 F2100.00000
G1 X129.746 Y73.136 F7200.000
G1 E0.80000 F2100.00000
G1 F1800
G1 X141.808 Y85.198 E0.54136
G1 X141.808 Y85.738 F7200.000
G1 F1800
G1 X128.469 Y72.399 E0.59868
G1 F5760
G1 X130.020 Y73.950 E-0.76000
G1 E-0.04000 F2100.00000
G1 X127.192 Y71.661 F7200.000
G1 E0.80000 F2100.00000
G1 F1800
G1 X141.808 Y86.278 E0.65600
G1 X141.808 Y86.817 F7200.000
G1 F1800
G1 X126.392 Y71.402 E0.69186
G1 X126.050 Y71.600 E0.01254
G1 X141.638 Y87.188 E0.69960
G1 X141.638 Y87.727 E0.01713
G1 X125.708 Y71.797 E0.71496
G1 X125.366 Y71.995 E0.01254
G1 X141.623 Y88.252 E0.72964
G1 X141.281 Y88.450 E0.01254
G1 X125.024 Y72.192 E0.72964
G1 X124.681 Y72.390 E0.01254
G1 X140.939 Y88.647 E0.72964
G1 X140.596 Y88.845 E0.01254
G1 X124.339 Y72.587 E0.72964
G1 X123.997 Y72.785 E0.01254
G1 X140.254 Y89.042 E0.72964
G1 X139.912 Y89.240 E0.01254
G1 X123.655 Y72.983 E0.72964
G1 X123.313 Y73.180 E0.01254
G1 X139.570 Y89.437 E0.72964
G1 X139.228 Y89.635 E0.01254
G1 X122.970 Y73.378 E0.72964
G1 X122.628 Y73.575 E0.01254
G1 X130.430 Y81.377 E0.35014
G1 X129.673 Y81.117 E0.02538
G1 X129.630 Y81.117 E0.00136
G1 X122.286 Y73.773 E0.32962
G1 X121.944 Y73.970 E0.01254
G1 X129.091 Y81.117 E0.32075
G1 X128.638 Y81.117 E0.01438
G1 X128.573 Y81.139 E0.00217
G1 X121.602 Y74.168 E0.31288
G1 X121.259 Y74.366 E0.01254
G1 X128.171 Y81.277 E0.31020
G1 X127.769 Y81.415 E0.01348
G1 X120.917 Y74.563 E0.30753
G1 X120.575 Y74.761 E0.01254
G1 X127.439 Y81.624 E0.30804
G1 X127.135 Y81.860 E0.01221
G1 X120.233 Y74.958 E0.30978
G1 X119.891 Y75.156 E0.01254
G1 X126.834 Y82.099 E0.31163
G1 X126.621 Y82.426 E0.01238
G1 X119.549 Y75.353 E0.31742
G1 X119.430 Y75.422 E0.00433
G1 X119.430 Y75.775 E0.01122
G1 X126.408 Y82.752 E0.31315
G1 X126.274 Y82.957 E0.00775
G1 X126.233 Y83.118 E0.00527
G1 X119.430 Y76.315 E0.30532
G1 X119.430 Y76.855 E0.01713
G1 X126.124 Y83.548 E0.30042
G1 X126.022 Y83.986 E0.01425
G1 X119.430 Y77.394 E0.29583
G1 X119.430 Y77.934 E0.01713
G1 X126.070 Y84.574 E0.29802
G1 X126.105 Y84.993 E0.01334
G1 X126.227 Y85.270 E0.00960
G1 X119.430 Y78.474 E0.30503
G1 X119.430 Y79.014 E0.01713
G1 X133.410 Y92.994 E0.62744
G1 X133.753 Y92.796 E0.01254
G1 X128.157 Y87.201 E0.25113
G1 X128.805 Y87.309 E0.02084
G1 X134.095 Y92.598 E0.23741
G1 X134.437 Y92.401 E0.01254
G1 X129.368 Y87.332 E0.22751
G1 X129.830 Y87.255 E0.01488
G1 X134.779 Y92.203 E0.22211
G1 X135.121 Y92.006 E0.01254
G1 X130.265 Y87.149 E0.21797
G1 X130.615 Y86.960 E0.01264
G1 X135.464 Y91.808 E0.21761
G1 X135.806 Y91.611 E0.01254
G1 X130.965 Y86.770 E0.21725
G1 X131.088 Y86.704 E0.00443
G1 X131.256 Y86.521 E0.00787
G1 X136.148 Y91.413 E0.21955
G1 X136.490 Y91.215 E0.01254
G1 X131.515 Y86.240 E0.22330
G1 X131.773 Y85.959 E0.01212
G1 X136.832 Y91.018 E0.22705
G1 X137.175 Y90.820 E0.01254
G1 X131.944 Y85.590 E0.23476
G1 X132.108 Y85.215 E0.01300
G1 X137.517 Y90.623 E0.24273
G1 X137.859 Y90.425 E0.01254
G1 X132.223 Y84.789 E0.25297
G1 X132.264 Y84.290 E0.01587
G1 X138.201 Y90.228 E0.26647
G1 X138.543 Y90.030 E0.01254
G1 X132.229 Y83.716 E0.28339
G1 X132.046 Y82.993 E0.02366
G1 X139.010 Y89.957 E0.31254
G1 F5760
G1 X137.458 Y88.405 E-0.76000
G1 E-0.04000 F2100.00000
G1 X133.192 Y93.315 F7200.000
G1 E0.80000 F2100.00000
G1 F1800
G1 X119.430 Y79.553 E0.61766
G1 X119.430 Y80.093 E0.01713
G1 X132.726 Y93.389 E0.59672
G1 X132.384 Y93.586 E0.01254
G1 X119.430 Y80.633 E0.58137
G1 X119.430 Y81.173 E0.01713
G1 X132.042 Y93.784 E0.56601
G1 X131.699 Y93.981 E0.01254
G1 X119.430 Y81.712 E0.55065
G1 X119.430 Y82.252 E0.01713
G1 X131.357 Y94.179 E0.53529
G1 X131.015 Y94.377 E0.01254
G1 X119.430 Y82.792 E0.51993
G1 X119.430 Y83.332 E0.01713
G1 X130.673 Y94.574 E0.50458
G1 X130.331 Y94.772 E0.01254
G1 X119.430 Y83.871 E0.48922
G1 X119.430 Y84.411 E0.01713
G1 X129.988 Y94.969 E0.47386
G1 X129.646 Y95.167 E0.01254
G1 X119.430 Y84.951 E0.45850
G1 X119.430 Y85.491 E0.01713
G1 X129.304 Y95.364 E0.44314
G1 X128.962 Y95.562 E0.01254
G1 X119.430 Y86.030 E0.42778
G1 X119.430 Y86.570 E0.01713
G1 X128.620 Y95.759 E0.41243
G1 X128.277 Y95.957 E0.01254
G1 X119.430 Y87.110 E0.39707
G1 X119.430 Y87.650 E0.01713
G1 X127.935 Y96.155 E0.38171
G1 X127.593 Y96.352 E0.01254
G1 X119.430 Y88.189 E0.36635
G1 X119.430 Y88.729 E0.01713
G1 X127.251 Y96.550 E0.35099
G1 X126.909 Y96.747 E0.01254
G1 X119.430 Y89.269 E0.33564
G1 X119.430 Y89.809 E0.01713
G1 X126.566 Y96.945 E0.32028
G1 X126.398 Y97.042 E0.00619
G1 X125.751 Y96.669 E0.02371
G1 X119.430 Y90.349 E0.28366
G1 X119.430 Y90.888 E0.01713
G1 X124.937 Y96.395 E0.24715
G1 F5760
G1 X123.386 Y94.843 E-0.76000
G1 E-0.04000 F2100.00000
G1 X123.660 Y95.658 F7200.000
G1 E0.80000 F2100.00000
G1 F1800
G1 X119.430 Y91.428 E0.18983
G1 X119.430 Y91.968 E0.01713
G1 X122.383 Y94.920 E0.13252
G1 F5760
G1 X120.831 Y93.369 E-0.76000
G1 E-0.04000 F2100.00000
