; Processed by C:\Users\kuba\Desktop\Prints\Better Temperature Tower\files\tempTowerScript.pl
; generated by Slic3r 1.36.2-prusa3d-stable-win64 on 2017-08-20 at 00:23:03

; 

; external perimeters extrusion width = 0.45mm
; perimeters extrusion width = 0.45mm
; infill extrusion width = 0.45mm
; solid infill extrusion width = 0.45mm
; top infill extrusion width = 0.40mm
; first layer extrusion width = 0.42mm

M115 U3.0.12 ; tell printer latest fw version
M83  ; extruder relative mode
M104 S270 ; set extruder temp
M140 S95 ; set bed temp
M190 S95 ; wait for bed temp
M109 S270 ; wait for extruder temp
G28 W ; home all without mesh bed level
G80 ; mesh bed leveling
G1 Y-3.0 F1000.0 ; go outside pritn area
G1 X60.0 E9.0  F1000.0 ; intro line
G1 X100.0 E12.5  F1000.0 ; intro line
; Filament gcode
G21 ; set units to millimeters
G90 ; use absolute coordinates
M83 ; use relative distances for extrusion
; Layer 0
G1 Z0.200 F7200.000
G1 E-1.50000 F2100.00000
G1 X101.203 Y95.760 F7200.000
G1 E1.50000 F2100.00000
M204 S1000
G1 F2100
G1 X101.991 Y95.623 E0.02406
G1 X148.004 Y95.623 E1.38405
G1 X148.888 Y95.795 E0.02710
G1 X149.645 Y96.284 E0.02710
G1 X150.166 Y97.020 E0.02710
G1 X150.375 Y97.900 E0.02722
G1 X150.366 Y112.228 E0.43099
G1 X150.209 Y112.878 E0.02010
G1 X149.875 Y113.461 E0.02021
G1 X149.392 Y113.927 E0.02021
G1 X148.797 Y114.240 E0.02021
G1 X148.009 Y114.377 E0.02406
G1 X101.931 Y114.376 E1.38600
G1 X101.233 Y114.250 E0.02135
G1 X100.603 Y113.923 E0.02135
G1 X100.098 Y113.425 E0.02135
G1 X99.760 Y112.797 E0.02146
G1 X99.623 Y112.020 E0.02372
G1 X99.631 Y97.798 E0.42779
G1 X99.784 Y97.140 E0.02033
G1 X100.118 Y96.548 E0.02044
G1 X100.602 Y96.077 E0.02033
G1 X101.150 Y95.788 E0.01863
G1 F5760
G1 X101.991 Y95.623 E-0.29688
G1 F5760
G1 X105.248 Y95.623 E-1.12812
G1 E-0.07500 F2100.00000
G1 X102.964 Y98.964 F7200.000
G1 E1.50000 F2100.00000
G1 F1260
G1 X147.036 Y98.964 E1.32567
G1 X147.036 Y111.036 E0.36311
G1 X102.964 Y111.036 E1.32567
G1 X102.964 Y99.024 E0.36131
G1 X102.587 Y98.587 F7200.000
G1 F1260
G1 X147.413 Y98.587 E1.34835
G1 X147.413 Y111.413 E0.38580
G1 X102.587 Y111.413 E1.34835
G1 X102.587 Y98.647 E0.38399
G1 X102.210 Y98.210 F7200.000
G1 F1260
G1 X147.790 Y98.210 E1.37104
G1 X147.790 Y111.790 E0.40848
G1 X102.210 Y111.790 E1.37104
G1 X102.210 Y98.270 E0.40668
G1 X102.608 Y98.249 F7200.000
G1 F5760
G1 X106.324 Y98.265 E-1.42500
G1 E-0.07500 F2100.00000
G1 X103.844 Y110.923 F7200.000
G1 E1.50000 F2100.00000
G1 F1260
G1 X103.247 Y110.326 E0.02554
G1 X103.247 Y109.790 E0.01622
G1 X104.210 Y110.753 E0.04122
G1 X104.747 Y110.753 E0.01622
G1 X103.247 Y109.253 E0.06416
G1 X103.247 Y108.717 E0.01622
G1 X105.283 Y110.753 E0.08710
G1 X105.819 Y110.753 E0.01622
G1 X103.247 Y108.181 E0.11004
G1 X103.247 Y107.645 E0.01622
G1 X106.355 Y110.753 E0.13299
G1 X106.891 Y110.753 E0.01622
G1 X103.247 Y107.109 E0.15593
G1 X103.247 Y106.572 E0.01622
G1 X107.428 Y110.753 E0.17887
G1 X107.964 Y110.753 E0.01622
G1 X103.247 Y106.036 E0.20181
G1 X103.247 Y105.500 E0.01622
G1 X108.500 Y110.753 E0.22475
G1 X109.036 Y110.753 E0.01622
G1 X103.247 Y104.964 E0.24769
G1 X103.247 Y104.427 E0.01622
G1 X109.573 Y110.753 E0.27063
G1 X110.109 Y110.753 E0.01622
G1 X103.247 Y103.891 E0.29358
G1 X103.247 Y103.355 E0.01622
G1 X110.645 Y110.753 E0.31652
G1 X111.181 Y110.753 E0.01622
G1 X103.247 Y102.819 E0.33946
G1 X103.247 Y102.283 E0.01622
G1 X111.717 Y110.753 E0.36240
G1 X112.254 Y110.753 E0.01622
G1 X103.247 Y101.746 E0.38534
G1 X103.247 Y101.210 E0.01622
G1 X112.790 Y110.753 E0.40828
G1 X113.326 Y110.753 E0.01622
G1 X103.247 Y100.674 E0.43122
G1 X103.247 Y100.138 E0.01622
G1 X113.862 Y110.753 E0.45417
G1 X114.398 Y110.753 E0.01622
G1 X103.247 Y99.602 E0.47711
G1 X103.247 Y99.247 E0.01073
G1 X103.429 Y99.247 E0.00549
G1 X114.935 Y110.753 E0.49228
G1 X115.471 Y110.753 E0.01622
G1 X103.965 Y99.247 E0.49228
G1 X104.501 Y99.247 E0.01622
G1 X116.007 Y110.753 E0.49228
G1 X116.543 Y110.753 E0.01622
G1 X105.037 Y99.247 E0.49228
G1 X105.573 Y99.247 E0.01622
G1 X117.080 Y110.753 E0.49228
G1 X117.616 Y110.753 E0.01622
G1 X106.110 Y99.247 E0.49228
G1 X106.646 Y99.247 E0.01622
G1 X118.152 Y110.753 E0.49228
G1 X118.688 Y110.753 E0.01622
G1 X107.182 Y99.247 E0.49228
G1 X107.718 Y99.247 E0.01622
G1 X119.224 Y110.753 E0.49228
G1 X119.761 Y110.753 E0.01622
G1 X108.255 Y99.247 E0.49228
G1 X108.791 Y99.247 E0.01622
G1 X120.297 Y110.753 E0.49228
G1 X120.833 Y110.753 E0.01622
G1 X109.327 Y99.247 E0.49228
G1 X109.863 Y99.247 E0.01622
G1 X121.369 Y110.753 E0.49228
G1 X121.905 Y110.753 E0.01622
G1 X110.399 Y99.247 E0.49228
G1 X110.936 Y99.247 E0.01622
G1 X122.442 Y110.753 E0.49228
G1 X122.978 Y110.753 E0.01622
G1 X111.472 Y99.247 E0.49228
G1 X112.008 Y99.247 E0.01622
G1 X123.514 Y110.753 E0.49228
G1 X124.050 Y110.753 E0.01622
G1 X112.544 Y99.247 E0.49228
G1 X113.080 Y99.247 E0.01622
G1 X124.587 Y110.753 E0.49228
G1 X125.123 Y110.753 E0.01622
G1 X113.617 Y99.247 E0.49228
G1 X114.153 Y99.247 E0.01622
G1 X125.659 Y110.753 E0.49228
G1 X126.195 Y110.753 E0.01622
G1 X114.689 Y99.247 E0.49228
G1 X115.225 Y99.247 E0.01622
G1 X126.731 Y110.753 E0.49228
G1 X127.268 Y110.753 E0.01622
G1 X115.762 Y99.247 E0.49228
G1 X116.298 Y99.247 E0.01622
G1 X127.804 Y110.753 E0.49228
G1 X128.340 Y110.753 E0.01622
G1 X116.834 Y99.247 E0.49228
G1 X117.370 Y99.247 E0.01622
G1 X128.876 Y110.753 E0.49228
G1 X129.412 Y110.753 E0.01622
G1 X117.906 Y99.247 E0.49228
G1 X118.443 Y99.247 E0.01622
G1 X129.949 Y110.753 E0.49228
G1 X130.485 Y110.753 E0.01622
G1 X118.979 Y99.247 E0.49228
G1 X119.515 Y99.247 E0.01622
G1 X131.021 Y110.753 E0.49228
G1 X131.557 Y110.753 E0.01622
G1 X120.051 Y99.247 E0.49228
G1 X120.587 Y99.247 E0.01622
G1 X132.094 Y110.753 E0.49228
G1 X132.630 Y110.753 E0.01622
G1 X121.124 Y99.247 E0.49228
G1 X121.660 Y99.247 E0.01622
G1 X133.166 Y110.753 E0.49228
G1 X133.702 Y110.753 E0.01622
G1 X122.196 Y99.247 E0.49228
G1 X122.732 Y99.247 E0.01622
G1 X134.238 Y110.753 E0.49228
G1 X134.775 Y110.753 E0.01622
G1 X123.269 Y99.247 E0.49228
G1 X123.805 Y99.247 E0.01622
G1 X135.311 Y110.753 E0.49228
G1 X135.847 Y110.753 E0.01622
G1 X124.341 Y99.247 E0.49228
G1 X124.877 Y99.247 E0.01622
G1 X136.383 Y110.753 E0.49228
G1 X136.919 Y110.753 E0.01622
G1 X125.413 Y99.247 E0.49228
G1 X125.950 Y99.247 E0.01622
G1 X137.456 Y110.753 E0.49228
G1 X137.992 Y110.753 E0.01622
G1 X126.486 Y99.247 E0.49228
G1 X127.022 Y99.247 E0.01622
G1 X138.528 Y110.753 E0.49228
G1 X139.064 Y110.753 E0.01622
G1 X127.558 Y99.247 E0.49228
G1 X128.094 Y99.247 E0.01622
G1 X139.601 Y110.753 E0.49228
G1 X140.137 Y110.753 E0.01622
G1 X128.631 Y99.247 E0.49228
G1 X129.167 Y99.247 E0.01622
G1 X140.673 Y110.753 E0.49228
G1 X141.209 Y110.753 E0.01622
G1 X129.703 Y99.247 E0.49228
G1 X130.239 Y99.247 E0.01622
G1 X141.745 Y110.753 E0.49228
G1 X142.282 Y110.753 E0.01622
G1 X130.776 Y99.247 E0.49228
G1 X131.312 Y99.247 E0.01622
G1 X142.818 Y110.753 E0.49228
G1 X143.354 Y110.753 E0.01622
G1 X131.848 Y99.247 E0.49228
G1 X132.384 Y99.247 E0.01622
G1 X143.890 Y110.753 E0.49228
G1 X144.426 Y110.753 E0.01622
G1 X132.920 Y99.247 E0.49228
G1 X133.457 Y99.247 E0.01622
G1 X144.963 Y110.753 E0.49228
G1 X145.499 Y110.753 E0.01622
G1 X133.993 Y99.247 E0.49228
G1 X134.529 Y99.247 E0.01622
G1 X146.035 Y110.753 E0.49228
G1 X146.571 Y110.753 E0.01622
G1 X135.065 Y99.247 E0.49228
G1 X135.601 Y99.247 E0.01622
G1 X146.753 Y110.399 E0.47711
G1 X146.753 Y109.862 E0.01622
G1 X136.138 Y99.247 E0.45417
G1 X136.674 Y99.247 E0.01622
G1 X146.753 Y109.326 E0.43123
G1 X146.753 Y108.790 E0.01622
G1 X137.210 Y99.247 E0.40829
G1 X137.746 Y99.247 E0.01622
G1 X146.753 Y108.254 E0.38535
G1 X146.753 Y107.717 E0.01622
G1 X138.283 Y99.247 E0.36240
G1 X138.819 Y99.247 E0.01622
G1 X146.753 Y107.181 E0.33946
G1 X146.753 Y106.645 E0.01622
G1 X139.355 Y99.247 E0.31652
G1 X139.891 Y99.247 E0.01622
G1 X146.753 Y106.109 E0.29358
G1 X146.753 Y105.573 E0.01622
G1 X140.427 Y99.247 E0.27064
G1 X140.964 Y99.247 E0.01622
G1 X146.753 Y105.036 E0.24770
G1 X146.753 Y104.500 E0.01622
G1 X141.500 Y99.247 E0.22476
G1 X142.036 Y99.247 E0.01622
G1 X146.753 Y103.964 E0.20181
G1 X146.753 Y103.428 E0.01622
G1 X142.572 Y99.247 E0.17887
G1 X143.108 Y99.247 E0.01622
G1 X146.753 Y102.892 E0.15593
G1 X146.753 Y102.355 E0.01622
G1 X143.645 Y99.247 E0.13299
G1 X144.181 Y99.247 E0.01622
G1 X146.753 Y101.819 E0.11005
G1 X146.753 Y101.283 E0.01622
G1 X144.717 Y99.247 E0.08711
G1 X145.253 Y99.247 E0.01622
G1 X146.753 Y100.747 E0.06417
G1 X146.753 Y100.210 E0.01622
G1 X145.790 Y99.247 E0.04122
G1 X146.326 Y99.247 E0.01622
G1 X146.923 Y99.844 E0.02554
M106 S216.75
; Layer 1
G1 Z0.400 F7200.000
M104 S265 ; set temperature
M140 S90 ; set bed temperature
G1 E-1.50000 F2100.00000
G1 X150.166 Y97.020 F7200.000
G1 E1.50000 F2100.00000
G1 F3000
G1 X150.375 Y97.900 E0.02722
G1 X150.366 Y112.228 E0.43099
G1 X150.209 Y112.878 E0.02010
G1 X149.875 Y113.461 E0.02021
G1 X149.392 Y113.927 E0.02021
G1 X148.797 Y114.240 E0.02021
G1 X148.009 Y114.377 E0.02406
G1 X101.931 Y114.376 E1.38600
G1 X101.233 Y114.250 E0.02135
G1 X100.603 Y113.923 E0.02135
G1 X100.098 Y113.425 E0.02135
G1 X99.760 Y112.797 E0.02146
G1 X99.623 Y112.020 E0.02372
G1 X99.631 Y97.798 E0.42779
G1 X99.784 Y97.140 E0.02033
G1 X100.118 Y96.548 E0.02044
G1 X100.602 Y96.077 E0.02033
G1 X101.203 Y95.760 E0.02044
G1 X101.991 Y95.623 E0.02406
G1 X148.004 Y95.623 E1.38405
G1 X148.888 Y95.795 E0.02710
G1 X149.645 Y96.284 E0.02710
G1 X150.131 Y96.971 E0.02530
G1 F5760
G1 X150.375 Y97.900 E-0.33275
G1 F5760
G1 X150.373 Y101.053 E-1.09225
G1 E-0.07500 F2100.00000
G1 X146.961 Y99.039 F7200.000
G1 E1.50000 F2100.00000
M204 S800
G1 F1800
G1 X146.961 Y110.961 E0.38834
G1 X103.039 Y110.961 E1.43072
G1 X103.039 Y99.039 E0.38834
G1 X146.901 Y99.039 E1.42877
M204 S1000
G1 X147.368 Y98.632 F7200.000
M204 S800
G1 F1800
G1 X147.368 Y111.368 E0.41486
G1 X102.632 Y111.368 E1.45724
G1 X102.632 Y98.632 E0.41486
G1 X147.308 Y98.632 E1.45529
M204 S1000
G1 X147.775 Y98.225 F7200.000
M204 S800
G1 F1800
G1 X147.775 Y111.775 E0.44138
G1 X102.225 Y111.775 E1.48376
G1 X102.225 Y98.225 E0.44138
G1 X147.715 Y98.225 E1.48181
M204 S1000
G1 X147.609 Y98.589 F7200.000
G1 F5760
G1 X147.733 Y102.339 E-1.42500
G1 E-0.07500 F2100.00000
G1 X146.013 Y110.839 F7200.000
G1 E1.50000 F2100.00000
M204 S2000
G1 F1800
G1 X146.656 Y110.196 E0.02969
G1 X146.656 Y109.619 E0.01887
G1 X145.619 Y110.656 E0.04791
G1 X145.041 Y110.656 E0.01887
G1 X146.656 Y109.041 E0.07459
G1 X146.656 Y108.464 E0.01887
G1 X144.464 Y110.656 E0.10128
G1 X143.887 Y110.656 E0.01887
G1 X146.656 Y107.887 E0.12797
G1 X146.656 Y107.309 E0.01887
G1 X143.309 Y110.656 E0.15465
G1 X142.732 Y110.656 E0.01887
G1 X146.656 Y106.732 E0.18134
G1 X146.656 Y106.154 E0.01887
G1 X142.154 Y110.656 E0.20803
G1 X141.577 Y110.656 E0.01887
G1 X146.656 Y105.577 E0.23471
G1 X146.656 Y104.999 E0.01887
G1 X140.999 Y110.656 E0.26140
G1 X140.422 Y110.656 E0.01887
G1 X146.656 Y104.422 E0.28809
G1 X146.656 Y103.844 E0.01887
G1 X139.844 Y110.656 E0.31477
G1 X139.267 Y110.656 E0.01887
G1 X146.656 Y103.267 E0.34146
G1 X146.656 Y102.689 E0.01887
G1 X138.689 Y110.656 E0.36815
G1 X138.112 Y110.656 E0.01887
G1 X146.656 Y102.112 E0.39483
G1 X146.656 Y101.534 E0.01887
G1 X137.534 Y110.656 E0.42152
G1 X136.957 Y110.656 E0.01887
G1 X146.656 Y100.957 E0.44821
G1 X146.656 Y100.380 E0.01887
G1 X136.380 Y110.656 E0.47489
G1 X135.802 Y110.656 E0.01887
G1 X146.656 Y99.802 E0.50158
G1 X146.656 Y99.344 E0.01495
G1 X146.536 Y99.344 E0.00392
G1 X135.225 Y110.656 E0.52273
G1 X134.647 Y110.656 E0.01887
G1 X145.958 Y99.344 E0.52273
G1 X145.381 Y99.344 E0.01887
G1 X134.070 Y110.656 E0.52273
G1 X133.492 Y110.656 E0.01887
G1 X144.803 Y99.344 E0.52273
G1 X144.226 Y99.344 E0.01887
G1 X132.915 Y110.656 E0.52273
G1 X132.337 Y110.656 E0.01887
G1 X143.648 Y99.344 E0.52273
G1 X143.071 Y99.344 E0.01887
G1 X131.760 Y110.656 E0.52273
G1 X131.182 Y110.656 E0.01887
G1 X142.493 Y99.344 E0.52273
G1 X141.916 Y99.344 E0.01887
G1 X130.605 Y110.656 E0.52273
G1 X130.027 Y110.656 E0.01887
G1 X141.339 Y99.344 E0.52273
G1 X140.761 Y99.344 E0.01887
G1 X129.450 Y110.656 E0.52273
G1 X128.873 Y110.656 E0.01887
G1 X140.184 Y99.344 E0.52273
G1 X139.606 Y99.344 E0.01887
G1 X128.295 Y110.656 E0.52273
G1 X127.718 Y110.656 E0.01887
G1 X139.029 Y99.344 E0.52273
G1 X138.451 Y99.344 E0.01887
G1 X127.140 Y110.656 E0.52273
G1 X126.563 Y110.656 E0.01887
G1 X137.874 Y99.344 E0.52273
G1 X137.296 Y99.344 E0.01887
G1 X125.985 Y110.656 E0.52273
G1 X125.408 Y110.656 E0.01887
G1 X136.719 Y99.344 E0.52273
G1 X136.141 Y99.344 E0.01887
G1 X124.830 Y110.656 E0.52273
G1 X124.253 Y110.656 E0.01887
G1 X135.564 Y99.344 E0.52273
G1 X134.986 Y99.344 E0.01887
G1 X123.675 Y110.656 E0.52273
G1 X123.098 Y110.656 E0.01887
G1 X134.409 Y99.344 E0.52273
G1 X133.832 Y99.344 E0.01887
G1 X122.520 Y110.656 E0.52273
G1 X121.943 Y110.656 E0.01887
G1 X133.254 Y99.344 E0.52273
G1 X132.677 Y99.344 E0.01887
G1 X121.366 Y110.656 E0.52273
G1 X120.788 Y110.656 E0.01887
G1 X132.099 Y99.344 E0.52273
G1 X131.522 Y99.344 E0.01887
G1 X120.211 Y110.656 E0.52273
G1 X119.633 Y110.656 E0.01887
G1 X130.944 Y99.344 E0.52273
G1 X130.367 Y99.344 E0.01887
G1 X119.056 Y110.656 E0.52273
G1 X118.478 Y110.656 E0.01887
G1 X129.789 Y99.344 E0.52273
G1 X129.212 Y99.344 E0.01887
G1 X117.901 Y110.656 E0.52273
G1 X117.323 Y110.656 E0.01887
G1 X128.634 Y99.344 E0.52273
G1 X128.057 Y99.344 E0.01887
G1 X116.746 Y110.656 E0.52273
G1 X116.168 Y110.656 E0.01887
G1 X127.479 Y99.344 E0.52273
G1 X126.902 Y99.344 E0.01887
G1 X115.591 Y110.656 E0.52273
G1 X115.013 Y110.656 E0.01887
G1 X126.325 Y99.344 E0.52273
G1 X125.747 Y99.344 E0.01887
G1 X114.436 Y110.656 E0.52273
G1 X113.859 Y110.656 E0.01887
G1 X125.170 Y99.344 E0.52273
G1 X124.592 Y99.344 E0.01887
G1 X113.281 Y110.656 E0.52273
G1 X112.704 Y110.656 E0.01887
G1 X124.015 Y99.344 E0.52273
G1 X123.437 Y99.344 E0.01887
G1 X112.126 Y110.656 E0.52273
G1 X111.549 Y110.656 E0.01887
G1 X122.860 Y99.344 E0.52273
G1 X122.282 Y99.344 E0.01887
G1 X110.971 Y110.656 E0.52273
G1 X110.394 Y110.656 E0.01887
G1 X121.705 Y99.344 E0.52273
G1 X121.127 Y99.344 E0.01887
G1 X109.816 Y110.656 E0.52273
G1 X109.239 Y110.656 E0.01887
G1 X120.550 Y99.344 E0.52273
G1 X119.972 Y99.344 E0.01887
G1 X108.661 Y110.656 E0.52273
G1 X108.084 Y110.656 E0.01887
G1 X119.395 Y99.344 E0.52273
G1 X118.818 Y99.344 E0.01887
G1 X107.506 Y110.656 E0.52273
G1 X106.929 Y110.656 E0.01887
G1 X118.240 Y99.344 E0.52273
G1 X117.663 Y99.344 E0.01887
G1 X106.352 Y110.656 E0.52273
G1 X105.774 Y110.656 E0.01887
G1 X117.085 Y99.344 E0.52273
G1 X116.508 Y99.344 E0.01887
G1 X105.197 Y110.656 E0.52273
G1 X104.619 Y110.656 E0.01887
G1 X115.930 Y99.344 E0.52273
G1 X115.353 Y99.344 E0.01887
G1 X104.042 Y110.656 E0.52273
G1 X103.464 Y110.656 E0.01887
G1 X114.775 Y99.344 E0.52273
G1 X114.198 Y99.344 E0.01887
G1 X103.344 Y110.198 E0.50158
G1 X103.344 Y109.620 E0.01887
G1 X113.620 Y99.344 E0.47489
G1 X113.043 Y99.344 E0.01887
G1 X103.344 Y109.043 E0.44820
G1 X103.344 Y108.465 E0.01887
G1 X112.465 Y99.344 E0.42152
G1 X111.888 Y99.344 E0.01887
G1 X103.344 Y107.888 E0.39483
G1 X103.344 Y107.311 E0.01887
G1 X111.311 Y99.344 E0.36814
G1 X110.733 Y99.344 E0.01887
G1 X103.344 Y106.733 E0.34146
G1 X103.344 Y106.156 E0.01887
G1 X110.156 Y99.344 E0.31477
G1 X109.578 Y99.344 E0.01887
G1 X103.344 Y105.578 E0.28808
G1 X103.344 Y105.001 E0.01887
G1 X109.001 Y99.344 E0.26140
G1 X108.423 Y99.344 E0.01887
G1 X103.344 Y104.423 E0.23471
G1 X103.344 Y103.846 E0.01887
G1 X107.846 Y99.344 E0.20802
G1 X107.268 Y99.344 E0.01887
G1 X103.344 Y103.268 E0.18134
G1 X103.344 Y102.691 E0.01887
G1 X106.691 Y99.344 E0.15465
G1 X106.113 Y99.344 E0.01887
G1 X103.344 Y102.113 E0.12796
G1 X103.344 Y101.536 E0.01887
G1 X105.536 Y99.344 E0.10128
G1 X104.958 Y99.344 E0.01887
G1 X103.344 Y100.958 E0.07459
G1 X103.344 Y100.381 E0.01887
G1 X104.381 Y99.344 E0.04790
G1 X103.804 Y99.344 E0.01887
G1 X103.161 Y99.987 E0.02968
M204 S1000
; Layer 2
G1 Z0.600 F7200.000
G1 E-1.50000 F2100.00000
G1 X101.203 Y95.760 F7200.000
G1 E1.50000 F2100.00000
G1 F3000
G1 X101.991 Y95.623 E0.02406
G1 X148.004 Y95.623 E1.38405
G1 X148.888 Y95.795 E0.02710
