; generated by Slic3r 1.36.2-prusa3d-stable-win64 on 2017-08-26 at 13:56:34

; 

; external perimeters extrusion width = 0.45mm
; perimeters extrusion width = 0.45mm
; infill extrusion width = 0.45mm
; solid infill extrusion width = 0.45mm
; top infill extrusion width = 0.42mm
; first layer extrusion width = 0.55mm

M115 U3.0.12 ; tell printer latest fw version
M83  ; extruder relative mode
M104 S285 ; set extruder temp
M140 S110 ; set bed temp
M190 S110 ; wait for bed temp
M109 S285 ; wait for extruder temp
G28 W ; home all without mesh bed level
G80 ; mesh bed leveling
G1 Y-3.0 F1000.0 ; go outside pritn area
G1 X60.0 E9.0  F1000.0 ; intro line
G1 X100.0 E12.5  F1000.0 ; intro line
; Filament gcode
G21 ; set units to millimeters
G90 ; use absolute coordinates
M83 ; use relative distances for extrusion
; Layer 0
G1 E-0.80000 F2100.00000
G1 Z0.350 F7200.000
G1 X67.849 Y63.112 F7200.000
G1 E0.80000 F2100.00000
M204 S1000
G1 F2100
G1 X69.371 Y62.506 E0.11219
G1 X70.155 Y62.330 E0.05499
G1 X70.932 Y62.268 E0.05338
G1 X158.989 Y62.267 E6.02833
G1 X160.103 Y62.383 E0.07664
G1 X161.373 Y62.765 E0.09084
G1 X162.286 Y63.211 E0.06955
G1 X163.130 Y63.836 E0.07194
G1 X163.956 Y64.687 E0.08115
G1 X164.580 Y65.606 E0.07603
G1 X165.069 Y66.798 E0.08822
G1 X165.330 Y67.887 E0.07667
G1 X165.386 Y68.666 E0.05349
G1 X165.377 Y106.618 E2.59813
G1 X165.202 Y107.780 E0.08049
G1 X164.895 Y108.724 E0.06797
G1 X164.326 Y109.791 E0.08277
G1 X163.638 Y110.664 E0.07609
G1 X162.809 Y111.408 E0.07626
G1 X155.890 Y116.761 E0.59887
G1 X155.146 Y117.239 E0.06053
G1 X154.393 Y117.613 E0.05760
G1 X153.585 Y117.874 E0.05808
G1 X152.048 Y118.074 E0.10614
G1 X70.833 Y118.071 E5.55997
G1 X70.062 Y117.995 E0.05299
G1 X69.263 Y117.803 E0.05629
G1 X68.394 Y117.496 E0.06307
G1 X67.700 Y117.142 E0.05338
G1 X66.981 Y116.628 E0.06047
G1 X66.322 Y116.004 E0.06215
G1 X65.425 Y114.805 E0.10248
G1 X64.824 Y113.299 E0.11102
G1 X64.648 Y112.528 E0.05417
G1 X64.581 Y111.768 E0.05220
G1 X64.586 Y68.416 E2.96787
G1 X64.671 Y67.676 E0.05101
G1 X64.868 Y66.890 E0.05549
G1 X65.173 Y66.044 E0.06154
G1 X65.536 Y65.347 E0.05377
G1 X66.044 Y64.646 E0.05926
G1 X66.662 Y63.997 E0.06139
G1 X67.801 Y63.148 E0.09721
G1 F5760
G1 X69.371 Y62.506 E-0.58769
G1 F5760
G1 X69.857 Y62.397 E-0.17231
G1 E-0.04000 F2100.00000
G1 X156.570 Y79.797 F7200.000
G1 E0.80000 F2100.00000
G1 F2100
G1 X156.580 Y80.542 E0.05095
G1 X159.208 Y80.549 E0.17991
G1 X160.063 Y80.669 E0.05908
G1 X160.879 Y80.941 E0.05886
G1 X161.866 Y81.547 E0.07932
G1 X162.698 Y82.416 E0.08233
G1 X163.408 Y83.869 E0.11072
G1 X163.573 Y84.958 E0.07542
G1 X163.575 Y106.294 E1.46063
G1 X163.544 Y106.756 E0.03170
G1 X163.353 Y107.636 E0.06168
G1 X162.969 Y108.506 E0.06508
G1 X162.199 Y109.492 E0.08564
G1 X161.206 Y110.237 E0.08499
G1 X160.257 Y110.620 E0.07004
G1 X159.249 Y110.785 E0.06994
G1 X156.585 Y110.798 E0.18237
G1 X156.591 Y111.758 E0.06576
G1 X156.461 Y112.753 E0.06865
G1 X156.073 Y113.771 E0.07460
G1 X155.290 Y114.862 E0.09191
G1 X154.079 Y115.771 E0.10368
G1 X153.114 Y116.123 E0.07029
G1 X152.125 Y116.260 E0.06840
G1 X70.811 Y116.260 E5.56671
G1 X69.581 Y116.033 E0.08563
G1 X69.009 Y115.802 E0.04225
G1 X68.464 Y115.487 E0.04309
G1 X67.535 Y114.647 E0.08576
G1 X66.936 Y113.806 E0.07067
G1 X66.558 Y112.853 E0.07015
G1 X66.393 Y111.831 E0.07089
G1 X66.393 Y68.503 E2.96619
G1 X66.593 Y67.368 E0.07892
G1 X67.068 Y66.300 E0.08003
G1 X67.484 Y65.752 E0.04711
G1 X67.960 Y65.272 E0.04627
G1 X68.867 Y64.611 E0.07680
G1 X69.833 Y64.237 E0.07093
G1 X70.829 Y64.080 E0.06903
G1 X159.237 Y64.085 E6.05237
G1 X160.614 Y64.394 E0.09665
G1 X161.813 Y65.090 E0.09489
G1 X162.460 Y65.726 E0.06216
G1 X162.893 Y66.293 E0.04879
G1 X163.336 Y67.249 E0.07216
G1 X163.553 Y68.272 E0.07155
G1 X163.558 Y75.588 E0.50086
G1 X163.251 Y76.909 E0.09285
G1 X162.706 Y77.910 E0.07806
G1 X161.881 Y78.772 E0.08165
G1 X161.028 Y79.328 E0.06971
G1 X160.067 Y79.673 E0.06990
G1 X159.111 Y79.794 E0.06600
G1 X156.630 Y79.797 E0.16983
G1 X156.143 Y79.323 F7200.000
G1 F2100
G1 X156.096 Y79.880 E0.03824
G1 X156.112 Y81.016 E0.07778
G1 X159.160 Y81.022 E0.20870
G1 X159.937 Y81.128 E0.05368
G1 X160.658 Y81.362 E0.05185
G1 X161.545 Y81.899 E0.07100
G1 X162.329 Y82.717 E0.07760
G1 X162.944 Y83.977 E0.09594
G1 X163.098 Y84.976 E0.06925
G1 X163.100 Y106.285 E1.45880
G1 X163.071 Y106.706 E0.02889
G1 X162.907 Y107.471 E0.05351
G1 X162.576 Y108.238 E0.05724
G1 X161.845 Y109.173 E0.08124
G1 X160.950 Y109.836 E0.07625
G1 X160.108 Y110.168 E0.06194
G1 X159.194 Y110.313 E0.06339
G1 X156.106 Y110.325 E0.21141
G1 X156.117 Y111.714 E0.09510
G1 X155.994 Y112.662 E0.06549
G1 X155.641 Y113.571 E0.06674
G1 X154.973 Y114.506 E0.07867
G1 X153.880 Y115.339 E0.09407
G1 X153.022 Y115.656 E0.06262
G1 X152.108 Y115.785 E0.06321
G1 X70.832 Y115.785 E5.56408
G1 X69.736 Y115.584 E0.07629
G1 X69.203 Y115.368 E0.03940
G1 X68.726 Y115.090 E0.03783
G1 X67.874 Y114.314 E0.07884
G1 X67.341 Y113.556 E0.06346
G1 X67.023 Y112.751 E0.05926
G1 X66.868 Y111.811 E0.06520
G1 X66.868 Y68.525 E2.96338
G1 X67.055 Y67.480 E0.07263
G1 X67.464 Y66.564 E0.06869
G1 X67.833 Y66.074 E0.04196
G1 X68.284 Y65.620 E0.04381
G1 X69.119 Y65.015 E0.07065
G1 X69.977 Y64.690 E0.06279
G1 X70.847 Y64.555 E0.06028
G1 X159.210 Y64.560 E6.04928
G1 X160.471 Y64.848 E0.08861
G1 X161.545 Y65.482 E0.08533
G1 X162.112 Y66.050 E0.05498
G1 X162.499 Y66.558 E0.04370
G1 X162.893 Y67.422 E0.06499
G1 X163.078 Y68.297 E0.06124
G1 X163.089 Y75.510 E0.49377
G1 X162.816 Y76.714 E0.08456
G1 X162.338 Y77.608 E0.06939
G1 X161.598 Y78.390 E0.07370
G1 X160.793 Y78.914 E0.06576
G1 X159.935 Y79.216 E0.06230
G1 X159.096 Y79.319 E0.05785
G1 X156.203 Y79.323 E0.19808
G1 X155.666 Y78.849 F7200.000
G1 F2100
G1 X155.631 Y79.258 E0.02811
G1 X155.648 Y79.564 E0.02099
G1 X155.620 Y79.868 E0.02092
G1 X155.639 Y80.401 E0.03647
G1 X155.630 Y81.025 E0.04275
G1 X155.683 Y81.490 E0.03204
G1 X159.115 Y81.495 E0.23494
G1 X159.812 Y81.586 E0.04815
G1 X160.484 Y81.805 E0.04835
G1 X161.269 Y82.286 E0.06308
G1 X161.959 Y83.016 E0.06876
G1 X162.481 Y84.086 E0.08144
G1 X162.623 Y84.995 E0.06303
G1 X162.625 Y106.277 E1.45693
G1 X162.599 Y106.657 E0.02607
G1 X162.460 Y107.308 E0.04560
G1 X162.180 Y107.974 E0.04946
G1 X161.533 Y108.814 E0.07256
G1 X160.745 Y109.406 E0.06751
G1 X159.959 Y109.717 E0.05781
G1 X159.141 Y109.841 E0.05668
G1 X155.662 Y109.851 E0.23813
G1 X155.631 Y110.383 E0.03648
G1 X155.642 Y111.701 E0.09024
G1 X155.527 Y112.570 E0.06002
G1 X155.210 Y113.369 E0.05887
G1 X154.654 Y114.153 E0.06580
G1 X153.678 Y114.908 E0.08446
G1 X152.928 Y115.190 E0.05485
G1 X152.091 Y115.310 E0.05793
G1 X70.854 Y115.311 E5.56143
G1 X69.890 Y115.134 E0.06709
G1 X69.427 Y114.949 E0.03417
G1 X68.987 Y114.693 E0.03480
G1 X68.216 Y113.983 E0.07177
G1 X67.747 Y113.310 E0.05616
G1 X67.475 Y112.604 E0.05178
G1 X67.343 Y111.792 E0.05629
G1 X67.343 Y68.545 E2.96069
G1 X67.502 Y67.644 E0.06264
G1 X67.860 Y66.827 E0.06105
G1 X68.202 Y66.374 E0.03886
G1 X68.605 Y65.970 E0.03909
G1 X69.369 Y65.420 E0.06447
G1 X70.117 Y65.144 E0.05456
G1 X70.865 Y65.030 E0.05177
G1 X159.184 Y65.035 E6.04630
G1 X160.265 Y65.277 E0.07586
G1 X161.231 Y65.840 E0.07653
G1 X161.765 Y66.374 E0.05167
G1 X162.103 Y66.822 E0.03844
G1 X162.449 Y67.592 E0.05782
G1 X162.603 Y68.323 E0.05109
G1 X162.620 Y75.434 E0.48684
G1 X162.380 Y76.523 E0.07636
G1 X161.969 Y77.308 E0.06067
G1 X161.312 Y78.010 E0.06580
G1 X160.605 Y78.477 E0.05803
G1 X159.849 Y78.748 E0.05497
G1 X159.081 Y78.844 E0.05302
G1 X155.726 Y78.849 E0.22968
G1 X155.285 Y78.374 F7200.000
G1 F2100
G1 X155.182 Y78.930 E0.03870
G1 X155.155 Y79.254 E0.02228
G1 X155.173 Y79.540 E0.01962
G1 X155.144 Y79.856 E0.02167
G1 X155.164 Y80.400 E0.03729
G1 X155.155 Y81.048 E0.04441
G1 X155.259 Y81.965 E0.06313
G1 X159.071 Y81.968 E0.26098
G1 X159.687 Y82.045 E0.04251
G1 X160.308 Y82.247 E0.04473
G1 X160.990 Y82.672 E0.05498
G1 X161.587 Y83.313 E0.05998
G1 X162.017 Y84.196 E0.06722
G1 X162.149 Y85.014 E0.05676
G1 X162.150 Y106.268 E1.45503
G1 X162.126 Y106.607 E0.02325
G1 X162.012 Y107.150 E0.03800
G1 X161.782 Y107.714 E0.04168
G1 X161.218 Y108.457 E0.06387
G1 X160.535 Y108.979 E0.05880
G1 X159.860 Y109.252 E0.04988
G1 X159.087 Y109.369 E0.05351
G1 X155.267 Y109.376 E0.26155
G1 X155.183 Y109.915 E0.03732
G1 X155.156 Y110.371 E0.03124
G1 X155.167 Y111.687 E0.09015
G1 X155.061 Y112.475 E0.05443
G1 X154.781 Y113.165 E0.05097
G1 X154.332 Y113.802 E0.05334
G1 X153.476 Y114.477 E0.07464
G1 X152.786 Y114.736 E0.05044
G1 X152.075 Y114.835 E0.04916
G1 X70.875 Y114.836 E5.55888
G1 X70.044 Y114.684 E0.05785
G1 X69.620 Y114.515 E0.03125
G1 X69.252 Y114.297 E0.02927
G1 X68.559 Y113.654 E0.06472
G1 X68.156 Y113.066 E0.04879
G1 X67.928 Y112.460 E0.04432
G1 X67.818 Y111.774 E0.04760
G1 X67.818 Y68.565 E2.95804
G1 X67.950 Y67.805 E0.05283
G1 X68.258 Y67.088 E0.05341
G1 X68.550 Y66.697 E0.03339
G1 X68.927 Y66.320 E0.03653
G1 X69.617 Y65.826 E0.05811
G1 X70.253 Y65.599 E0.04622
G1 X70.882 Y65.505 E0.04353
G1 X159.156 Y65.510 E6.04322
G1 X160.122 Y65.732 E0.06786
G1 X160.916 Y66.197 E0.06301
G1 X161.417 Y66.697 E0.04842
G1 X161.706 Y67.084 E0.03306
G1 X162.004 Y67.761 E0.05063
G1 X162.128 Y68.348 E0.04113
G1 X162.150 Y75.358 E0.47984
G1 X161.924 Y76.388 E0.07224
G1 X161.567 Y77.054 E0.05171
G1 X160.988 Y77.661 E0.05742
G1 X160.371 Y78.063 E0.05041
G1 X159.719 Y78.291 E0.04734
G1 X159.040 Y78.371 E0.04681
G1 X155.345 Y78.374 E0.25293
G1 X155.014 Y77.899 F7200.000
G1 F2100
G1 X154.806 Y78.355 E0.03427
G1 X154.711 Y78.867 E0.03564
G1 X154.679 Y79.249 E0.02629
G1 X154.698 Y79.550 E0.02060
G1 X154.669 Y79.839 E0.01992
G1 X154.690 Y80.399 E0.03835
G1 X154.679 Y81.081 E0.04671
G1 X154.729 Y81.434 E0.02439
G1 X154.732 Y81.656 E0.01518
G1 X154.807 Y82.049 E0.02738
G1 X155.021 Y82.440 E0.03052
G1 X159.030 Y82.441 E0.27443
G1 X159.563 Y82.504 E0.03676
G1 X160.132 Y82.689 E0.04096
G1 X160.708 Y83.054 E0.04666
G1 X161.213 Y83.608 E0.05128
G1 X161.555 Y84.307 E0.05331
G1 X161.674 Y85.034 E0.05043
G1 X161.675 Y106.259 E1.45307
G1 X161.654 Y106.557 E0.02042
G1 X161.562 Y106.997 E0.03076
G1 X161.381 Y107.458 E0.03390
G1 X160.899 Y108.104 E0.05518
G1 X160.326 Y108.551 E0.04979
G1 X159.710 Y108.800 E0.04550
G1 X159.037 Y108.896 E0.04648
G1 X155.047 Y108.902 E0.27322
G1 X154.854 Y109.201 E0.02434
G1 X154.778 Y109.427 E0.01632
G1 X154.710 Y109.865 E0.03034
G1 X154.681 Y110.359 E0.03393
G1 X154.694 Y111.646 E0.08805
G1 X154.609 Y112.327 E0.04699
G1 X154.352 Y112.960 E0.04679
G1 X153.966 Y113.498 E0.04532
G1 X153.271 Y114.047 E0.06066
G1 X152.691 Y114.270 E0.04251
G1 X152.058 Y114.360 E0.04382
G1 X70.897 Y114.361 E5.55625
G1 X70.195 Y114.233 E0.04881
G1 X69.844 Y114.096 E0.02579
G1 X69.516 Y113.902 E0.02607
G1 X68.903 Y113.326 E0.05761
G1 X68.589 Y112.869 E0.03798
G1 X68.392 Y112.358 E0.03746
G1 X68.293 Y111.754 E0.04191
G1 X68.293 Y68.587 E2.95522
G1 X68.412 Y67.915 E0.04668
G1 X68.656 Y67.348 E0.04227
G1 X68.898 Y67.020 E0.02790
G1 X69.250 Y66.668 E0.03407
G1 X69.812 Y66.260 E0.04754
G1 X70.350 Y66.065 E0.03917
G1 X70.901 Y65.980 E0.03816
G1 X159.131 Y65.984 E6.04018
G1 X159.918 Y66.162 E0.05527
G1 X160.604 Y66.556 E0.05412
G1 X161.068 Y67.020 E0.04496
G1 X161.308 Y67.344 E0.02762
G1 X161.546 Y67.886 E0.04050
G1 X161.654 Y68.376 E0.03436
G1 X161.675 Y75.332 E0.47616
G1 X161.469 Y76.249 E0.06438
G1 X161.168 Y76.795 E0.04265
G1 X160.668 Y77.309 E0.04910
G1 X160.142 Y77.646 E0.04281
G1 X159.592 Y77.833 E0.03972
G1 X159.027 Y77.896 E0.03895
G1 X155.074 Y77.899 E0.27062
G1 X154.880 Y77.455 F7200.000
G1 F2100
G1 X154.717 Y77.559 E0.01323
G1 X154.564 Y77.741 E0.01632
G1 X154.349 Y78.211 E0.03533
G1 X154.240 Y78.804 E0.04127
G1 X154.202 Y79.249 E0.03060
G1 X154.223 Y79.524 E0.01890
G1 X154.193 Y79.824 E0.02065
G1 X154.215 Y80.398 E0.03932
G1 X154.204 Y81.111 E0.04879
G1 X154.256 Y81.483 E0.02572
G1 X154.257 Y81.700 E0.01488
G1 X154.348 Y82.177 E0.03319
G1 X154.421 Y82.347 E0.01272
G1 X154.632 Y82.706 E0.02847
G1 X154.845 Y82.870 E0.01842
G1 X155.125 Y82.919 E0.01951
G1 X159.018 Y82.916 E0.26647
G1 X159.440 Y82.964 E0.02908
G1 X159.957 Y83.132 E0.03725
G1 X160.379 Y83.398 E0.03413
G1 X160.839 Y83.903 E0.04678
G1 X161.092 Y84.420 E0.03942
G1 X161.199 Y85.055 E0.04404
G1 X161.200 Y106.250 E1.45105
G1 X161.181 Y106.505 E0.01747
G1 X161.102 Y106.877 E0.02606
G1 X160.953 Y107.249 E0.02746
G1 X160.542 Y107.789 E0.04643
G1 X160.067 Y108.152 E0.04095
G1 X159.566 Y108.347 E0.03682
G1 X159.022 Y108.421 E0.03759
G1 X155.100 Y108.427 E0.26846
G1 X154.852 Y108.462 E0.01717
G1 X154.669 Y108.611 E0.01616
G1 X154.423 Y108.994 E0.03114
G1 X154.306 Y109.341 E0.02512
G1 X154.292 Y109.526 E0.01271
G1 X154.238 Y109.800 E0.01907
G1 X154.206 Y110.348 E0.03761
G1 X154.219 Y111.636 E0.08820
G1 X154.155 Y112.183 E0.03769
G1 X153.948 Y112.708 E0.03864
G1 X153.600 Y113.195 E0.04096
G1 X153.063 Y113.619 E0.04686
G1 X152.594 Y113.805 E0.03451
G1 X152.040 Y113.885 E0.03832
G1 X70.918 Y113.886 E5.55359
G1 X70.347 Y113.782 E0.03972
G1 X70.037 Y113.661 E0.02278
G1 X69.785 Y113.509 E0.02016
G1 X69.251 Y113.001 E0.05049
G1 X68.999 Y112.629 E0.03075
G1 X68.846 Y112.216 E0.03015
G1 X68.768 Y111.735 E0.03334
G1 X68.768 Y68.607 E2.95255
G1 X68.861 Y68.072 E0.03713
G1 X69.057 Y67.604 E0.03476
G1 X69.248 Y67.343 E0.02216
G1 X69.572 Y67.018 E0.03142
G1 X70.059 Y66.667 E0.04110
G1 X70.482 Y66.521 E0.03063
G1 X70.919 Y66.455 E0.03020
G1 X159.106 Y66.459 E6.03725
G1 X159.718 Y66.594 E0.04294
G1 X160.292 Y66.916 E0.04502
G1 X160.719 Y67.343 E0.04134
G1 X160.909 Y67.603 E0.02205
G1 X161.089 Y68.015 E0.03081
G1 X161.179 Y68.406 E0.02744
G1 X161.200 Y75.305 E0.47232
G1 X161.015 Y76.106 E0.05628
G1 X160.773 Y76.530 E0.03343
G1 X160.352 Y76.954 E0.04091
G1 X159.916 Y77.227 E0.03522
G1 X159.470 Y77.373 E0.03210
G1 X159.015 Y77.421 E0.03137
G1 X155.079 Y77.424 E0.26941
G1 X154.939 Y77.446 E0.00969
G1 X154.867 Y76.977 F7200.000
G1 F2100
G1 X154.710 Y77.001 E0.01086
G1 X154.401 Y77.197 E0.02505
G1 X154.159 Y77.486 E0.02580
G1 X153.901 Y78.049 E0.04245
G1 X153.823 Y78.376 E0.02298
G1 X153.767 Y78.754 E0.02615
G1 X153.725 Y79.253 E0.03427
G1 X153.748 Y79.501 E0.01707
G1 X153.717 Y79.810 E0.02123
G1 X153.740 Y80.398 E0.04029
G1 X153.729 Y81.141 E0.05087
G1 X153.783 Y81.530 E0.02693
G1 X153.782 Y81.742 E0.01447
G1 X153.891 Y82.316 E0.04002
G1 X153.996 Y82.562 E0.01833
G1 X154.245 Y82.986 E0.03368
G1 X154.450 Y83.190 E0.01975
G1 X154.707 Y83.328 E0.01997
G1 X155.084 Y83.394 E0.02623
G1 X159.006 Y83.391 E0.26850
G1 X159.323 Y83.424 E0.02179
G1 X159.738 Y83.554 E0.02973
G1 X160.056 Y83.749 E0.02558
G1 X160.433 Y84.151 E0.03775
G1 X160.631 Y84.539 E0.02980
G1 X160.724 Y85.076 E0.03729
G1 X160.726 Y106.241 E1.44897
G1 X160.709 Y106.451 E0.01442
G1 X160.643 Y106.754 E0.02126
G1 X160.527 Y107.037 E0.02091
G1 X160.190 Y107.470 E0.03757
G1 X159.814 Y107.749 E0.03205
G1 X159.428 Y107.892 E0.02817
G1 X159.007 Y107.946 E0.02910
G1 X155.067 Y107.952 E0.26973
G1 X154.755 Y107.996 E0.02153
G1 X154.565 Y108.078 E0.01421
G1 X154.307 Y108.295 E0.02306
G1 X153.992 Y108.786 E0.03995
G1 X153.835 Y109.251 E0.03357
G1 X153.823 Y109.451 E0.01375
G1 X153.766 Y109.739 E0.02009
G1 X153.731 Y110.336 E0.04096
G1 X153.744 Y111.629 E0.08848
G1 X153.701 Y112.040 E0.02831
G1 X153.518 Y112.504 E0.03414
G1 X153.237 Y112.887 E0.03255
G1 X152.855 Y113.190 E0.03337
G1 X152.446 Y113.352 E0.03008
G1 X152.025 Y113.410 E0.02915
G1 X70.939 Y113.411 E5.55109
G1 X70.494 Y113.331 E0.03095
G1 X70.263 Y113.242 E0.01696
G1 X70.053 Y113.117 E0.01672
G1 X69.599 Y112.677 E0.04330
G1 X69.432 Y112.432 E0.02028
G1 X69.310 Y112.112 E0.02348
G1 X69.243 Y111.714 E0.02758
G1 X69.243 Y68.626 E2.94979
G1 X69.311 Y68.225 E0.02789
G1 X69.460 Y67.856 E0.02725
G1 X69.598 Y67.664 E0.01616
G1 X69.897 Y67.365 E0.02891
G1 X70.253 Y67.102 E0.03035
G1 X70.580 Y66.986 E0.02373
G1 X70.938 Y66.930 E0.02482
G1 X159.078 Y66.934 E6.03402
G1 X159.578 Y67.048 E0.03512
G1 X159.979 Y67.274 E0.03149
G1 X160.369 Y67.664 E0.03775
G1 X160.506 Y67.856 E0.01617
G1 X160.642 Y68.177 E0.02389
G1 X160.710 Y68.483 E0.02139
G1 X160.726 Y75.277 E0.46513
G1 X160.562 Y75.957 E0.04787
G1 X160.383 Y76.257 E0.02399
G1 X160.040 Y76.595 E0.03294
