; generated by Slic3r 1.36.2-prusa3d-stable-win64 on 2017-09-06 at 23:41:40

; 

; external perimeters extrusion width = 0.45mm
; perimeters extrusion width = 0.47mm
; infill extrusion width = 0.45mm
; solid infill extrusion width = 0.45mm
; top infill extrusion width = 0.40mm
; first layer extrusion width = 0.47mm

M115 U3.0.12 ; tell printer latest fw version
M83  ; extruder relative mode
M104 S290 ; set extruder temp
M140 S115 ; set bed temp
M190 S115 ; wait for bed temp
M109 S290 ; wait for extruder temp
G28 W ; home all without mesh bed level
G80 ; mesh bed leveling
G1 Y-3.0 F1000.0 ; go outside pritn area
G1 X60.0 E9.0  F1000.0 ; intro line
G1 X100.0 E12.5  F1000.0 ; intro line
; Filament gcode
G21 ; set units to millimeters
G90 ; use absolute coordinates
M83 ; use relative distances for extrusion
; Layer 0
G1 E-0.80000 F2100.00000
G1 Z0.250 F7200.000
G1 X70.798 Y59.662 F7200.000
G1 E0.80000 F2100.00000
M204 S1000
G1 F1680
G1 X71.305 Y58.248 E0.06509
G1 X71.752 Y57.470 E0.03891
G1 X72.230 Y56.833 E0.03450
G1 X72.753 Y56.300 E0.03237
G1 X73.387 Y55.807 E0.03480
G1 X74.827 Y55.057 E0.07040
G1 X75.748 Y54.778 E0.04173
G1 X76.602 Y54.649 E0.03741
G1 X120.006 Y54.635 E1.88145
G1 X121.041 Y54.733 E0.04506
G1 X122.090 Y55.028 E0.04723
G1 X122.880 Y55.371 E0.03735
G1 X123.790 Y55.933 E0.04636
G1 X176.861 Y95.966 E2.88159
G1 X177.824 Y96.895 E0.05803
G1 X178.587 Y97.992 E0.05790
G1 X179.166 Y99.448 E0.06795
G1 X179.365 Y100.918 E0.06427
G1 X179.360 Y149.230 E2.09421
G1 X179.125 Y150.699 E0.06448
G1 X178.843 Y151.491 E0.03644
G1 X178.496 Y152.165 E0.03287
G1 X177.960 Y152.939 E0.04080
G1 X177.394 Y153.566 E0.03663
G1 X176.774 Y154.100 E0.03544
G1 X176.155 Y154.507 E0.03213
G1 X175.382 Y154.867 E0.03698
G1 X174.444 Y155.169 E0.04270
G1 X173.047 Y155.365 E0.06114
G1 X76.868 Y155.364 E4.16913
G1 X76.071 Y155.287 E0.03468
G1 X75.318 Y155.105 E0.03362
G1 X74.429 Y154.782 E0.04097
G1 X73.577 Y154.316 E0.04211
G1 X72.913 Y153.836 E0.03551
G1 X72.369 Y153.324 E0.03237
G1 X71.857 Y152.684 E0.03553
G1 X71.430 Y151.988 E0.03542
G1 X71.107 Y151.307 E0.03262
G1 X70.823 Y150.436 E0.03974
G1 X70.635 Y149.008 E0.06244
G1 X70.635 Y60.960 E3.81664
G1 X70.791 Y59.721 E0.05411
G1 F5760
G1 X71.305 Y58.248 E-0.54039
G1 F5760
G1 X71.621 Y57.698 E-0.21961
G1 E-0.04000 F2100.00000
G1 X124.425 Y96.566 F7200.000
G1 E0.80000 F2100.00000
G1 F1680
G1 X173.278 Y96.566 E2.11764
G1 X174.333 Y96.793 E0.04678
G1 X175.291 Y97.284 E0.04666
G1 X176.186 Y98.048 E0.05102
G1 X176.878 Y98.957 E0.04952
G1 X177.434 Y100.690 E0.07890
G1 X177.434 Y149.275 E2.10601
G1 X177.176 Y150.410 E0.05046
G1 X176.594 Y151.475 E0.05260
G1 X175.053 Y152.873 E0.09023
G1 X174.473 Y153.147 E0.02777
G1 X173.338 Y153.434 E0.05078
G1 X76.793 Y153.434 E4.18494
G1 X75.661 Y153.204 E0.05006
G1 X74.650 Y152.740 E0.04826
G1 X73.805 Y152.078 E0.04651
G1 X73.197 Y151.259 E0.04421
G1 X72.767 Y150.247 E0.04768
G1 X72.566 Y149.183 E0.04692
G1 X72.566 Y60.801 E3.83113
G1 X72.723 Y59.897 E0.03975
G1 X73.054 Y59.033 E0.04011
G1 X73.694 Y58.045 E0.05103
G1 X74.529 Y57.326 E0.04777
G1 X75.615 Y56.812 E0.05207
G1 X76.813 Y56.566 E0.05301
G1 X120.253 Y56.570 E1.88301
G1 X121.132 Y56.732 E0.03877
G1 X122.010 Y57.072 E0.04079
G1 X123.182 Y57.908 E0.06240
G1 X123.906 Y58.932 E0.05437
G1 X124.254 Y59.822 E0.04141
G1 X124.427 Y60.745 E0.04070
G1 X124.425 Y96.506 E1.55014
G1 X124.008 Y96.982 F7200.000
G1 F1680
G1 X173.255 Y96.983 E2.13470
G1 X174.216 Y97.193 E0.04265
G1 X175.076 Y97.641 E0.04204
G1 X175.897 Y98.349 E0.04697
G1 X176.525 Y99.179 E0.04513
G1 X177.017 Y100.722 E0.07021
G1 X177.017 Y149.250 E2.10357
G1 X176.777 Y150.286 E0.04610
G1 X176.247 Y151.242 E0.04737
G1 X174.845 Y152.511 E0.08197
G1 X174.348 Y152.749 E0.02388
G1 X173.311 Y153.017 E0.04647
G1 X76.814 Y153.017 E4.18288
G1 X75.811 Y152.815 E0.04434
G1 X74.884 Y152.395 E0.04413
G1 X74.120 Y151.805 E0.04183
G1 X73.570 Y151.071 E0.03979
G1 X73.171 Y150.145 E0.04367
G1 X72.983 Y149.163 E0.04336
G1 X72.983 Y60.820 E3.82945
G1 X73.129 Y59.991 E0.03649
G1 X73.435 Y59.204 E0.03660
G1 X73.990 Y58.338 E0.04457
G1 X74.735 Y57.689 E0.04285
G1 X75.725 Y57.214 E0.04759
G1 X76.834 Y56.983 E0.04912
G1 X120.233 Y56.987 E1.88121
G1 X121.035 Y57.137 E0.03539
G1 X121.832 Y57.450 E0.03711
G1 X122.909 Y58.225 E0.05751
G1 X123.528 Y59.108 E0.04673
G1 X123.848 Y59.918 E0.03778
G1 X124.014 Y60.802 E0.03898
G1 X124.008 Y96.922 E1.56569
G1 X123.592 Y97.398 F7200.000
G1 F1680
G1 X173.231 Y97.399 E2.15174
G1 X174.096 Y97.593 E0.03843
G1 X174.859 Y97.997 E0.03741
G1 X175.606 Y98.647 E0.04295
G1 X176.170 Y99.400 E0.04077
G1 X176.601 Y100.754 E0.06158
G1 X176.601 Y149.226 E2.10111
G1 X176.379 Y150.161 E0.04166
G1 X175.902 Y151.008 E0.04215
G1 X174.636 Y152.150 E0.07389
G1 X174.221 Y152.352 E0.02003
G1 X173.283 Y152.601 E0.04207
G1 X76.835 Y152.601 E4.18074
G1 X75.919 Y152.412 E0.04054
G1 X75.081 Y152.027 E0.04000
G1 X74.400 Y151.495 E0.03745
G1 X73.920 Y150.844 E0.03506
G1 X73.563 Y150.004 E0.03958
G1 X73.399 Y149.143 E0.03797
G1 X73.399 Y60.839 E3.82778
G1 X73.535 Y60.086 E0.03317
G1 X73.814 Y59.376 E0.03305
G1 X74.323 Y58.591 E0.04055
G1 X74.984 Y58.024 E0.03775
G1 X75.880 Y57.602 E0.04293
G1 X76.856 Y57.399 E0.04321
G1 X120.213 Y57.403 E1.87941
G1 X120.937 Y57.542 E0.03196
G1 X121.654 Y57.827 E0.03344
G1 X122.635 Y58.540 E0.05259
G1 X123.149 Y59.283 E0.03914
G1 X123.454 Y60.052 E0.03587
G1 X123.601 Y60.858 E0.03552
G1 X123.592 Y97.338 E1.58131
G1 X123.175 Y97.815 F7200.000
G1 F1680
G1 X173.209 Y97.815 E2.16882
G1 X173.929 Y97.975 E0.03196
G1 X174.606 Y98.329 E0.03313
G1 X175.287 Y98.916 E0.03896
G1 X175.816 Y99.622 E0.03825
G1 X176.185 Y100.786 E0.05293
G1 X176.185 Y149.200 E2.09862
G1 X175.982 Y150.032 E0.03712
G1 X175.558 Y150.771 E0.03693
G1 X174.426 Y151.790 E0.06604
G1 X174.090 Y151.956 E0.01622
G1 X173.254 Y152.185 E0.03756
G1 X76.856 Y152.185 E4.17860
G1 X76.071 Y152.024 E0.03473
G1 X75.276 Y151.659 E0.03793
G1 X74.716 Y151.223 E0.03077
G1 X74.292 Y150.656 E0.03068
G1 X73.968 Y149.901 E0.03562
G1 X73.815 Y149.123 E0.03438
G1 X73.815 Y60.857 E3.82609
G1 X73.930 Y60.219 E0.02811
G1 X74.194 Y59.547 E0.03129
G1 X74.620 Y58.884 E0.03415
G1 X75.188 Y58.388 E0.03271
G1 X76.035 Y57.989 E0.04056
G1 X76.877 Y57.815 E0.03727
G1 X120.192 Y57.819 E1.87760
G1 X120.836 Y57.947 E0.02847
G1 X121.475 Y58.204 E0.02986
G1 X122.315 Y58.808 E0.04487
G1 X122.772 Y59.461 E0.03453
G1 X123.048 Y60.150 E0.03218
G1 X123.185 Y60.878 E0.03210
G1 X123.175 Y97.755 E1.59851
G1 X122.759 Y98.231 F7200.000
G1 F1680
G1 X173.187 Y98.232 E2.18591
G1 X173.763 Y98.358 E0.02559
G1 X174.355 Y98.662 E0.02886
G1 X174.968 Y99.184 E0.03489
G1 X175.462 Y99.843 E0.03568
G1 X175.768 Y100.818 E0.04428
G1 X175.768 Y149.174 E2.09611
G1 X175.586 Y149.901 E0.03248
G1 X175.216 Y150.532 E0.03171
G1 X174.212 Y151.432 E0.05844
G1 X173.956 Y151.562 E0.01246
G1 X173.225 Y151.768 E0.03293
G1 X76.877 Y151.768 E4.17641
G1 X76.221 Y151.635 E0.02903
G1 X75.508 Y151.312 E0.03391
G1 X75.031 Y150.949 E0.02598
G1 X74.641 Y150.428 E0.02824
G1 X74.360 Y149.760 E0.03140
G1 X74.232 Y149.103 E0.02903
G1 X74.232 Y60.877 E3.82438
G1 X74.335 Y60.316 E0.02472
G1 X74.574 Y59.719 E0.02784
G1 X74.917 Y59.177 E0.02780
G1 X75.439 Y58.721 E0.03004
G1 X76.186 Y58.378 E0.03566
G1 X76.898 Y58.232 E0.03149
G1 X120.170 Y58.236 E1.87575
G1 X120.733 Y58.350 E0.02489
G1 X121.294 Y58.579 E0.02625
G1 X122.040 Y59.123 E0.04005
G1 X122.395 Y59.638 E0.02711
G1 X122.644 Y60.250 E0.02861
G1 X122.768 Y60.898 E0.02862
G1 X122.759 Y98.171 E1.61568
G1 X122.342 Y98.647 F7200.000
G1 F1680
G1 X173.165 Y98.648 E2.20302
G1 X173.601 Y98.742 E0.01933
G1 X174.105 Y98.996 E0.02447
G1 X174.679 Y99.485 E0.03272
G1 X175.106 Y100.062 E0.03108
G1 X175.352 Y100.849 E0.03574
G1 X175.352 Y149.149 E2.09367
G1 X175.212 Y149.716 E0.02533
G1 X174.873 Y150.293 E0.02897
G1 X173.996 Y151.075 E0.05097
G1 X173.817 Y151.169 E0.00875
G1 X173.194 Y151.352 E0.02814
G1 X76.898 Y151.352 E4.17418
G1 X76.369 Y151.245 E0.02340
G1 X75.736 Y150.963 E0.03001
G1 X75.343 Y150.672 E0.02121
G1 X75.013 Y150.239 E0.02361
G1 X74.763 Y149.656 E0.02748
G1 X74.648 Y149.082 E0.02539
G1 X74.648 Y60.897 E3.82258
G1 X74.740 Y60.415 E0.02125
G1 X74.952 Y59.895 E0.02436
G1 X75.250 Y59.429 E0.02396
G1 X75.684 Y59.059 E0.02475
G1 X76.334 Y58.767 E0.03088
G1 X76.918 Y58.648 E0.02584
G1 X120.148 Y58.652 E1.87388
G1 X120.627 Y58.753 E0.02122
G1 X121.112 Y58.954 E0.02278
G1 X121.720 Y59.392 E0.03246
G1 X122.018 Y59.818 E0.02254
G1 X122.250 Y60.387 E0.02667
G1 X122.352 Y60.918 E0.02340
G1 X122.343 Y98.587 E1.63288
G1 X121.926 Y99.064 F7200.000
G1 F1680
G1 X173.144 Y99.064 E2.22015
G1 X173.442 Y99.127 E0.01321
G1 X173.858 Y99.332 E0.02010
G1 X174.360 Y99.753 E0.02841
G1 X174.750 Y100.281 E0.02845
G1 X174.936 Y100.880 E0.02718
G1 X174.936 Y149.121 E2.09114
G1 X174.817 Y149.581 E0.02056
G1 X174.534 Y150.050 E0.02373
G1 X173.775 Y150.722 E0.04397
G1 X173.671 Y150.778 E0.00511
G1 X173.161 Y150.936 E0.02314
G1 X76.918 Y150.936 E4.17188
G1 X76.514 Y150.854 E0.01786
G1 X75.959 Y150.611 E0.02627
G1 X75.651 Y150.390 E0.01644
G1 X75.385 Y150.049 E0.01876
G1 X75.155 Y149.512 E0.02532
G1 X75.064 Y149.061 E0.01993
G1 X75.064 Y60.918 E3.82077
G1 X75.144 Y60.518 E0.01769
G1 X75.330 Y60.070 E0.02103
G1 X75.549 Y59.720 E0.01788
G1 X75.885 Y59.425 E0.01937
G1 X76.483 Y59.156 E0.02845
G1 X76.939 Y59.064 E0.02014
G1 X120.126 Y59.068 E1.87203
G1 X120.485 Y59.145 E0.01592
G1 X120.932 Y59.331 E0.02100
G1 X121.403 Y59.663 E0.02498
G1 X121.643 Y60.000 E0.01795
G1 X121.846 Y60.490 E0.02298
G1 X121.936 Y60.939 E0.01983
G1 X121.926 Y99.004 E1.65001
G1 X121.510 Y99.480 F7200.000
G1 F1680
G1 X173.123 Y99.481 E2.23731
G1 X173.288 Y99.515 E0.00728
G1 X173.612 Y99.669 E0.01555
G1 X174.072 Y100.055 E0.02606
G1 X174.393 Y100.497 E0.02365
G1 X174.519 Y100.910 E0.01876
G1 X174.519 Y149.092 E2.08855
G1 X174.424 Y149.439 E0.01559
G1 X174.199 Y149.802 E0.01853
G1 X173.547 Y150.374 E0.03759
G1 X173.126 Y150.519 E0.01927
G1 X76.939 Y150.519 E4.16948
G1 X76.658 Y150.463 E0.01240
G1 X76.176 Y150.256 E0.02277
G1 X75.953 Y150.103 E0.01170
G1 X75.755 Y149.857 E0.01366
G1 X75.546 Y149.368 E0.02306
G1 X75.481 Y149.041 E0.01447
G1 X75.481 Y60.939 E3.81900
G1 X75.537 Y60.658 E0.01238
G1 X75.707 Y60.246 E0.01933
G1 X75.882 Y59.972 E0.01408
G1 X76.127 Y59.765 E0.01394
G1 X76.627 Y59.547 E0.02364
G1 X76.959 Y59.481 E0.01467
G1 X120.103 Y59.485 E1.87015
G1 X120.342 Y59.537 E0.01062
G1 X120.754 Y59.707 E0.01930
G1 X121.090 Y59.939 E0.01769
G1 X121.269 Y60.184 E0.01316
G1 X121.454 Y60.630 E0.02096
G1 X121.519 Y60.959 E0.01452
G1 X121.510 Y99.420 E1.66717
G1 X121.093 Y99.896 F7200.000
G1 F1680
G1 X173.103 Y99.897 E2.25450
G1 X173.367 Y100.007 E0.01239
G1 X173.783 Y100.356 E0.02353
G1 X174.033 Y100.708 E0.01872
G1 X174.103 Y100.941 E0.01051
G1 X174.103 Y149.060 E2.08585
G1 X174.035 Y149.289 E0.01034
G1 X173.867 Y149.549 E0.01343
G1 X173.320 Y150.020 E0.03131
G1 X173.088 Y150.103 E0.01067
G1 X76.959 Y150.103 E4.16693
G1 X76.800 Y150.071 E0.00705
G1 X76.393 Y149.900 E0.01910
G1 X76.219 Y149.780 E0.00918
G1 X76.105 Y149.630 E0.00817
G1 X75.939 Y149.229 E0.01882
G1 X75.897 Y149.020 E0.00922
G1 X75.897 Y60.959 E3.81723
G1 X75.929 Y60.799 E0.00708
G1 X76.086 Y60.419 E0.01781
G1 X76.185 Y60.259 E0.00816
G1 X76.326 Y60.132 E0.00823
G1 X76.773 Y59.938 E0.02109
G1 X76.980 Y59.897 E0.00915
G1 X120.079 Y59.901 E1.86825
G1 X120.199 Y59.928 E0.00532
G1 X120.577 Y60.085 E0.01775
G1 X120.782 Y60.221 E0.01067
G1 X120.895 Y60.370 E0.00810
G1 X121.061 Y60.771 E0.01882
G1 X121.103 Y60.980 E0.00922
G1 X121.093 Y99.836 E1.68434
G1 X120.677 Y100.313 F7200.000
G1 F1680
G1 X173.041 Y100.314 E2.26987
G1 X173.127 Y100.349 E0.00399
G1 X173.492 Y100.656 E0.02070
G1 X173.670 Y100.915 E0.01362
G1 X173.686 Y100.970 E0.00248
G1 X173.687 Y149.030 E2.08328
G1 X173.669 Y149.088 E0.00261
G1 X173.533 Y149.298 E0.01086
G1 X173.125 Y149.652 E0.02341
G1 X173.041 Y149.687 E0.00392
G1 X76.980 Y149.687 E4.16403
G1 X76.596 Y149.536 E0.01785
G1 X76.514 Y149.484 E0.00422
G1 X76.476 Y149.439 E0.00255
G1 X76.331 Y149.089 E0.01644
G1 X76.313 Y149.000 E0.00392
G1 X76.314 Y60.979 E3.81545
G1 X76.464 Y60.596 E0.01785
G1 X76.516 Y60.514 E0.00422
G1 X76.561 Y60.476 E0.00255
G1 X76.911 Y60.331 E0.01643
G1 X77.000 Y60.314 E0.00392
G1 X120.020 Y60.314 E1.86482
G1 X120.404 Y60.464 E0.01785
G1 X120.486 Y60.516 E0.00422
G1 X120.524 Y60.561 E0.00255
G1 X120.669 Y60.911 E0.01643
G1 X120.686 Y61.000 E0.00391
G1 X120.677 Y100.253 E1.70150
G1 X120.233 Y100.767 F7200.000
G1 F1260
G1 X172.916 Y100.757 E2.28365
G1 X173.183 Y100.976 E0.01498
G1 X173.243 Y101.069 E0.00482
G1 X173.243 Y148.931 E2.07466
G1 X173.183 Y149.024 E0.00482
G1 X172.916 Y149.243 E0.01498
G1 X77.048 Y149.243 E4.15560
G1 X76.838 Y149.153 E0.00993
G1 X76.757 Y148.954 E0.00932
G1 X76.757 Y61.047 E3.81054
G1 X76.842 Y60.840 E0.00970
G1 X77.046 Y60.757 E0.00954
G1 X119.953 Y60.757 E1.85991
G1 X120.160 Y60.842 E0.00970
G1 X120.243 Y61.046 E0.00954
G1 X120.233 Y100.707 E1.71918
G1 X120.234 Y101.167 F7200.000
G1 X119.817 Y101.183 F7200.000
G1 F1680
G1 X172.827 Y101.173 E2.29785
G1 X172.827 Y148.827 E2.06567
G1 X77.173 Y148.827 E4.14635
G1 X77.173 Y61.173 E3.79956
G1 X119.827 Y61.173 E1.84893
G1 X119.817 Y101.123 E1.73173
G1 X119.400 Y101.599 F7200.000
G1 F1680
G1 X172.411 Y101.589 E2.29785
G1 X172.411 Y148.411 E2.02957
G1 X77.589 Y148.411 E4.11025
G1 X77.589 Y61.589 E3.76347
G1 X119.410 Y61.589 E1.81283
G1 X119.400 Y101.539 E1.73173
G1 F5760
G1 X121.595 Y101.542 E-0.76000
G1 E-0.04000 F2100.00000
G1 X162.847 Y138.847 F7200.000
G1 E0.80000 F2100.00000
G1 F840
G1 X163.332 Y138.476 E0.02645
G1 X163.895 Y138.242 E0.02645
G1 X164.500 Y138.163 E0.02645
G1 X165.105 Y138.242 E0.02645
G1 X165.669 Y138.476 E0.02645
G1 X166.153 Y138.847 E0.02645
G1 X166.524 Y139.331 E0.02645
G1 X166.758 Y139.895 E0.02645
G1 X166.837 Y140.500 E0.02645
G1 X166.758 Y141.105 E0.02645
G1 X166.524 Y141.669 E0.02645
G1 X166.153 Y142.153 E0.02645
G1 X165.669 Y142.524 E0.02645
G1 X165.105 Y142.758 E0.02645
G1 X164.500 Y142.837 E0.02645
G1 X163.895 Y142.758 E0.02645
G1 X163.331 Y142.524 E0.02645
G1 X162.847 Y142.153 E0.02645
G1 X162.476 Y141.669 E0.02645
G1 X162.243 Y141.105 E0.02645
G1 X162.163 Y140.496 E0.02660
G1 X162.243 Y139.895 E0.02629
G1 X162.476 Y139.331 E0.02645
G1 X162.811 Y138.895 E0.02385
G1 X162.744 Y138.461 F7200.000
G1 X162.551 Y138.550 F7200.000
G1 F840
G1 X163.122 Y138.112 E0.03120
G1 X163.786 Y137.837 E0.03120
G1 X164.500 Y137.743 E0.03120
G1 X165.214 Y137.837 E0.03120
G1 X165.879 Y138.112 E0.03120
G1 X166.450 Y138.550 E0.03120
G1 X166.888 Y139.121 E0.03120
G1 X167.163 Y139.786 E0.03120
G1 X167.257 Y140.500 E0.03120
G1 X167.163 Y141.214 E0.03120
G1 X166.888 Y141.879 E0.03120
G1 X166.450 Y142.450 E0.03120
G1 X165.879 Y142.888 E0.03120
G1 X165.214 Y143.163 E0.03120
G1 X164.500 Y143.257 E0.03120
G1 X163.786 Y143.163 E0.03120
G1 X163.122 Y142.888 E0.03120
G1 X162.551 Y142.450 E0.03120
G1 X162.112 Y141.879 E0.03120
G1 X161.837 Y141.213 E0.03122
G1 X161.744 Y140.496 E0.03135
G1 X161.837 Y139.786 E0.03103
G1 X162.112 Y139.121 E0.03120
G1 X162.514 Y138.598 E0.02860
G1 X162.254 Y138.253 F7200.000
G1 F840
G1 X162.912 Y137.749 E0.03595
G1 X163.678 Y137.431 E0.03595
G1 X164.500 Y137.323 E0.03595
G1 X165.322 Y137.431 E0.03595
G1 X166.089 Y137.749 E0.03595
G1 X166.747 Y138.254 E0.03595
G1 X167.252 Y138.911 E0.03595
G1 X167.569 Y139.678 E0.03595
G1 X167.677 Y140.500 E0.03595
G1 X167.569 Y141.322 E0.03595
G1 X167.251 Y142.089 E0.03595
G1 X166.747 Y142.747 E0.03595
G1 X166.089 Y143.251 E0.03595
G1 X165.322 Y143.569 E0.03595
G1 X164.500 Y143.677 E0.03595
G1 X163.678 Y143.569 E0.03595
G1 X162.912 Y143.251 E0.03595
G1 X162.254 Y142.747 E0.03595
G1 X161.749 Y142.089 E0.03595
G1 X161.431 Y141.322 E0.03599
G1 X161.324 Y140.496 E0.03610
G1 X161.431 Y139.678 E0.03577
G1 X161.749 Y138.911 E0.03595
G1 X162.217 Y138.301 E0.03335
G1 F5760
G1 X162.912 Y137.749 E-0.30739
G1 F5760
G1 X163.678 Y137.431 E-0.28724
G1 F5760
G1 X164.151 Y137.369 E-0.16537
G1 E-0.04000 F2100.00000
G1 X88.837 Y140.000 F7200.000
G1 E0.80000 F2100.00000
G1 F840
G1 X88.741 Y140.734 E0.03210
G1 X88.457 Y141.419 E0.03211
