; generated by Slic3r 1.37.1-prusa3d-win64 on 2017-09-24 at 11:48:19

; 

; external perimeters extrusion width = 0.43mm
; perimeters extrusion width = 0.45mm
; infill extrusion width = 0.50mm
; solid infill extrusion width = 0.43mm
; top infill extrusion width = 0.42mm

M107 ; disable fan
M115 U3.0.12 ; tell printer latest fw version
M83  ; extruder relative mode
M104 S150
M140 S115 ; set bed temp
G28 W ; home all without mesh bed level
G0 Z80 F1000 ; go above the bed to keep PINDA cool
M190 S115 ; wait for bed temp
M104 S290 ; set extruder temp
G80 ; mesh bed leveling homes the head
G0 Z80 F1000 ; go higher to allow switch lock
M109 S290 ; wait for extruder temp
M0 Click when done retracting
G0 Z0 Y-3.0 F1000 ; go outside print area
G1 X60.0 E9.0 ; intro line
G1 X100.0 E12.5 ; intro line
; Filament gcode
G21 ; set units to millimeters
G90 ; use absolute coordinates
M83 ; use relative distances for extrusion
; Layer 0
G1 E-0.80000 F2100.00000 ; retract
G1 Z0.200 F7200.000 ; move to next layer (0)
G1 X71.069 Y31.884 F7200.000 ; move to first skirt point
G1 E0.80000 F2100.00000 ; unretract
M204 S1000 ; adjust acceleration
G1 F1680
G1 X72.207 Y30.905 E0.05133 ; skirt
G1 X73.047 Y30.421 E0.03313 ; skirt
G1 X73.786 Y30.120 E0.02727 ; skirt
G1 X74.716 Y29.871 E0.03292 ; skirt
G1 X75.700 Y29.775 E0.03380 ; skirt
G1 X173.758 Y29.774 E3.35236 ; skirt
G1 X174.934 Y29.897 E0.04041 ; skirt
G1 X176.108 Y30.258 E0.04197 ; skirt
G1 X177.262 Y30.873 E0.04471 ; skirt
G1 X178.140 Y31.565 E0.03822 ; skirt
G1 X178.889 Y32.448 E0.03960 ; skirt
G1 X179.523 Y33.558 E0.04370 ; skirt
G1 X179.924 Y34.725 E0.04217 ; skirt
G1 X180.087 Y35.834 E0.03832 ; skirt
G1 X180.165 Y60.754 E0.85195 ; skirt
G1 X180.089 Y94.344 E1.14835 ; skirt
G1 X179.878 Y95.666 E0.04577 ; skirt
G1 X179.321 Y97.058 E0.05128 ; skirt
G1 X178.432 Y98.352 E0.05366 ; skirt
G1 X177.306 Y99.317 E0.05071 ; skirt
G1 X176.465 Y99.800 E0.03315 ; skirt
G1 X175.725 Y100.101 E0.02732 ; skirt
G1 X174.801 Y100.348 E0.03269 ; skirt
G1 X173.817 Y100.444 E0.03380 ; skirt
G1 X75.678 Y100.444 E3.35511 ; skirt
G1 X74.297 Y100.256 E0.04764 ; skirt
G1 X72.870 Y99.706 E0.05230 ; skirt
G1 X71.538 Y98.803 E0.05501 ; skirt
G1 X70.554 Y97.661 E0.05154 ; skirt
G1 X70.076 Y96.832 E0.03272 ; skirt
G1 X69.775 Y96.099 E0.02708 ; skirt
G1 X69.525 Y95.180 E0.03256 ; skirt
G1 X69.424 Y94.208 E0.03342 ; skirt
G1 X69.425 Y35.977 E1.99074 ; skirt
G1 X69.620 Y34.620 E0.04688 ; skirt
G1 X70.173 Y33.201 E0.05208 ; skirt
G1 X71.036 Y31.934 E0.05240 ; skirt
G1 F5760
G1 X72.207 Y30.905 E-0.54009 ; wipe and retract
G1 F5760
G1 X72.757 Y30.588 E-0.21991 ; wipe and retract
G1 E-0.04000 F2100.00000 ; retract
G1 X178.451 Y71.711 F7200.000 ; move to first brim point
G1 E0.80000 F2100.00000 ; unretract
G1 F1680
G1 X178.451 Y94.431 E0.77675 ; brim
G1 X177.968 Y96.117 E0.05997 ; brim
G1 X176.930 Y97.569 E0.06100 ; brim
G1 X175.869 Y98.289 E0.04384 ; brim
G1 X174.923 Y98.641 E0.03452 ; brim
G1 X173.947 Y98.802 E0.03383 ; brim
G1 X75.437 Y98.802 E3.36777 ; brim
G1 X73.751 Y98.319 E0.05997 ; brim
G1 X72.299 Y97.281 E0.06101 ; brim
G1 X71.579 Y96.220 E0.04384 ; brim
G1 X71.227 Y95.274 E0.03451 ; brim
G1 X71.066 Y94.298 E0.03382 ; brim
G1 X71.066 Y35.788 E2.00028 ; brim
G1 X71.549 Y34.102 E0.05996 ; brim
G1 X72.586 Y32.650 E0.06100 ; brim
G1 X73.648 Y31.930 E0.04385 ; brim
G1 X74.594 Y31.578 E0.03453 ; brim
G1 X75.570 Y31.417 E0.03382 ; brim
G1 X173.984 Y31.417 E3.36450 ; brim
G1 X175.165 Y31.653 E0.04116 ; brim
G1 X176.265 Y32.167 E0.04152 ; brim
G1 X177.180 Y32.901 E0.04008 ; brim
G1 X177.843 Y33.817 E0.03867 ; brim
G1 X178.260 Y34.838 E0.03770 ; brim
G1 X178.451 Y35.917 E0.03746 ; brim
G1 X178.451 Y58.509 E0.77235 ; brim
G1 X178.816 Y59.288 E0.02944 ; brim
G1 X179.033 Y60.304 E0.03551 ; brim
G1 X179.033 Y69.915 E0.32855 ; brim
G1 X178.816 Y70.931 E0.03552 ; brim
G1 X178.476 Y71.656 E0.02739 ; brim
G1 X178.044 Y71.568 F7200.000 ; move to first brim point
G1 F1680
G1 X178.044 Y94.402 E0.78060 ; brim
G1 X177.587 Y95.969 E0.05581 ; brim
G1 X176.623 Y97.300 E0.05620 ; brim
G1 X175.704 Y97.916 E0.03781 ; brim
G1 X174.835 Y98.243 E0.03173 ; brim
G1 X173.929 Y98.395 E0.03141 ; brim
G1 X75.466 Y98.395 E3.36618 ; brim
G1 X73.899 Y97.938 E0.05581 ; brim
G1 X72.568 Y96.974 E0.05621 ; brim
G1 X71.952 Y96.055 E0.03781 ; brim
G1 X71.625 Y95.186 E0.03173 ; brim
G1 X71.473 Y94.281 E0.03140 ; brim
G1 X71.473 Y35.818 E1.99869 ; brim
G1 X71.929 Y34.250 E0.05580 ; brim
G1 X72.894 Y32.919 E0.05621 ; brim
G1 X73.813 Y32.303 E0.03782 ; brim
G1 X74.682 Y31.976 E0.03174 ; brim
G1 X75.588 Y31.824 E0.03140 ; brim
G1 X173.963 Y31.824 E3.36321 ; brim
G1 X175.059 Y32.047 E0.03822 ; brim
G1 X176.068 Y32.524 E0.03817 ; brim
G1 X176.901 Y33.199 E0.03665 ; brim
G1 X177.497 Y34.033 E0.03504 ; brim
G1 X177.874 Y34.970 E0.03452 ; brim
G1 X178.044 Y35.935 E0.03349 ; brim
G1 X178.044 Y58.651 E0.77660 ; brim
G1 X178.123 Y58.765 E0.00477 ; brim
G1 X178.423 Y59.399 E0.02397 ; brim
G1 X178.626 Y60.327 E0.03247 ; brim
G1 X178.626 Y69.892 E0.32703 ; brim
G1 X178.423 Y70.820 E0.03247 ; brim
G1 X178.078 Y71.519 E0.02665 ; brim
G1 F5760
G1 X178.074 Y73.713 E-0.76000 ; wipe and retract
G1 E-0.04000 F2100.00000 ; retract
G1 X177.636 Y58.792 F7200.000 ; move to first brim point
G1 E0.80000 F2100.00000 ; unretract
G1 F1680
G1 X177.767 Y58.965 E0.00743 ; brim
G1 X178.032 Y59.512 E0.02075 ; brim
G1 X178.219 Y60.350 E0.02935 ; brim
G1 X178.219 Y69.870 E0.32546 ; brim
G1 X178.032 Y70.708 E0.02935 ; brim
G1 X177.767 Y71.254 E0.02075 ; brim
G1 X177.636 Y71.427 E0.00742 ; brim
G1 X177.637 Y94.372 E0.78441 ; brim
G1 X177.207 Y95.820 E0.05164 ; brim
G1 X176.365 Y96.984 E0.04912 ; brim
G1 X175.537 Y97.545 E0.03419 ; brim
G1 X174.747 Y97.845 E0.02890 ; brim
G1 X173.912 Y97.988 E0.02895 ; brim
G1 X75.496 Y97.988 E3.36456 ; brim
G1 X74.048 Y97.558 E0.05163 ; brim
G1 X72.884 Y96.716 E0.04913 ; brim
G1 X72.323 Y95.888 E0.03419 ; brim
G1 X72.023 Y95.098 E0.02889 ; brim
G1 X71.880 Y94.263 E0.02895 ; brim
G1 X71.880 Y35.848 E1.99707 ; brim
G1 X72.310 Y34.400 E0.05163 ; brim
G1 X73.152 Y33.236 E0.04912 ; brim
G1 X73.980 Y32.674 E0.03420 ; brim
G1 X74.770 Y32.374 E0.02891 ; brim
G1 X75.605 Y32.231 E0.02895 ; brim
G1 X173.942 Y32.231 E3.36188 ; brim
G1 X174.951 Y32.440 E0.03523 ; brim
G1 X175.871 Y32.881 E0.03486 ; brim
G1 X176.588 Y33.460 E0.03150 ; brim
G1 X177.130 Y34.210 E0.03163 ; brim
G1 X177.477 Y35.063 E0.03150 ; brim
G1 X177.636 Y35.953 E0.03090 ; brim
G1 X177.636 Y58.732 E0.77875 ; brim
G1 X177.229 Y58.939 F7200.000 ; move to first brim point
G1 F1680
G1 X177.412 Y59.166 E0.00998 ; brim
G1 X177.655 Y59.668 E0.01904 ; brim
G1 X177.811 Y60.372 E0.02466 ; brim
G1 X177.811 Y69.847 E0.32394 ; brim
G1 X177.655 Y70.552 E0.02467 ; brim
G1 X177.412 Y71.053 E0.01904 ; brim
G1 X177.229 Y71.280 E0.00998 ; brim
G1 X177.229 Y94.341 E0.78839 ; brim
G1 X176.828 Y95.667 E0.04737 ; brim
G1 X176.059 Y96.713 E0.04437 ; brim
G1 X175.370 Y97.173 E0.02833 ; brim
G1 X174.656 Y97.447 E0.02613 ; brim
G1 X173.894 Y97.581 E0.02646 ; brim
G1 X75.527 Y97.581 E3.36290 ; brim
G1 X74.201 Y97.179 E0.04737 ; brim
G1 X73.155 Y96.410 E0.04438 ; brim
G1 X72.695 Y95.721 E0.02833 ; brim
G1 X72.421 Y95.007 E0.02613 ; brim
G1 X72.287 Y94.245 E0.02646 ; brim
G1 X72.287 Y35.878 E1.99541 ; brim
G1 X72.689 Y34.552 E0.04736 ; brim
G1 X73.458 Y33.506 E0.04438 ; brim
G1 X74.147 Y33.046 E0.02833 ; brim
G1 X74.861 Y32.772 E0.02614 ; brim
G1 X75.623 Y32.639 E0.02646 ; brim
G1 X173.922 Y32.639 E3.36057 ; brim
G1 X174.800 Y32.819 E0.03065 ; brim
G1 X175.637 Y33.215 E0.03165 ; brim
G1 X176.276 Y33.723 E0.02792 ; brim
G1 X176.763 Y34.389 E0.02819 ; brim
G1 X177.081 Y35.158 E0.02846 ; brim
G1 X177.229 Y35.972 E0.02827 ; brim
G1 X177.229 Y58.879 E0.78313 ; brim
G1 X176.822 Y59.092 F7200.000 ; move to first brim point
G1 F1680
G1 X177.058 Y59.369 E0.01246 ; brim
G1 X177.278 Y59.823 E0.01725 ; brim
G1 X177.404 Y60.394 E0.01998 ; brim
G1 X177.404 Y69.825 E0.32243 ; brim
G1 X177.278 Y70.396 E0.01998 ; brim
G1 X177.058 Y70.850 E0.01725 ; brim
G1 X176.822 Y71.128 E0.01246 ; brim
G1 X176.822 Y94.312 E0.79260 ; brim
G1 X176.478 Y95.458 E0.04092 ; brim
G1 X175.800 Y96.397 E0.03959 ; brim
G1 X175.201 Y96.801 E0.02471 ; brim
G1 X174.529 Y97.060 E0.02464 ; brim
G1 X173.877 Y97.173 E0.02263 ; brim
G1 X75.557 Y97.173 E3.36130 ; brim
G1 X74.410 Y96.829 E0.04091 ; brim
G1 X73.471 Y96.151 E0.03960 ; brim
G1 X73.066 Y95.552 E0.02471 ; brim
G1 X72.808 Y94.880 E0.02463 ; brim
G1 X72.695 Y94.228 E0.02263 ; brim
G1 X72.694 Y35.908 E1.99381 ; brim
G1 X73.039 Y34.762 E0.04091 ; brim
G1 X73.717 Y33.823 E0.03959 ; brim
G1 X74.316 Y33.418 E0.02471 ; brim
G1 X74.988 Y33.159 E0.02465 ; brim
G1 X75.640 Y33.046 E0.02263 ; brim
G1 X173.900 Y33.046 E3.35924 ; brim
G1 X174.691 Y33.212 E0.02763 ; brim
G1 X175.439 Y33.571 E0.02834 ; brim
G1 X175.999 Y34.022 E0.02458 ; brim
G1 X176.418 Y34.605 E0.02456 ; brim
G1 X176.695 Y35.291 E0.02529 ; brim
G1 X176.822 Y35.990 E0.02428 ; brim
G1 X176.822 Y59.032 E0.78773 ; brim
G1 X176.415 Y59.250 F7200.000 ; move to first brim point
G1 F1680
G1 X176.705 Y59.574 E0.01488 ; brim
G1 X176.901 Y59.979 E0.01537 ; brim
G1 X176.997 Y60.416 E0.01529 ; brim
G1 X176.997 Y69.803 E0.32093 ; brim
G1 X176.901 Y70.240 E0.01529 ; brim
G1 X176.705 Y70.645 E0.01537 ; brim
G1 X176.415 Y70.969 E0.01488 ; brim
G1 X176.415 Y94.282 E0.79701 ; brim
G1 X176.126 Y95.251 E0.03457 ; brim
G1 X175.539 Y96.083 E0.03480 ; brim
G1 X175.030 Y96.431 E0.02107 ; brim
G1 X174.437 Y96.663 E0.02179 ; brim
G1 X173.858 Y96.766 E0.02009 ; brim
G1 X75.586 Y96.766 E3.35966 ; brim
G1 X74.617 Y96.477 E0.03457 ; brim
G1 X73.785 Y95.890 E0.03481 ; brim
G1 X73.437 Y95.381 E0.02107 ; brim
G1 X73.205 Y94.788 E0.02178 ; brim
G1 X73.102 Y94.209 E0.02009 ; brim
G1 X73.102 Y35.937 E1.99217 ; brim
G1 X73.391 Y34.968 E0.03457 ; brim
G1 X73.978 Y34.137 E0.03480 ; brim
G1 X74.487 Y33.788 E0.02108 ; brim
G1 X75.080 Y33.556 E0.02179 ; brim
G1 X75.659 Y33.453 E0.02009 ; brim
G1 X173.879 Y33.453 E3.35790 ; brim
G1 X174.540 Y33.590 E0.02306 ; brim
G1 X175.206 Y33.906 E0.02519 ; brim
G1 X175.687 Y34.286 E0.02097 ; brim
G1 X176.051 Y34.784 E0.02110 ; brim
G1 X176.299 Y35.387 E0.02230 ; brim
G1 X176.415 Y36.009 E0.02163 ; brim
G1 X176.415 Y59.190 E0.79249 ; brim
G1 X176.008 Y59.414 F7200.000 ; move to first brim point
G1 F1680
G1 X176.354 Y59.782 E0.01725 ; brim
G1 X176.524 Y60.134 E0.01339 ; brim
G1 X176.590 Y60.437 E0.01060 ; brim
G1 X176.590 Y69.782 E0.31945 ; brim
G1 X176.524 Y70.085 E0.01060 ; brim
G1 X176.354 Y70.437 E0.01339 ; brim
G1 X176.008 Y70.805 E0.01725 ; brim
G1 X176.008 Y94.251 E0.80154 ; brim
G1 X175.747 Y95.100 E0.03038 ; brim
G1 X175.276 Y95.770 E0.02799 ; brim
G1 X174.857 Y96.062 E0.01747 ; brim
G1 X174.342 Y96.267 E0.01892 ; brim
G1 X173.839 Y96.359 E0.01750 ; brim
G1 X75.617 Y96.359 E3.35794 ; brim
G1 X74.768 Y96.098 E0.03038 ; brim
G1 X74.098 Y95.627 E0.02800 ; brim
G1 X73.806 Y95.208 E0.01747 ; brim
G1 X73.601 Y94.694 E0.01892 ; brim
G1 X73.509 Y94.190 E0.01749 ; brim
G1 X73.509 Y35.968 E1.99045 ; brim
G1 X73.770 Y35.119 E0.03038 ; brim
G1 X74.241 Y34.449 E0.02800 ; brim
G1 X74.660 Y34.157 E0.01747 ; brim
G1 X75.175 Y33.952 E0.01893 ; brim
G1 X75.678 Y33.860 E0.01749 ; brim
G1 X173.859 Y33.860 E3.35654 ; brim
G1 X174.390 Y33.970 E0.01855 ; brim
G1 X174.977 Y34.243 E0.02212 ; brim
G1 X175.379 Y34.553 E0.01735 ; brim
G1 X175.686 Y34.965 E0.01759 ; brim
G1 X175.904 Y35.486 E0.01929 ; brim
G1 X176.008 Y36.029 E0.01891 ; brim
G1 X176.008 Y59.354 E0.79742 ; brim
G1 X175.601 Y59.584 F7200.000 ; move to first brim point
G1 F1680
G1 X176.003 Y59.991 E0.01957 ; brim
G1 X176.147 Y60.289 E0.01132 ; brim
G1 X176.183 Y60.459 E0.00591 ; brim
G1 X176.183 Y69.761 E0.31801 ; brim
G1 X176.147 Y69.930 E0.00591 ; brim
G1 X176.003 Y70.228 E0.01132 ; brim
G1 X175.601 Y70.636 E0.01957 ; brim
G1 X175.601 Y94.220 E0.80630 ; brim
G1 X175.393 Y94.897 E0.02422 ; brim
G1 X175.008 Y95.461 E0.02332 ; brim
G1 X174.680 Y95.695 E0.01377 ; brim
G1 X174.245 Y95.871 E0.01604 ; brim
G1 X173.819 Y95.952 E0.01483 ; brim
G1 X75.648 Y95.952 E3.35622 ; brim
G1 X74.971 Y95.744 E0.02422 ; brim
G1 X74.407 Y95.359 E0.02333 ; brim
G1 X74.173 Y95.031 E0.01377 ; brim
G1 X73.997 Y94.596 E0.01604 ; brim
G1 X73.916 Y94.170 E0.01483 ; brim
G1 X73.916 Y35.999 E1.98873 ; brim
G1 X74.124 Y35.322 E0.02422 ; brim
G1 X74.508 Y34.758 E0.02333 ; brim
G1 X74.837 Y34.524 E0.01377 ; brim
G1 X75.272 Y34.348 E0.01605 ; brim
G1 X75.698 Y34.267 E0.01483 ; brim
G1 X173.838 Y34.267 E3.35517 ; brim
G1 X174.243 Y34.350 E0.01411 ; brim
G1 X174.752 Y34.583 E0.01915 ; brim
G1 X175.074 Y34.823 E0.01374 ; brim
G1 X175.322 Y35.150 E0.01403 ; brim
G1 X175.509 Y35.587 E0.01625 ; brim
G1 X175.601 Y36.050 E0.01612 ; brim
G1 X175.601 Y59.524 E0.80251 ; brim
G1 X175.194 Y59.759 F7200.000 ; move to first brim point
G1 F1680
G1 X175.653 Y60.203 E0.02184 ; brim
G1 X175.776 Y60.478 E0.01029 ; brim
G1 X175.776 Y69.741 E0.31669 ; brim
G1 X175.653 Y70.016 E0.01029 ; brim
G1 X175.194 Y70.460 E0.02184 ; brim
G1 X175.194 Y94.187 E0.81116 ; brim
G1 X175.014 Y94.745 E0.02003 ; brim
G1 X174.738 Y95.155 E0.01691 ; brim
G1 X174.500 Y95.329 E0.01008 ; brim
G1 X174.145 Y95.476 E0.01315 ; brim
G1 X173.798 Y95.545 E0.01207 ; brim
G1 X75.681 Y95.545 E3.35438 ; brim
G1 X75.123 Y95.366 E0.02002 ; brim
G1 X74.713 Y95.089 E0.01691 ; brim
G1 X74.539 Y94.851 E0.01009 ; brim
G1 X74.392 Y94.496 E0.01315 ; brim
G1 X74.323 Y94.150 E0.01207 ; brim
G1 X74.323 Y36.032 E1.98688 ; brim
G1 X74.502 Y35.474 E0.02002 ; brim
G1 X74.779 Y35.064 E0.01691 ; brim
G1 X75.017 Y34.890 E0.01009 ; brim
G1 X75.372 Y34.743 E0.01315 ; brim
G1 X75.719 Y34.674 E0.01207 ; brim
G1 X173.818 Y34.674 E3.35376 ; brim
G1 X174.098 Y34.731 E0.00976 ; brim
G1 X174.527 Y34.923 E0.01606 ; brim
G1 X174.804 Y35.130 E0.01183 ; brim
G1 X174.978 Y35.368 E0.01008 ; brim
G1 X175.125 Y35.723 E0.01315 ; brim
G1 X175.194 Y36.070 E0.01207 ; brim
G1 X175.194 Y59.699 E0.80782 ; brim
G1 X174.787 Y60.073 F7200.000 ; move to first brim point
G1 F1680
G1 X175.029 Y60.166 E0.00888 ; brim
G1 X175.337 Y60.464 E0.01462 ; brim
G1 X175.369 Y60.540 E0.00283 ; brim
G1 X175.369 Y69.679 E0.31246 ; brim
G1 X175.337 Y69.756 E0.00283 ; brim
G1 X175.029 Y70.053 E0.01462 ; brim
G1 X174.787 Y70.147 E0.00888 ; brim
G1 X174.787 Y94.152 E0.82068 ; brim
G1 X174.638 Y94.588 E0.01575 ; brim
G1 X174.462 Y94.854 E0.01090 ; brim
G1 X174.318 Y94.964 E0.00620 ; brim
G1 X174.007 Y95.093 E0.01150 ; brim
G1 X173.778 Y95.138 E0.00798 ; brim
G1 X75.716 Y95.138 E3.35249 ; brim
G1 X75.280 Y94.989 E0.01575 ; brim
G1 X75.014 Y94.814 E0.01090 ; brim
G1 X74.904 Y94.669 E0.00620 ; brim
G1 X74.775 Y94.359 E0.01150 ; brim
G1 X74.730 Y94.130 E0.00798 ; brim
G1 X74.730 Y36.067 E1.98499 ; brim
G1 X74.878 Y35.631 E0.01575 ; brim
G1 X75.054 Y35.365 E0.01090 ; brim
G1 X75.199 Y35.255 E0.00620 ; brim
G1 X75.509 Y35.127 E0.01150 ; brim
G1 X75.738 Y35.081 E0.00798 ; brim
G1 X173.798 Y35.081 E3.35239 ; brim
G1 X173.956 Y35.113 E0.00551 ; brim
G1 X174.311 Y35.268 E0.01323 ; brim
G1 X174.502 Y35.404 E0.00802 ; brim
G1 X174.613 Y35.550 E0.00627 ; brim
G1 X174.741 Y35.861 E0.01150 ; brim
G1 X174.787 Y36.090 E0.00798 ; brim
G1 X174.787 Y60.013 E0.81786 ; brim
G1 X174.380 Y60.562 F7200.000 ; move to first brim point
G1 F1680
G1 X174.838 Y60.547 E0.01567 ; brim
G1 X174.962 Y60.667 E0.00590 ; brim
G1 X174.962 Y69.552 E0.30374 ; brim
G1 X174.838 Y69.672 E0.00590 ; brim
G1 X174.380 Y69.657 E0.01567 ; brim
G1 X174.380 Y94.113 E0.83610 ; brim
G1 X174.265 Y94.426 E0.01138 ; brim
G1 X174.176 Y94.564 E0.00560 ; brim
G1 X174.131 Y94.601 E0.00200 ; brim
G1 X173.870 Y94.709 E0.00966 ; brim
G1 X173.758 Y94.731 E0.00389 ; brim
G1 X75.755 Y94.731 E3.35048 ; brim
G1 X75.442 Y94.616 E0.01138 ; brim
G1 X75.304 Y94.527 E0.00560 ; brim
G1 X75.267 Y94.482 E0.00200 ; brim
G1 X75.159 Y94.221 E0.00966 ; brim
G1 X75.137 Y94.110 E0.00389 ; brim
G1 X75.137 Y36.106 E1.98299 ; brim
G1 X75.252 Y35.793 E0.01138 ; brim
G1 X75.340 Y35.656 E0.00560 ; brim
G1 X75.386 Y35.618 E0.00200 ; brim
G1 X75.647 Y35.510 E0.00966 ; brim
G1 X75.758 Y35.488 E0.00389 ; brim
G1 X173.817 Y35.496 E3.35234 ; brim
