; generated by Slic3r 1.37.1-prusa3d-win64 on 2017-09-24 at 17:34:28

; 

; external perimeters extrusion width = 0.43mm
; perimeters extrusion width = 0.45mm
; infill extrusion width = 0.50mm
; solid infill extrusion width = 0.50mm
; top infill extrusion width = 0.50mm
; first layer extrusion width = 0.45mm

M107 ; disable fan
M115 U3.0.12 ; tell printer latest fw version
M83  ; extruder relative mode
M104 S150
M140 S115 ; set bed temp
G28 W ; home all without mesh bed level
G0 Z80 F1000 ; go above the bed to keep PINDA cool
M190 S115 ; wait for bed temp
M104 S290 ; set extruder temp
G80 ; mesh bed leveling homes the head
G0 Z80 F1000 ; go higher to allow switch lock
M109 S290 ; wait for extruder temp
M0 Click when done retracting
G0 Z0 Y-3.0 F1000 ; go outside print area
G1 X60.0 E9.0 ; intro line
G1 X100.0 E12.5 ; intro line
; Filament gcode
G21 ; set units to millimeters
G90 ; use absolute coordinates
M83 ; use relative distances for extrusion
; Layer 0
G1 E-0.80000 F2100.00000 ; retract
G1 Z0.200 F7200.000 ; move to next layer (0)
G1 X60.361 Y85.171 F7200.000 ; move to first skirt point
G1 E0.80000 F2100.00000 ; unretract
M204 S1000 ; adjust acceleration
G1 F1680
G1 X60.102 Y83.535 E0.05607 ; skirt
G1 X60.100 Y80.258 E0.11090 ; skirt
G1 X60.181 Y79.384 E0.02970 ; skirt
G1 X60.363 Y78.543 E0.02914 ; skirt
G1 X60.699 Y77.664 E0.03184 ; skirt
G1 X61.061 Y76.986 E0.02603 ; skirt
G1 X61.548 Y76.312 E0.02815 ; skirt
G1 X82.066 Y55.742 E0.98343 ; skirt
G1 X83.287 Y54.821 E0.05175 ; skirt
G1 X84.692 Y54.216 E0.05179 ; skirt
G1 X85.465 Y54.044 E0.02681 ; skirt
G1 X86.488 Y53.953 E0.03475 ; skirt
G1 X164.512 Y53.953 E2.64102 ; skirt
G1 X165.732 Y54.074 E0.04149 ; skirt
G1 X166.731 Y54.357 E0.03514 ; skirt
G1 X167.813 Y54.874 E0.04059 ; skirt
G1 X168.837 Y55.640 E0.04331 ; skirt
G1 X189.053 Y75.846 E0.96747 ; skirt
G1 X189.850 Y76.830 E0.04286 ; skirt
G1 X190.222 Y77.470 E0.02506 ; skirt
G1 X190.557 Y78.265 E0.02922 ; skirt
G1 X190.869 Y79.671 E0.04873 ; skirt
G1 X190.913 Y83.417 E0.12679 ; skirt
G1 X190.819 Y84.424 E0.03426 ; skirt
G1 X190.523 Y85.544 E0.03920 ; skirt
G1 X189.910 Y86.801 E0.04733 ; skirt
G1 X189.072 Y87.855 E0.04558 ; skirt
G1 X188.045 Y88.698 E0.04496 ; skirt
G1 X187.410 Y89.068 E0.02487 ; skirt
G1 X186.595 Y89.414 E0.03000 ; skirt
G1 X185.196 Y89.723 E0.04848 ; skirt
G1 X140.916 Y94.752 E1.50848 ; skirt
G1 X107.857 Y94.765 E1.11901 ; skirt
G1 X65.180 Y89.627 E1.45498 ; skirt
G1 X64.412 Y89.412 E0.02700 ; skirt
G1 X63.520 Y89.027 E0.03289 ; skirt
G1 X62.883 Y88.638 E0.02526 ; skirt
G1 X62.134 Y88.043 E0.03238 ; skirt
G1 X61.615 Y87.491 E0.02565 ; skirt
G1 X61.045 Y86.708 E0.03279 ; skirt
G1 X60.385 Y85.226 E0.05492 ; skirt
G1 F5760
G1 X60.102 Y83.535 E-0.59385 ; wipe and retract
G1 F5760
G1 X60.102 Y83.055 E-0.16615 ; wipe and retract
G1 E-0.04000 F2100.00000 ; retract
G1 X169.778 Y75.086 F7200.000 ; move to first brim point
G1 E0.80000 F2100.00000 ; unretract
G1 F1680
G1 X184.708 Y75.089 E0.50537 ; brim
G1 X186.114 Y75.337 E0.04830 ; brim
G1 X187.382 Y75.940 E0.04754 ; brim
G1 X188.423 Y76.828 E0.04631 ; brim
G1 X189.146 Y77.853 E0.04247 ; brim
G1 X189.571 Y78.890 E0.03790 ; brim
G1 X189.765 Y80.000 E0.03814 ; brim
G1 X189.774 Y83.595 E0.12169 ; brim
G1 X189.624 Y84.635 E0.03557 ; brim
G1 X189.014 Y86.094 E0.05354 ; brim
G1 X188.040 Y87.279 E0.05191 ; brim
G1 X187.211 Y87.888 E0.03482 ; brim
G1 X186.181 Y88.362 E0.03837 ; brim
G1 X184.676 Y88.634 E0.05178 ; brim
G1 X151.237 Y88.635 E1.13187 ; brim
G1 X149.973 Y90.041 E0.06400 ; brim
G1 X147.057 Y92.042 E0.11970 ; brim
G1 X143.977 Y93.205 E0.11145 ; brim
G1 X140.709 Y93.632 E0.11158 ; brim
G1 X137.227 Y93.252 E0.11854 ; brim
G1 X133.969 Y92.049 E0.11756 ; brim
G1 X131.037 Y90.040 E0.12030 ; brim
G1 X129.780 Y88.635 E0.06384 ; brim
G1 X117.770 Y88.635 E0.40651 ; brim
G1 X116.857 Y89.862 E0.05179 ; brim
G1 X114.175 Y91.970 E0.11547 ; brim
G1 X111.048 Y93.250 E0.11436 ; brim
G1 X107.661 Y93.629 E0.11538 ; brim
G1 X104.569 Y93.143 E0.10592 ; brim
G1 X101.719 Y91.900 E0.10526 ; brim
G1 X99.144 Y89.852 E0.11136 ; brim
G1 X98.241 Y88.635 E0.05130 ; brim
G1 X66.227 Y88.624 E1.08362 ; brim
G1 X64.746 Y88.336 E0.05108 ; brim
G1 X63.850 Y87.916 E0.03349 ; brim
G1 X63.069 Y87.366 E0.03231 ; brim
G1 X62.050 Y86.179 E0.05299 ; brim
G1 X61.423 Y84.757 E0.05260 ; brim
G1 X61.232 Y83.497 E0.04312 ; brim
G1 X61.232 Y80.207 E0.11138 ; brim
G1 X61.456 Y78.841 E0.04685 ; brim
G1 X62.069 Y77.510 E0.04960 ; brim
G1 X62.892 Y76.519 E0.04362 ; brim
G1 X63.894 Y75.779 E0.04215 ; brim
G1 X65.092 Y75.280 E0.04391 ; brim
G1 X66.362 Y75.086 E0.04352 ; brim
G1 X81.234 Y75.086 E0.50339 ; brim
G1 X81.264 Y59.843 E0.51597 ; brim
G1 X81.536 Y58.587 E0.04348 ; brim
G1 X81.952 Y57.701 E0.03314 ; brim
G1 X82.501 Y56.923 E0.03224 ; brim
G1 X83.685 Y55.905 E0.05285 ; brim
G1 X85.110 Y55.276 E0.05273 ; brim
G1 X86.372 Y55.086 E0.04318 ; brim
G1 X164.675 Y55.088 E2.65048 ; brim
G1 X165.720 Y55.228 E0.03567 ; brim
G1 X166.757 Y55.588 E0.03717 ; brim
G1 X167.978 Y56.388 E0.04943 ; brim
G1 X169.095 Y57.767 E0.06005 ; brim
G1 X169.607 Y59.019 E0.04580 ; brim
G1 X169.765 Y60.004 E0.03376 ; brim
G1 X169.778 Y75.026 E0.50847 ; brim
G1 X169.371 Y75.493 F7200.000 ; move to first brim point
G1 F1680
G1 X184.655 Y75.493 E0.51734 ; brim
G1 X186.015 Y75.733 E0.04674 ; brim
G1 X187.181 Y76.294 E0.04380 ; brim
G1 X188.137 Y77.119 E0.04274 ; brim
G1 X188.799 Y78.068 E0.03915 ; brim
G1 X189.174 Y78.982 E0.03347 ; brim
G1 X189.358 Y80.019 E0.03562 ; brim
G1 X189.367 Y83.580 E0.12057 ; brim
G1 X189.225 Y84.551 E0.03319 ; brim
G1 X188.680 Y85.859 E0.04797 ; brim
G1 X187.742 Y87.000 E0.04999 ; brim
G1 X186.988 Y87.547 E0.03153 ; brim
G1 X186.082 Y87.967 E0.03380 ; brim
G1 X184.657 Y88.227 E0.04903 ; brim
G1 X151.055 Y88.228 E1.13742 ; brim
G1 X149.722 Y89.720 E0.06772 ; brim
G1 X146.890 Y91.670 E0.11640 ; brim
G1 X143.900 Y92.805 E0.10824 ; brim
G1 X140.728 Y93.225 E0.10833 ; brim
G1 X137.345 Y92.861 E0.11517 ; brim
G1 X134.134 Y91.676 E0.11584 ; brim
G1 X131.289 Y89.719 E0.11689 ; brim
G1 X129.963 Y88.228 E0.06754 ; brim
G1 X117.564 Y88.228 E0.41970 ; brim
G1 X116.583 Y89.560 E0.05601 ; brim
G1 X113.993 Y91.605 E0.11168 ; brim
G1 X110.974 Y92.849 E0.11054 ; brim
G1 X107.696 Y93.223 E0.11167 ; brim
G1 X104.708 Y92.759 E0.10235 ; brim
G1 X101.906 Y91.538 E0.10345 ; brim
G1 X99.420 Y89.551 E0.10773 ; brim
G1 X98.448 Y88.228 E0.05558 ; brim
G1 X66.284 Y88.221 E1.08869 ; brim
G1 X64.894 Y87.956 E0.04791 ; brim
G1 X64.069 Y87.573 E0.03078 ; brim
G1 X63.325 Y87.049 E0.03080 ; brim
G1 X62.380 Y85.939 E0.04936 ; brim
G1 X61.807 Y84.620 E0.04865 ; brim
G1 X61.639 Y83.483 E0.03892 ; brim
G1 X61.639 Y80.224 E0.11031 ; brim
G1 X61.853 Y78.935 E0.04422 ; brim
G1 X62.400 Y77.748 E0.04422 ; brim
G1 X63.156 Y76.830 E0.04027 ; brim
G1 X64.076 Y76.144 E0.03884 ; brim
G1 X65.179 Y75.678 E0.04054 ; brim
G1 X66.378 Y75.493 E0.04107 ; brim
G1 X81.641 Y75.493 E0.51661 ; brim
G1 X81.667 Y59.906 E0.52760 ; brim
G1 X81.915 Y58.737 E0.04045 ; brim
G1 X82.295 Y57.920 E0.03050 ; brim
G1 X82.819 Y57.179 E0.03073 ; brim
G1 X83.925 Y56.235 E0.04923 ; brim
G1 X85.247 Y55.660 E0.04878 ; brim
G1 X86.386 Y55.493 E0.03897 ; brim
G1 X164.661 Y55.495 E2.64952 ; brim
G1 X165.644 Y55.629 E0.03356 ; brim
G1 X166.598 Y55.963 E0.03423 ; brim
G1 X167.727 Y56.710 E0.04581 ; brim
G1 X168.759 Y57.997 E0.05586 ; brim
G1 X169.209 Y59.108 E0.04055 ; brim
G1 X169.358 Y60.021 E0.03133 ; brim
G1 X169.371 Y75.433 E0.52168 ; brim
G1 X168.965 Y75.900 F7200.000 ; move to first brim point
G1 F1680
G1 X184.638 Y75.900 E0.53052 ; brim
G1 X185.866 Y76.113 E0.04219 ; brim
G1 X186.938 Y76.622 E0.04016 ; brim
G1 X187.818 Y77.374 E0.03919 ; brim
G1 X188.452 Y78.281 E0.03746 ; brim
G1 X188.788 Y79.115 E0.03042 ; brim
G1 X188.951 Y80.037 E0.03171 ; brim
G1 X188.960 Y83.567 E0.11950 ; brim
G1 X188.839 Y84.418 E0.02909 ; brim
G1 X188.316 Y85.673 E0.04602 ; brim
G1 X187.447 Y86.718 E0.04601 ; brim
G1 X186.767 Y87.204 E0.02830 ; brim
G1 X185.982 Y87.571 E0.02933 ; brim
G1 X184.639 Y87.820 E0.04625 ; brim
G1 X150.871 Y87.820 E1.14299 ; brim
G1 X149.470 Y89.399 E0.07145 ; brim
G1 X146.722 Y91.299 E0.11309 ; brim
G1 X143.822 Y92.405 E0.10503 ; brim
G1 X140.747 Y92.818 E0.10505 ; brim
G1 X137.413 Y92.459 E0.11347 ; brim
G1 X134.300 Y91.303 E0.11241 ; brim
G1 X131.541 Y89.398 E0.11349 ; brim
G1 X130.147 Y87.820 E0.07126 ; brim
G1 X117.356 Y87.820 E0.43295 ; brim
G1 X116.307 Y89.259 E0.06025 ; brim
G1 X113.811 Y91.240 E0.10789 ; brim
G1 X110.898 Y92.448 E0.10673 ; brim
G1 X107.731 Y92.816 E0.10793 ; brim
G1 X104.797 Y92.361 E0.10051 ; brim
G1 X102.095 Y91.176 E0.09987 ; brim
G1 X99.696 Y89.251 E0.10410 ; brim
G1 X98.656 Y87.820 E0.05988 ; brim
G1 X66.340 Y87.817 E1.09384 ; brim
G1 X65.040 Y87.575 E0.04475 ; brim
G1 X64.288 Y87.229 E0.02803 ; brim
G1 X63.581 Y86.731 E0.02926 ; brim
G1 X62.711 Y85.700 E0.04568 ; brim
G1 X62.192 Y84.486 E0.04469 ; brim
G1 X62.046 Y83.469 E0.03478 ; brim
G1 X62.046 Y80.241 E0.10926 ; brim
G1 X62.250 Y79.029 E0.04159 ; brim
G1 X62.732 Y77.985 E0.03892 ; brim
G1 X63.421 Y77.140 E0.03694 ; brim
G1 X64.259 Y76.508 E0.03552 ; brim
G1 X65.268 Y76.077 E0.03713 ; brim
G1 X66.394 Y75.900 E0.03859 ; brim
G1 X82.047 Y75.900 E0.52983 ; brim
G1 X82.069 Y59.968 E0.53928 ; brim
G1 X82.294 Y58.887 E0.03737 ; brim
G1 X82.656 Y58.109 E0.02905 ; brim
G1 X83.135 Y57.436 E0.02797 ; brim
G1 X84.164 Y56.566 E0.04561 ; brim
G1 X85.381 Y56.046 E0.04481 ; brim
G1 X86.400 Y55.900 E0.03483 ; brim
G1 X164.647 Y55.902 E2.64857 ; brim
G1 X165.567 Y56.029 E0.03143 ; brim
G1 X166.437 Y56.338 E0.03126 ; brim
G1 X167.473 Y57.030 E0.04217 ; brim
G1 X168.421 Y58.226 E0.05166 ; brim
G1 X168.811 Y59.196 E0.03538 ; brim
G1 X168.951 Y60.038 E0.02890 ; brim
G1 X168.965 Y75.840 E0.53487 ; brim
G1 X168.558 Y76.307 F7200.000 ; move to first brim point
G1 F1680
G1 X184.620 Y76.307 E0.54368 ; brim
G1 X185.767 Y76.509 E0.03942 ; brim
G1 X186.736 Y76.976 E0.03640 ; brim
G1 X187.532 Y77.664 E0.03561 ; brim
G1 X188.103 Y78.493 E0.03407 ; brim
G1 X188.402 Y79.245 E0.02740 ; brim
G1 X188.544 Y80.055 E0.02785 ; brim
G1 X188.553 Y83.553 E0.11840 ; brim
G1 X188.440 Y84.335 E0.02673 ; brim
G1 X187.983 Y85.438 E0.04043 ; brim
G1 X187.188 Y86.403 E0.04230 ; brim
G1 X186.546 Y86.862 E0.02672 ; brim
G1 X185.835 Y87.191 E0.02652 ; brim
G1 X184.620 Y87.413 E0.04180 ; brim
G1 X150.687 Y87.413 E1.14860 ; brim
G1 X149.218 Y89.079 E0.07519 ; brim
G1 X146.553 Y90.928 E0.10978 ; brim
G1 X143.744 Y92.004 E0.10180 ; brim
G1 X140.717 Y92.411 E0.10339 ; brim
G1 X137.483 Y92.057 E0.11011 ; brim
G1 X134.467 Y90.931 E0.10900 ; brim
G1 X131.793 Y89.078 E0.11009 ; brim
G1 X130.332 Y87.413 E0.07499 ; brim
G1 X117.148 Y87.413 E0.44627 ; brim
G1 X116.031 Y88.958 E0.06451 ; brim
G1 X113.627 Y90.875 E0.10409 ; brim
G1 X110.822 Y92.047 E0.10292 ; brim
G1 X107.765 Y92.410 E0.10420 ; brim
G1 X104.935 Y91.977 E0.09688 ; brim
G1 X102.283 Y90.814 E0.09803 ; brim
G1 X99.974 Y88.951 E0.10043 ; brim
G1 X98.864 Y87.413 E0.06419 ; brim
G1 X66.394 Y87.413 E1.09907 ; brim
G1 X65.187 Y87.194 E0.04154 ; brim
G1 X64.476 Y86.867 E0.02649 ; brim
G1 X63.839 Y86.415 E0.02643 ; brim
G1 X63.043 Y85.463 E0.04200 ; brim
G1 X62.578 Y84.354 E0.04072 ; brim
G1 X62.453 Y83.455 E0.03071 ; brim
G1 X62.453 Y80.258 E0.10821 ; brim
G1 X62.647 Y79.125 E0.03893 ; brim
G1 X63.064 Y78.221 E0.03370 ; brim
G1 X63.688 Y77.448 E0.03363 ; brim
G1 X64.445 Y76.871 E0.03221 ; brim
G1 X65.358 Y76.474 E0.03369 ; brim
G1 X66.411 Y76.307 E0.03607 ; brim
G1 X82.454 Y76.307 E0.54305 ; brim
G1 X82.472 Y60.029 E0.55100 ; brim
G1 X82.674 Y59.035 E0.03432 ; brim
G1 X82.999 Y58.329 E0.02631 ; brim
G1 X83.451 Y57.693 E0.02641 ; brim
G1 X84.401 Y56.898 E0.04192 ; brim
G1 X85.513 Y56.431 E0.04084 ; brim
G1 X86.414 Y56.307 E0.03076 ; brim
G1 X164.633 Y56.309 E2.64762 ; brim
G1 X165.489 Y56.429 E0.02927 ; brim
G1 X166.275 Y56.712 E0.02827 ; brim
G1 X167.218 Y57.349 E0.03854 ; brim
G1 X168.082 Y58.453 E0.04746 ; brim
G1 X168.413 Y59.286 E0.03032 ; brim
G1 X168.544 Y60.056 E0.02646 ; brim
G1 X168.558 Y76.247 E0.54805 ; brim
G1 X168.151 Y76.714 F7200.000 ; move to first brim point
G1 F1680
G1 X184.602 Y76.714 E0.55683 ; brim
G1 X185.666 Y76.904 E0.03661 ; brim
G1 X186.531 Y77.329 E0.03260 ; brim
G1 X187.243 Y77.952 E0.03203 ; brim
G1 X187.753 Y78.701 E0.03067 ; brim
G1 X188.015 Y79.373 E0.02441 ; brim
G1 X188.137 Y80.073 E0.02406 ; brim
G1 X188.146 Y83.539 E0.11730 ; brim
G1 X188.041 Y84.251 E0.02436 ; brim
G1 X187.648 Y85.205 E0.03493 ; brim
G1 X186.928 Y86.089 E0.03860 ; brim
G1 X186.357 Y86.501 E0.02382 ; brim
G1 X185.688 Y86.811 E0.02495 ; brim
G1 X184.602 Y87.006 E0.03733 ; brim
G1 X150.502 Y87.006 E1.15425 ; brim
G1 X148.964 Y88.759 E0.07894 ; brim
G1 X146.384 Y90.556 E0.10644 ; brim
G1 X143.621 Y91.616 E0.10015 ; brim
G1 X140.688 Y92.004 E0.10014 ; brim
G1 X137.554 Y91.656 E0.10676 ; brim
G1 X134.634 Y90.559 E0.10558 ; brim
G1 X132.047 Y88.759 E0.10668 ; brim
G1 X130.517 Y87.006 E0.07874 ; brim
G1 X116.938 Y87.006 E0.45964 ; brim
G1 X115.755 Y88.659 E0.06879 ; brim
G1 X113.443 Y90.511 E0.10028 ; brim
G1 X110.744 Y91.647 E0.09910 ; brim
G1 X107.799 Y92.003 E0.10043 ; brim
G1 X105.024 Y91.579 E0.09501 ; brim
G1 X102.473 Y90.453 E0.09439 ; brim
G1 X100.252 Y88.653 E0.09676 ; brim
G1 X99.074 Y87.006 E0.06852 ; brim
G1 X66.412 Y87.006 E1.10558 ; brim
G1 X65.333 Y86.813 E0.03710 ; brim
G1 X64.664 Y86.506 E0.02492 ; brim
G1 X64.097 Y86.099 E0.02360 ; brim
G1 X63.405 Y85.275 E0.03642 ; brim
G1 X62.977 Y84.270 E0.03700 ; brim
G1 X62.860 Y83.441 E0.02834 ; brim
G1 X62.860 Y80.275 E0.10716 ; brim
G1 X63.028 Y79.268 E0.03455 ; brim
G1 X63.399 Y78.454 E0.03027 ; brim
G1 X63.955 Y77.756 E0.03022 ; brim
G1 X64.671 Y77.211 E0.03047 ; brim
G1 X65.494 Y76.859 E0.03027 ; brim
G1 X66.426 Y76.714 E0.03193 ; brim
G1 X82.861 Y76.714 E0.55630 ; brim
G1 X82.876 Y60.088 E0.56279 ; brim
G1 X83.054 Y59.183 E0.03121 ; brim
G1 X83.361 Y58.518 E0.02480 ; brim
G1 X83.767 Y57.952 E0.02358 ; brim
G1 X84.589 Y57.261 E0.03635 ; brim
G1 X85.597 Y56.831 E0.03710 ; brim
G1 X86.428 Y56.714 E0.02839 ; brim
G1 X164.619 Y56.716 E2.64668 ; brim
G1 X165.371 Y56.819 E0.02570 ; brim
G1 X166.112 Y57.086 E0.02664 ; brim
G1 X166.961 Y57.666 E0.03482 ; brim
G1 X167.741 Y58.678 E0.04325 ; brim
G1 X168.016 Y59.375 E0.02537 ; brim
G1 X168.137 Y60.074 E0.02401 ; brim
G1 X168.151 Y76.654 E0.56121 ; brim
G1 X167.744 Y77.121 F7200.000 ; move to first brim point
G1 F1680
G1 X184.583 Y77.121 E0.56997 ; brim
G1 X185.564 Y77.299 E0.03374 ; brim
G1 X186.323 Y77.680 E0.02875 ; brim
G1 X186.953 Y78.239 E0.02847 ; brim
G1 X187.402 Y78.909 E0.02731 ; brim
G1 X187.618 Y79.464 E0.02018 ; brim
G1 X187.730 Y80.093 E0.02160 ; brim
G1 X187.739 Y83.524 E0.11615 ; brim
G1 X187.642 Y84.166 E0.02198 ; brim
G1 X187.312 Y84.974 E0.02952 ; brim
G1 X186.667 Y85.775 E0.03483 ; brim
G1 X186.135 Y86.159 E0.02218 ; brim
G1 X185.543 Y86.429 E0.02204 ; brim
G1 X184.585 Y86.599 E0.03294 ; brim
G1 X150.317 Y86.599 E1.15993 ; brim
G1 X148.710 Y88.440 E0.08271 ; brim
G1 X146.214 Y90.186 E0.10311 ; brim
G1 X143.544 Y91.215 E0.09687 ; brim
G1 X140.660 Y91.597 E0.09847 ; brim
G1 X137.625 Y91.254 E0.10338 ; brim
G1 X134.802 Y90.187 E0.10216 ; brim
G1 X132.301 Y88.440 E0.10327 ; brim
G1 X130.703 Y86.599 E0.08250 ; brim
G1 X116.727 Y86.599 E0.47307 ; brim
G1 X115.477 Y88.360 E0.07309 ; brim
G1 X113.258 Y90.148 E0.09647 ; brim
G1 X110.666 Y91.246 E0.09529 ; brim
G1 X107.831 Y91.596 E0.09667 ; brim
G1 X105.163 Y91.195 E0.09132 ; brim
G1 X102.662 Y90.092 E0.09253 ; brim
G1 X100.531 Y88.355 E0.09306 ; brim
G1 X99.285 Y86.599 E0.07287 ; brim
G1 X66.429 Y86.599 E1.11212 ; brim
G1 X65.477 Y86.432 E0.03273 ; brim
G1 X64.885 Y86.163 E0.02202 ; brim
G1 X64.356 Y85.784 E0.02200 ; brim
G1 X63.739 Y85.040 E0.03273 ; brim
G1 X63.363 Y84.139 E0.03304 ; brim
G1 X63.267 Y83.428 E0.02430 ; brim
G1 X63.267 Y80.291 E0.10617 ; brim
G1 X63.410 Y79.412 E0.03015 ; brim
G1 X63.758 Y78.647 E0.02844 ; brim
G1 X64.255 Y78.033 E0.02674 ; brim
G1 X64.895 Y77.552 E0.02708 ; brim
G1 X65.627 Y77.244 E0.02688 ; brim
G1 X66.441 Y77.121 E0.02785 ; brim
G1 X83.267 Y77.121 E0.56957 ; brim
