; generated by Slic3r 1.37.1-prusa3d-win64 on 2017-09-24 at 19:51:56

; 

; external perimeters extrusion width = 0.43mm
; perimeters extrusion width = 0.45mm
; infill extrusion width = 0.50mm
; solid infill extrusion width = 0.50mm
; top infill extrusion width = 0.50mm
; first layer extrusion width = 0.45mm

M107 ; disable fan
M115 U3.0.12 ; tell printer latest fw version
M83  ; extruder relative mode
M104 S150
M140 S115 ; set bed temp
G28 W ; home all without mesh bed level
G0 Z80 F1000 ; go above the bed to keep PINDA cool
M190 S115 ; wait for bed temp
M104 S290 ; set extruder temp
G80 ; mesh bed leveling homes the head
G0 Z80 F1000 ; go higher to allow switch lock
M109 S290 ; wait for extruder temp
M0 Click when done retracting
G0 Z0 Y-3.0 F1000 ; go outside print area
G1 X60.0 E9.0 ; intro line
G1 X100.0 E12.5 ; intro line
; Filament gcode
G21 ; set units to millimeters
G90 ; use absolute coordinates
M83 ; use relative distances for extrusion
; Layer 0
G1 E-0.80000 F2100.00000 ; retract
G1 Z0.200 F7200.000 ; move to next layer (0)
G1 X79.587 Y47.218 F7200.000 ; move to first skirt point
G1 E0.80000 F2100.00000 ; unretract
M204 S1000 ; adjust acceleration
G1 F1680
G1 X80.844 Y46.437 E0.05008 ; skirt
G1 X82.144 Y45.970 E0.04677 ; skirt
G1 X83.396 Y45.799 E0.04277 ; skirt
G1 X166.546 Y45.797 E2.81452 ; skirt
G1 X167.722 Y45.921 E0.04003 ; skirt
G1 X168.901 Y46.285 E0.04175 ; skirt
G1 X170.053 Y46.902 E0.04423 ; skirt
G1 X170.934 Y47.599 E0.03803 ; skirt
G1 X171.681 Y48.485 E0.03923 ; skirt
G1 X172.315 Y49.603 E0.04349 ; skirt
G1 X172.713 Y50.775 E0.04190 ; skirt
G1 X172.870 Y51.890 E0.03813 ; skirt
G1 X172.875 Y150.207 E3.32790 ; skirt
G1 X172.760 Y151.274 E0.03634 ; skirt
G1 X172.453 Y152.326 E0.03709 ; skirt
G1 X172.075 Y153.131 E0.03011 ; skirt
G1 X171.411 Y154.142 E0.04093 ; skirt
G1 X170.484 Y155.055 E0.04403 ; skirt
G1 X169.196 Y155.848 E0.05120 ; skirt
G1 X167.875 Y156.310 E0.04736 ; skirt
G1 X166.593 Y156.467 E0.04373 ; skirt
G1 X83.449 Y156.467 E2.81434 ; skirt
G1 X82.387 Y156.350 E0.03616 ; skirt
G1 X81.342 Y156.043 E0.03687 ; skirt
G1 X80.537 Y155.664 E0.03011 ; skirt
G1 X79.531 Y155.002 E0.04076 ; skirt
G1 X78.615 Y154.071 E0.04423 ; skirt
G1 X77.825 Y152.787 E0.05102 ; skirt
G1 X77.362 Y151.462 E0.04753 ; skirt
G1 X77.205 Y150.174 E0.04391 ; skirt
G1 X77.206 Y52.052 E3.32131 ; skirt
G1 X77.321 Y50.991 E0.03614 ; skirt
G1 X77.628 Y49.938 E0.03711 ; skirt
G1 X78.006 Y49.133 E0.03011 ; skirt
G1 X78.670 Y48.124 E0.04089 ; skirt
G1 X79.545 Y47.260 E0.04162 ; skirt
G1 F5760
G1 X80.844 Y46.437 E-0.53275 ; wipe and retract
G1 F5760
G1 X81.461 Y46.215 E-0.22725 ; wipe and retract
G1 E-0.04000 F2100.00000 ; retract
G1 X81.362 Y47.980 F7200.000 ; move to first brim point
G1 E0.80000 F2100.00000 ; unretract
G1 F1680
G1 X82.331 Y47.614 E0.03507 ; brim
G1 X83.351 Y47.440 E0.03502 ; brim
G1 X166.783 Y47.444 E2.82409 ; brim
G1 X167.738 Y47.611 E0.03281 ; brim
G1 X168.659 Y47.956 E0.03327 ; brim
G1 X169.720 Y48.680 E0.04351 ; brim
G1 X170.753 Y50.130 E0.06024 ; brim
G1 X171.233 Y51.812 E0.05921 ; brim
G1 X171.233 Y150.321 E3.33440 ; brim
G1 X171.072 Y151.297 E0.03349 ; brim
G1 X170.720 Y152.243 E0.03417 ; brim
G1 X170.102 Y153.197 E0.03850 ; brim
G1 X168.631 Y154.305 E0.06233 ; brim
G1 X166.862 Y154.825 E0.06240 ; brim
G1 X83.229 Y154.825 E2.83087 ; brim
G1 X81.810 Y154.460 E0.04961 ; brim
G1 X80.629 Y153.808 E0.04566 ; brim
G1 X80.390 Y153.588 E0.01099 ; brim
G1 X79.388 Y152.311 E0.05493 ; brim
G1 X79.022 Y151.342 E0.03506 ; brim
G1 X78.848 Y150.322 E0.03503 ; brim
G1 X78.848 Y51.821 E3.33415 ; brim
G1 X79.213 Y50.402 E0.04960 ; brim
G1 X79.865 Y49.221 E0.04566 ; brim
G1 X80.085 Y48.982 E0.01099 ; brim
G1 X81.315 Y48.017 E0.05291 ; brim
G1 X81.537 Y48.349 F7200.000 ; move to first brim point
G1 F1680
G1 X82.420 Y48.011 E0.03200 ; brim
G1 X83.369 Y47.847 E0.03257 ; brim
G1 X166.765 Y47.851 E2.82287 ; brim
G1 X167.648 Y48.008 E0.03034 ; brim
G1 X168.491 Y48.327 E0.03051 ; brim
G1 X169.460 Y48.995 E0.03984 ; brim
G1 X170.371 Y50.277 E0.05324 ; brim
G1 X170.826 Y51.841 E0.05514 ; brim
G1 X170.826 Y150.303 E3.33283 ; brim
G1 X170.674 Y151.209 E0.03110 ; brim
G1 X170.347 Y152.078 E0.03141 ; brim
G1 X169.781 Y152.944 E0.03501 ; brim
G1 X168.462 Y153.930 E0.05577 ; brim
G1 X166.832 Y154.418 E0.05759 ; brim
G1 X83.255 Y154.418 E2.82896 ; brim
G1 X81.938 Y154.073 E0.04611 ; brim
G1 X80.885 Y153.491 E0.04072 ; brim
G1 X80.698 Y153.321 E0.00855 ; brim
G1 X79.757 Y152.136 E0.05122 ; brim
G1 X79.419 Y151.253 E0.03200 ; brim
G1 X79.255 Y150.304 E0.03258 ; brim
G1 X79.255 Y51.847 E3.33265 ; brim
G1 X79.600 Y50.530 E0.04610 ; brim
G1 X80.182 Y49.477 E0.04073 ; brim
G1 X80.352 Y49.290 E0.00855 ; brim
G1 X81.490 Y48.386 E0.04920 ; brim
G1 F5760
G1 X82.420 Y48.011 E-0.34732 ; wipe and retract
G1 F5760
G1 X83.369 Y47.847 E-0.33331 ; wipe and retract
G1 F5760
G1 X83.598 Y47.847 E-0.07937 ; wipe and retract
G1 E-0.04000 F2100.00000 ; retract
G1 X80.501 Y49.730 F7200.000 ; move to first brim point
G1 E0.80000 F2100.00000 ; unretract
G1 F1680
G1 X80.622 Y49.596 E0.00612 ; brim
G1 X81.713 Y48.717 E0.04742 ; brim
G1 X82.547 Y48.399 E0.03023 ; brim
G1 X83.386 Y48.254 E0.02881 ; brim
G1 X166.747 Y48.258 E2.82166 ; brim
G1 X167.556 Y48.405 E0.02784 ; brim
G1 X168.323 Y48.699 E0.02781 ; brim
G1 X169.151 Y49.263 E0.03392 ; brim
G1 X169.991 Y50.426 E0.04857 ; brim
G1 X170.419 Y51.871 E0.05100 ; brim
G1 X170.419 Y150.286 E3.33122 ; brim
G1 X170.276 Y151.121 E0.02867 ; brim
G1 X169.975 Y151.912 E0.02865 ; brim
G1 X169.462 Y152.689 E0.03151 ; brim
G1 X168.250 Y153.581 E0.05096 ; brim
G1 X166.803 Y154.010 E0.05109 ; brim
G1 X83.283 Y154.010 E2.82705 ; brim
G1 X82.067 Y153.686 E0.04258 ; brim
G1 X81.138 Y153.172 E0.03594 ; brim
G1 X81.004 Y153.051 E0.00612 ; brim
G1 X80.126 Y151.960 E0.04741 ; brim
G1 X79.807 Y151.126 E0.03023 ; brim
G1 X79.662 Y150.287 E0.02881 ; brim
G1 X79.662 Y51.875 E3.33115 ; brim
G1 X79.986 Y50.659 E0.04257 ; brim
G1 X80.472 Y49.783 E0.03391 ; brim
G1 X80.822 Y49.981 F7200.000 ; move to first brim point
G1 F1680
G1 X80.894 Y49.899 E0.00368 ; brim
G1 X81.891 Y49.085 E0.04357 ; brim
G1 X82.638 Y48.796 E0.02711 ; brim
G1 X83.404 Y48.661 E0.02633 ; brim
G1 X166.727 Y48.665 E2.82040 ; brim
G1 X167.462 Y48.801 E0.02529 ; brim
G1 X168.153 Y49.070 E0.02508 ; brim
G1 X168.890 Y49.577 E0.03030 ; brim
G1 X169.639 Y50.633 E0.04383 ; brim
G1 X170.012 Y51.900 E0.04469 ; brim
G1 X170.012 Y150.268 E3.32963 ; brim
G1 X169.878 Y151.030 E0.02620 ; brim
G1 X169.604 Y151.744 E0.02587 ; brim
G1 X169.144 Y152.433 E0.02805 ; brim
G1 X168.098 Y153.202 E0.04394 ; brim
G1 X166.772 Y153.603 E0.04690 ; brim
G1 X83.310 Y153.603 E2.82508 ; brim
G1 X82.199 Y153.300 E0.03900 ; brim
G1 X81.389 Y152.850 E0.03136 ; brim
G1 X81.307 Y152.779 E0.00368 ; brim
G1 X80.493 Y151.782 E0.04355 ; brim
G1 X80.204 Y151.035 E0.02711 ; brim
G1 X80.069 Y150.269 E0.02633 ; brim
G1 X80.069 Y51.902 E3.32960 ; brim
G1 X80.372 Y50.791 E0.03900 ; brim
G1 X80.793 Y50.033 E0.02933 ; brim
G1 X81.146 Y50.230 F7200.000 ; move to first brim point
G1 F1680
G1 X82.071 Y49.451 E0.04093 ; brim
G1 X82.730 Y49.193 E0.02398 ; brim
G1 X83.422 Y49.068 E0.02380 ; brim
G1 X166.709 Y49.072 E2.81914 ; brim
G1 X167.333 Y49.188 E0.02147 ; brim
G1 X167.985 Y49.441 E0.02368 ; brim
G1 X168.582 Y49.845 E0.02442 ; brim
G1 X169.260 Y50.784 E0.03920 ; brim
G1 X169.604 Y51.930 E0.04051 ; brim
G1 X169.604 Y150.250 E3.32802 ; brim
G1 X169.491 Y150.903 E0.02241 ; brim
G1 X169.232 Y151.575 E0.02439 ; brim
G1 X168.828 Y152.174 E0.02446 ; brim
G1 X167.889 Y152.852 E0.03920 ; brim
G1 X166.742 Y153.196 E0.04051 ; brim
G1 X83.339 Y153.196 E2.82312 ; brim
G1 X82.332 Y152.915 E0.03537 ; brim
G1 X81.606 Y152.502 E0.02828 ; brim
G1 X80.860 Y151.602 E0.03957 ; brim
G1 X80.601 Y150.943 E0.02398 ; brim
G1 X80.477 Y150.250 E0.02381 ; brim
G1 X80.477 Y51.931 E3.32801 ; brim
G1 X80.758 Y50.924 E0.03537 ; brim
G1 X81.116 Y50.282 E0.02489 ; brim
G1 X81.470 Y50.483 F7200.000 ; move to first brim point
G1 F1680
G1 X82.253 Y49.817 E0.03481 ; brim
G1 X82.825 Y49.589 E0.02083 ; brim
G1 X83.442 Y49.475 E0.02123 ; brim
G1 X166.689 Y49.479 E2.81783 ; brim
G1 X167.237 Y49.584 E0.01887 ; brim
G1 X167.813 Y49.811 E0.02097 ; brim
G1 X168.321 Y50.159 E0.02084 ; brim
G1 X168.908 Y50.991 E0.03446 ; brim
G1 X169.197 Y51.960 E0.03423 ; brim
G1 X169.197 Y150.232 E3.32640 ; brim
G1 X169.094 Y150.811 E0.01989 ; brim
G1 X168.862 Y151.404 E0.02157 ; brim
G1 X168.514 Y151.912 E0.02086 ; brim
G1 X167.682 Y152.500 E0.03446 ; brim
G1 X166.713 Y152.789 E0.03423 ; brim
G1 X83.368 Y152.789 E2.82113 ; brim
G1 X82.469 Y152.531 E0.03166 ; brim
G1 X81.881 Y152.197 E0.02288 ; brim
G1 X81.225 Y151.420 E0.03444 ; brim
G1 X80.997 Y150.848 E0.02083 ; brim
G1 X80.884 Y150.231 E0.02123 ; brim
G1 X80.884 Y51.960 E3.32638 ; brim
G1 X81.142 Y51.061 E0.03165 ; brim
G1 X81.440 Y50.535 E0.02047 ; brim
G1 X81.809 Y50.708 F7200.000 ; move to first brim point
G1 F1680
G1 X82.434 Y50.183 E0.02762 ; brim
G1 X82.957 Y49.975 E0.01905 ; brim
G1 X83.460 Y49.883 E0.01732 ; brim
G1 X166.669 Y49.886 E2.81651 ; brim
G1 X167.138 Y49.979 E0.01620 ; brim
G1 X167.639 Y50.180 E0.01827 ; brim
G1 X168.058 Y50.472 E0.01729 ; brim
G1 X168.529 Y51.142 E0.02772 ; brim
G1 X168.790 Y51.991 E0.03008 ; brim
G1 X168.790 Y150.213 E3.32469 ; brim
G1 X168.698 Y150.716 E0.01732 ; brim
G1 X168.493 Y151.231 E0.01873 ; brim
G1 X168.201 Y151.650 E0.01729 ; brim
G1 X167.531 Y152.121 E0.02772 ; brim
G1 X166.682 Y152.382 E0.03008 ; brim
G1 X83.398 Y152.382 E2.81905 ; brim
G1 X82.609 Y152.148 E0.02785 ; brim
G1 X82.116 Y151.863 E0.01927 ; brim
G1 X81.591 Y151.239 E0.02761 ; brim
G1 X81.383 Y150.716 E0.01904 ; brim
G1 X81.291 Y150.213 E0.01732 ; brim
G1 X81.291 Y51.990 E3.32473 ; brim
G1 X81.525 Y51.201 E0.02785 ; brim
G1 X81.779 Y50.760 E0.01725 ; brim
G1 X82.129 Y50.966 F7200.000 ; move to first brim point
G1 F1680
G1 X82.617 Y50.548 E0.02174 ; brim
G1 X83.054 Y50.371 E0.01597 ; brim
G1 X83.480 Y50.290 E0.01468 ; brim
G1 X166.647 Y50.294 E2.81511 ; brim
G1 X167.036 Y50.374 E0.01345 ; brim
G1 X167.462 Y50.547 E0.01557 ; brim
G1 X167.790 Y50.781 E0.01364 ; brim
G1 X168.175 Y51.345 E0.02309 ; brim
G1 X168.383 Y52.022 E0.02398 ; brim
G1 X168.383 Y150.193 E3.32299 ; brim
G1 X168.302 Y150.619 E0.01468 ; brim
G1 X168.126 Y151.054 E0.01588 ; brim
G1 X167.892 Y151.382 E0.01363 ; brim
G1 X167.328 Y151.767 E0.02310 ; brim
G1 X166.651 Y151.975 E0.02398 ; brim
G1 X83.430 Y151.975 E2.81695 ; brim
G1 X82.754 Y151.767 E0.02394 ; brim
G1 X82.354 Y151.531 E0.01571 ; brim
G1 X81.956 Y151.056 E0.02096 ; brim
G1 X81.779 Y150.619 E0.01597 ; brim
G1 X81.698 Y150.193 E0.01468 ; brim
G1 X81.698 Y52.022 E3.32299 ; brim
G1 X81.906 Y51.346 E0.02394 ; brim
G1 X82.099 Y51.018 E0.01287 ; brim
G1 X82.471 Y51.186 F7200.000 ; move to first brim point
G1 F1680
G1 X82.801 Y50.912 E0.01451 ; brim
G1 X83.154 Y50.766 E0.01294 ; brim
G1 X83.501 Y50.697 E0.01195 ; brim
G1 X166.624 Y50.701 E2.81363 ; brim
G1 X166.930 Y50.767 E0.01061 ; brim
G1 X167.282 Y50.913 E0.01289 ; brim
G1 X167.520 Y51.087 E0.00998 ; brim
G1 X167.797 Y51.497 E0.01674 ; brim
G1 X167.976 Y52.055 E0.01983 ; brim
G1 X167.976 Y150.172 E3.32116 ; brim
G1 X167.907 Y150.519 E0.01195 ; brim
G1 X167.760 Y150.874 E0.01302 ; brim
G1 X167.586 Y151.112 E0.00998 ; brim
G1 X167.176 Y151.388 E0.01674 ; brim
G1 X166.618 Y151.568 E0.01983 ; brim
G1 X83.463 Y151.568 E2.81471 ; brim
G1 X82.903 Y151.388 E0.01991 ; brim
G1 X82.594 Y151.201 E0.01221 ; brim
G1 X82.320 Y150.872 E0.01451 ; brim
G1 X82.174 Y150.519 E0.01294 ; brim
G1 X82.105 Y150.172 E0.01195 ; brim
G1 X82.105 Y52.055 E3.32116 ; brim
G1 X82.285 Y51.495 E0.01990 ; brim
G1 X82.440 Y51.238 E0.01018 ; brim
G1 F5760
G1 X82.801 Y50.912 E-0.16829 ; wipe and retract
G1 F5760
G1 X83.154 Y50.766 E-0.13243 ; wipe and retract
G1 F5760
G1 X83.501 Y50.697 E-0.12228 ; wipe and retract
G1 F5760
G1 X84.474 Y50.697 E-0.33700 ; wipe and retract
G1 E-0.04000 F2100.00000 ; retract
G1 X167.285 Y150.836 F7200.000 ; move to first brim point
G1 E0.80000 F2100.00000 ; unretract
G1 F1680
G1 X167.019 Y151.012 E0.01079 ; brim
G1 X166.583 Y151.161 E0.01560 ; brim
G1 X83.498 Y151.161 E2.81232 ; brim
G1 X83.059 Y151.011 E0.01570 ; brim
G1 X82.838 Y150.874 E0.00880 ; brim
G1 X82.685 Y150.688 E0.00816 ; brim
G1 X82.557 Y150.381 E0.01125 ; brim
G1 X82.512 Y150.152 E0.00790 ; brim
G1 X82.512 Y52.090 E3.31929 ; brim
G1 X82.662 Y51.651 E0.01570 ; brim
G1 X82.799 Y51.430 E0.00880 ; brim
G1 X82.985 Y51.276 E0.00817 ; brim
G1 X83.292 Y51.149 E0.01125 ; brim
G1 X83.521 Y51.104 E0.00790 ; brim
G1 X166.601 Y51.108 E2.81218 ; brim
G1 X166.791 Y51.150 E0.00656 ; brim
G1 X167.100 Y51.278 E0.01135 ; brim
G1 X167.245 Y51.388 E0.00614 ; brim
G1 X167.420 Y51.654 E0.01079 ; brim
G1 X167.569 Y52.090 E0.01560 ; brim
G1 X167.569 Y150.152 E3.31929 ; brim
G1 X167.523 Y150.381 E0.00790 ; brim
G1 X167.395 Y150.692 E0.01139 ; brim
G1 X167.321 Y150.789 E0.00411 ; brim
G1 X167.009 Y150.532 F7200.000 ; move to first brim point
G1 F1680
G1 X166.857 Y150.639 E0.00629 ; brim
G1 X166.544 Y150.754 E0.01127 ; brim
G1 X83.537 Y150.754 E2.80971 ; brim
G1 X83.224 Y150.639 E0.01127 ; brim
G1 X83.087 Y150.550 E0.00554 ; brim
G1 X83.049 Y150.505 E0.00198 ; brim
G1 X82.941 Y150.244 E0.00957 ; brim
G1 X82.919 Y150.132 E0.00385 ; brim
G1 X82.919 Y52.129 E3.31731 ; brim
G1 X83.034 Y51.816 E0.01127 ; brim
G1 X83.123 Y51.678 E0.00554 ; brim
G1 X83.168 Y51.641 E0.00198 ; brim
G1 X83.429 Y51.533 E0.00957 ; brim
G1 X83.541 Y51.511 E0.00385 ; brim
G1 X166.577 Y51.515 E2.81067 ; brim
G1 X166.913 Y51.641 E0.01217 ; brim
G1 X166.958 Y51.678 E0.00198 ; brim
G1 X167.047 Y51.816 E0.00554 ; brim
G1 X167.162 Y52.128 E0.01127 ; brim
G1 X167.162 Y150.132 E3.31731 ; brim
G1 X167.140 Y150.244 E0.00385 ; brim
G1 X167.041 Y150.482 E0.00873 ; brim
G1 F5760
G1 X166.857 Y150.639 E-0.08371 ; wipe and retract
G1 F5760
G1 X166.544 Y150.754 E-0.11531 ; wipe and retract
G1 F5760
G1 X164.925 Y150.754 E-0.56098 ; wipe and retract
G1 E-0.04000 F2100.00000 ; retract
G1 X125.398 Y77.819 F7200.000 ; move to first perimeter point
G1 E0.80000 F2100.00000 ; unretract
G1 F1260
G1 X125.929 Y77.845 E0.02451 ; perimeter
G1 F1260
G1 X126.990 Y77.897 E0.04111 ; perimeter
G1 F1260
G1 X127.561 Y77.923 E0.01789 ; perimeter
G1 F1260
G1 X128.622 Y77.871 E0.04111 ; perimeter
G1 F1260
G1 X129.683 Y77.819 E0.04902 ; perimeter
G1 F5760
G1 X128.622 Y77.871 E-0.36788 ; wipe and retract
G1 E-0.43212 F2100.00000 ; retract
G1 X166.660 Y52.000 F7200.000 ; move to first perimeter point
G1 E0.80000 F2100.00000 ; unretract
G1 F1260
G1 X166.733 Y52.177 E0.00648 ; perimeter
G1 X166.733 Y150.090 E3.31425 ; perimeter
G1 X166.671 Y150.253 E0.00590 ; perimeter
G1 X166.496 Y150.325 E0.00640 ; perimeter
G1 X113.480 Y150.325 E1.79451 ; perimeter
G1 X83.585 Y150.325 E1.01191 ; perimeter
G1 X83.410 Y150.253 E0.00640 ; perimeter
G1 X83.348 Y150.090 E0.00590 ; perimeter
G1 X83.348 Y52.177 E3.31425 ; perimeter
G1 X83.420 Y52.002 E0.00640 ; perimeter
G1 X83.583 Y51.939 E0.00590 ; perimeter
G1 X166.529 Y51.946 E2.80765 ; perimeter
G1 X166.605 Y51.977 E0.00276 ; perimeter
G1 X166.611 Y52.185 F7200.000 ; move inwards before travel
G1 X166.326 Y52.353 F7200.000 ; move to first perimeter point
G1 F1680
G1 X166.326 Y149.918 E3.30246 ; perimeter
G1 X83.755 Y149.918 E2.79496 ; perimeter
G1 X83.755 Y52.346 E3.30269 ; perimeter
G1 X166.266 Y52.353 E2.79292 ; perimeter
G1 X165.919 Y52.760 F7200.000 ; move to first perimeter point
G1 F1680
G1 X165.919 Y149.511 E3.27490 ; perimeter
G1 X84.162 Y149.511 E2.76740 ; perimeter
G1 X84.162 Y52.754 E3.27513 ; perimeter
G1 X165.859 Y52.760 E2.76537 ; perimeter
G1 F5760
G1 X165.861 Y54.954 E-0.76000 ; wipe and retract
G1 E-0.04000 F2100.00000 ; retract
G1 X152.766 Y77.907 F7200.000 ; move to first perimeter point
G1 E0.80000 F2100.00000 ; unretract
G1 F1260
G1 X152.766 Y131.357 E1.80922 ; perimeter
G1 X100.899 Y131.357 E1.75561 ; perimeter
G1 X100.899 Y77.907 E1.80922 ; perimeter
G1 X125.158 Y77.907 E0.82111 ; perimeter
G1 X125.188 Y77.699 E0.00713 ; perimeter
G1 X123.022 Y77.042 E0.07664 ; perimeter
G1 X120.980 Y75.950 E0.07835 ; perimeter
