; generated by Slic3r 1.37.1-prusa3d-win64 on 2017-09-24 at 22:36:50

; 

; external perimeters extrusion width = 0.43mm
; perimeters extrusion width = 0.45mm
; infill extrusion width = 0.50mm
; solid infill extrusion width = 0.50mm
; top infill extrusion width = 0.50mm
; first layer extrusion width = 0.45mm

M107 ; disable fan
M115 U3.0.12 ; tell printer latest fw version
M83  ; extruder relative mode
M104 S150
M140 S120 ; set bed temp
G28 W ; home all without mesh bed level
G0 Z80 F1000 ; go above the bed to keep PINDA cool
M190 S120 ; wait for bed temp
M104 S290 ; set extruder temp
G80 ; mesh bed leveling homes the head
G0 Z80 F1000 ; go higher to allow switch lock
M109 S290 ; wait for extruder temp
M0 Click when done retracting
G0 Z0 Y-3.0 F1000 ; go outside print area
G1 X60.0 E9.0 ; intro line
G1 X100.0 E12.5 ; intro line
; Filament gcode
G21 ; set units to millimeters
G90 ; use absolute coordinates
M83 ; use relative distances for extrusion
; Layer 0
G1 E-0.80000 F2100.00000 ; retract
G1 Z0.200 F7200.000 ; move to next layer (0)
G1 X127.282 Y46.102 F7200.000 ; move to first skirt point
G1 E0.80000 F2100.00000 ; unretract
M204 S1000 ; adjust acceleration
G1 F1680
G1 X127.491 Y45.237 E0.03010 ; skirt
G1 X127.837 Y44.297 E0.03392 ; skirt
G1 X128.223 Y43.592 E0.02720 ; skirt
G1 X128.729 Y42.923 E0.02837 ; skirt
G1 X129.444 Y42.203 E0.03436 ; skirt
G1 X130.142 Y41.672 E0.02969 ; skirt
G1 X130.882 Y41.268 E0.02856 ; skirt
G1 X131.776 Y40.940 E0.03220 ; skirt
G1 X132.667 Y40.725 E0.03104 ; skirt
G1 X133.525 Y40.653 E0.02914 ; skirt
G1 X211.544 Y40.653 E2.64087 ; skirt
G1 X212.673 Y40.772 E0.03843 ; skirt
G1 X213.987 Y41.176 E0.04651 ; skirt
G1 X214.926 Y41.658 E0.03572 ; skirt
G1 X215.788 Y42.335 E0.03710 ; skirt
G1 X216.633 Y43.261 E0.04245 ; skirt
G1 X217.204 Y44.196 E0.03708 ; skirt
G1 X217.650 Y45.418 E0.04403 ; skirt
G1 X217.871 Y46.676 E0.04322 ; skirt
G1 X217.880 Y65.011 E0.62063 ; skirt
G1 X217.787 Y65.982 E0.03301 ; skirt
G1 X217.577 Y66.805 E0.02875 ; skirt
G1 X217.225 Y67.737 E0.03371 ; skirt
G1 X216.837 Y68.427 E0.02681 ; skirt
G1 X216.330 Y69.088 E0.02819 ; skirt
G1 X215.628 Y69.788 E0.03357 ; skirt
G1 X214.933 Y70.314 E0.02950 ; skirt
G1 X214.201 Y70.711 E0.02817 ; skirt
G1 X213.313 Y71.036 E0.03202 ; skirt
G1 X212.422 Y71.252 E0.03104 ; skirt
G1 X211.564 Y71.323 E0.02914 ; skirt
G1 X133.274 Y71.317 E2.65000 ; skirt
G1 X132.331 Y71.186 E0.03224 ; skirt
G1 X131.193 Y70.836 E0.04031 ; skirt
G1 X130.403 Y70.465 E0.02952 ; skirt
G1 X129.678 Y69.969 E0.02973 ; skirt
G1 X128.856 Y69.195 E0.03823 ; skirt
G1 X128.285 Y68.477 E0.03104 ; skirt
G1 X127.843 Y67.692 E0.03049 ; skirt
G1 X127.497 Y66.757 E0.03376 ; skirt
G1 X127.284 Y65.883 E0.03045 ; skirt
G1 X127.209 Y65.048 E0.02836 ; skirt
G1 X127.209 Y46.971 E0.61189 ; skirt
G1 X127.277 Y46.162 E0.02749 ; skirt
G1 F5760
G1 X127.491 Y45.237 E-0.32857 ; wipe and retract
G1 F5760
G1 X127.837 Y44.297 E-0.34710 ; wipe and retract
G1 F5760
G1 X127.954 Y44.083 E-0.08433 ; wipe and retract
G1 E-0.04000 F2100.00000 ; retract
G1 X129.220 Y45.177 F7200.000 ; move to first brim point
G1 E0.80000 F2100.00000 ; unretract
G1 F1680
G1 X129.949 Y43.987 E0.04722 ; brim
G1 X130.935 Y43.089 E0.04515 ; brim
G1 X131.569 Y42.737 E0.02456 ; brim
G1 X132.266 Y42.478 E0.02516 ; brim
G1 X133.376 Y42.296 E0.03809 ; brim
G1 X211.842 Y42.301 E2.65598 ; brim
G1 X213.762 Y42.843 E0.06755 ; brim
G1 X214.498 Y43.357 E0.03036 ; brim
G1 X215.147 Y43.988 E0.03066 ; brim
G1 X215.916 Y45.303 E0.05155 ; brim
G1 X216.237 Y46.782 E0.05124 ; brim
G1 X216.205 Y65.479 E0.63286 ; brim
G1 X215.848 Y66.852 E0.04803 ; brim
G1 X215.087 Y68.048 E0.04800 ; brim
G1 X214.010 Y68.973 E0.04806 ; brim
G1 X212.740 Y69.522 E0.04683 ; brim
G1 X211.710 Y69.680 E0.03527 ; brim
G1 X133.330 Y69.680 E2.65307 ; brim
G1 X131.865 Y69.366 E0.05072 ; brim
G1 X130.592 Y68.624 E0.04987 ; brim
G1 X129.645 Y67.598 E0.04727 ; brim
G1 X129.293 Y66.963 E0.02455 ; brim
G1 X129.035 Y66.267 E0.02515 ; brim
G1 X128.852 Y65.156 E0.03811 ; brim
G1 X128.877 Y46.544 E0.62999 ; brim
G1 X129.205 Y45.235 E0.04568 ; brim
G1 X129.585 Y45.360 F7200.000 ; move to first brim point
G1 F1680
G1 X130.246 Y44.267 E0.04324 ; brim
G1 X131.154 Y43.432 E0.04175 ; brim
G1 X131.726 Y43.113 E0.02216 ; brim
G1 X132.389 Y42.867 E0.02394 ; brim
G1 X133.392 Y42.703 E0.03442 ; brim
G1 X211.814 Y42.708 E2.65449 ; brim
G1 X213.558 Y43.196 E0.06128 ; brim
G1 X214.250 Y43.681 E0.02861 ; brim
G1 X214.842 Y44.260 E0.02805 ; brim
G1 X215.526 Y45.422 E0.04561 ; brim
G1 X215.830 Y46.804 E0.04790 ; brim
G1 X215.804 Y65.404 E0.62959 ; brim
G1 X215.486 Y66.664 E0.04398 ; brim
G1 X214.796 Y67.762 E0.04390 ; brim
G1 X213.819 Y68.612 E0.04385 ; brim
G1 X212.603 Y69.138 E0.04483 ; brim
G1 X211.696 Y69.273 E0.03106 ; brim
G1 X133.351 Y69.273 E2.65187 ; brim
G1 X132.040 Y68.997 E0.04537 ; brim
G1 X130.869 Y68.323 E0.04571 ; brim
G1 X129.988 Y67.377 E0.04375 ; brim
G1 X129.669 Y66.806 E0.02213 ; brim
G1 X129.423 Y66.144 E0.02393 ; brim
G1 X129.259 Y65.140 E0.03443 ; brim
G1 X129.279 Y46.616 E0.62701 ; brim
G1 X129.570 Y45.418 E0.04174 ; brim
G1 X129.951 Y45.540 F7200.000 ; move to first brim point
G1 F1680
G1 X130.545 Y44.545 E0.03924 ; brim
G1 X131.376 Y43.775 E0.03834 ; brim
G1 X131.883 Y43.489 E0.01971 ; brim
G1 X132.512 Y43.255 E0.02271 ; brim
G1 X133.409 Y43.110 E0.03074 ; brim
G1 X211.787 Y43.115 E2.65301 ; brim
G1 X213.354 Y43.551 E0.05506 ; brim
G1 X213.978 Y43.984 E0.02571 ; brim
G1 X214.538 Y44.532 E0.02651 ; brim
G1 X215.157 Y45.598 E0.04174 ; brim
G1 X215.423 Y46.825 E0.04250 ; brim
G1 X215.403 Y65.332 E0.62643 ; brim
G1 X215.123 Y66.478 E0.03995 ; brim
G1 X214.505 Y67.475 E0.03970 ; brim
G1 X213.577 Y68.284 E0.04168 ; brim
G1 X212.470 Y68.752 E0.04069 ; brim
G1 X211.682 Y68.866 E0.02696 ; brim
G1 X133.373 Y68.866 E2.65065 ; brim
G1 X132.158 Y68.606 E0.04207 ; brim
G1 X131.101 Y67.988 E0.04143 ; brim
G1 X130.331 Y67.157 E0.03835 ; brim
G1 X130.045 Y66.649 E0.01971 ; brim
G1 X129.812 Y66.021 E0.02270 ; brim
G1 X129.666 Y65.124 E0.03075 ; brim
G1 X129.680 Y46.686 E0.62410 ; brim
G1 X129.937 Y45.599 E0.03782 ; brim
G1 X130.318 Y45.718 F7200.000 ; move to first brim point
G1 F1680
G1 X130.845 Y44.821 E0.03521 ; brim
G1 X131.598 Y44.116 E0.03492 ; brim
G1 X132.041 Y43.865 E0.01722 ; brim
G1 X132.635 Y43.644 E0.02146 ; brim
G1 X133.425 Y43.517 E0.02707 ; brim
G1 X211.760 Y43.522 E2.65155 ; brim
G1 X213.151 Y43.905 E0.04883 ; brim
G1 X213.731 Y44.308 E0.02393 ; brim
G1 X214.231 Y44.801 E0.02378 ; brim
G1 X214.788 Y45.772 E0.03787 ; brim
G1 X215.015 Y46.846 E0.03716 ; brim
G1 X215.002 Y65.262 E0.62336 ; brim
G1 X214.758 Y66.295 E0.03594 ; brim
G1 X214.212 Y67.192 E0.03553 ; brim
G1 X213.385 Y67.923 E0.03737 ; brim
G1 X212.384 Y68.354 E0.03689 ; brim
G1 X211.666 Y68.459 E0.02454 ; brim
G1 X133.394 Y68.459 E2.64944 ; brim
G1 X132.332 Y68.236 E0.03673 ; brim
G1 X131.377 Y67.687 E0.03729 ; brim
G1 X130.673 Y66.934 E0.03490 ; brim
G1 X130.421 Y66.492 E0.01722 ; brim
G1 X130.200 Y65.898 E0.02145 ; brim
G1 X130.073 Y65.108 E0.02707 ; brim
G1 X130.082 Y46.753 E0.62128 ; brim
G1 X130.305 Y45.777 E0.03392 ; brim
G1 X130.687 Y45.893 F7200.000 ; move to first brim point
G1 F1680
G1 X131.147 Y45.096 E0.03114 ; brim
G1 X131.823 Y44.457 E0.03149 ; brim
G1 X132.199 Y44.240 E0.01468 ; brim
G1 X132.758 Y44.033 E0.02018 ; brim
G1 X133.440 Y43.924 E0.02340 ; brim
G1 X211.733 Y43.929 E2.65010 ; brim
G1 X212.949 Y44.260 E0.04265 ; brim
G1 X213.458 Y44.611 E0.02094 ; brim
G1 X213.926 Y45.072 E0.02224 ; brim
G1 X214.397 Y45.889 E0.03193 ; brim
G1 X214.608 Y46.868 E0.03388 ; brim
G1 X214.600 Y65.195 E0.62035 ; brim
G1 X214.391 Y66.116 E0.03196 ; brim
G1 X213.916 Y66.911 E0.03136 ; brim
G1 X213.191 Y67.564 E0.03303 ; brim
G1 X212.296 Y67.955 E0.03306 ; brim
G1 X211.651 Y68.052 E0.02207 ; brim
G1 X133.416 Y68.052 E2.64818 ; brim
G1 X132.449 Y67.845 E0.03347 ; brim
G1 X131.652 Y67.386 E0.03113 ; brim
G1 X131.013 Y66.709 E0.03150 ; brim
G1 X130.796 Y66.333 E0.01468 ; brim
G1 X130.589 Y65.775 E0.02017 ; brim
G1 X130.480 Y65.092 E0.02340 ; brim
G1 X130.485 Y46.818 E0.61855 ; brim
G1 X130.674 Y45.951 E0.03003 ; brim
G1 X131.058 Y46.064 F7200.000 ; move to first brim point
G1 F1680
G1 X131.451 Y45.368 E0.02704 ; brim
G1 X132.050 Y44.795 E0.02806 ; brim
G1 X132.358 Y44.616 E0.01207 ; brim
G1 X132.880 Y44.421 E0.01886 ; brim
G1 X133.456 Y44.331 E0.01973 ; brim
G1 X211.706 Y44.336 E2.64868 ; brim
G1 X212.749 Y44.616 E0.03653 ; brim
G1 X213.186 Y44.914 E0.01790 ; brim
G1 X213.620 Y45.341 E0.02061 ; brim
G1 X214.027 Y46.061 E0.02800 ; brim
G1 X214.201 Y46.888 E0.02861 ; brim
G1 X214.197 Y65.131 E0.61750 ; brim
G1 X214.022 Y65.940 E0.02800 ; brim
G1 X213.617 Y66.634 E0.02721 ; brim
G1 X212.993 Y67.207 E0.02866 ; brim
G1 X212.206 Y67.557 E0.02917 ; brim
G1 X211.635 Y67.645 E0.01955 ; brim
G1 X133.436 Y67.645 E2.64695 ; brim
G1 X132.620 Y67.475 E0.02821 ; brim
G1 X131.924 Y67.082 E0.02705 ; brim
G1 X131.352 Y66.482 E0.02806 ; brim
G1 X131.172 Y66.174 E0.01207 ; brim
G1 X130.978 Y65.652 E0.01885 ; brim
G1 X130.887 Y65.077 E0.01973 ; brim
G1 X130.887 Y46.880 E0.61594 ; brim
G1 X131.045 Y46.123 E0.02618 ; brim
G1 X131.430 Y46.232 F7200.000 ; move to first brim point
G1 F1680
G1 X131.757 Y45.638 E0.02293 ; brim
G1 X132.280 Y45.132 E0.02463 ; brim
G1 X132.518 Y44.990 E0.00938 ; brim
G1 X133.002 Y44.810 E0.01750 ; brim
G1 X133.471 Y44.738 E0.01606 ; brim
G1 X211.681 Y44.743 E2.64729 ; brim
G1 X212.551 Y44.973 E0.03047 ; brim
G1 X212.914 Y45.217 E0.01481 ; brim
G1 X213.312 Y45.610 E0.01892 ; brim
G1 X213.655 Y46.230 E0.02398 ; brim
G1 X213.794 Y46.908 E0.02345 ; brim
G1 X213.794 Y65.071 E0.61479 ; brim
G1 X213.652 Y65.768 E0.02408 ; brim
G1 X213.314 Y66.360 E0.02306 ; brim
G1 X212.792 Y66.851 E0.02426 ; brim
G1 X212.114 Y67.160 E0.02522 ; brim
G1 X211.619 Y67.238 E0.01697 ; brim
G1 X133.456 Y67.238 E2.64573 ; brim
G1 X132.788 Y67.103 E0.02306 ; brim
G1 X132.194 Y66.776 E0.02293 ; brim
G1 X131.688 Y66.253 E0.02464 ; brim
G1 X131.547 Y66.014 E0.00938 ; brim
G1 X131.366 Y65.530 E0.01749 ; brim
G1 X131.295 Y65.061 E0.01606 ; brim
G1 X131.295 Y46.899 E0.61476 ; brim
G1 X131.418 Y46.290 E0.02104 ; brim
G1 F5760
G1 X131.757 Y45.638 E-0.25455 ; wipe and retract
G1 F5760
G1 X132.280 Y45.132 E-0.25205 ; wipe and retract
G1 F5760
G1 X132.518 Y44.990 E-0.09601 ; wipe and retract
G1 F5760
G1 X132.944 Y44.832 E-0.15739 ; wipe and retract
G1 E-0.04000 F2100.00000 ; retract
G1 X132.682 Y45.363 F7200.000 ; move to first brim point
G1 E0.80000 F2100.00000 ; unretract
G1 F1680
G1 X133.088 Y45.209 E0.01471 ; brim
G1 X133.488 Y45.145 E0.01369 ; brim
G1 X211.655 Y45.150 E2.64587 ; brim
G1 X212.356 Y45.332 E0.02450 ; brim
G1 X212.643 Y45.522 E0.01165 ; brim
G1 X213.006 Y45.879 E0.01724 ; brim
G1 X213.263 Y46.344 E0.01799 ; brim
G1 X213.387 Y46.930 E0.02027 ; brim
G1 X213.387 Y65.052 E0.61342 ; brim
G1 X213.280 Y65.601 E0.01891 ; brim
G1 X213.011 Y66.086 E0.01877 ; brim
G1 X212.538 Y66.531 E0.02198 ; brim
G1 X212.023 Y66.762 E0.01913 ; brim
G1 X211.602 Y66.831 E0.01443 ; brim
G1 X133.477 Y66.831 E2.64443 ; brim
G1 X132.901 Y66.711 E0.01991 ; brim
G1 X132.464 Y66.469 E0.01692 ; brim
G1 X132.023 Y66.019 E0.02133 ; brim
G1 X131.919 Y65.850 E0.00670 ; brim
G1 X131.765 Y65.444 E0.01470 ; brim
G1 X131.702 Y65.045 E0.01370 ; brim
G1 X131.702 Y46.921 E0.61347 ; brim
G1 X131.822 Y46.345 E0.01991 ; brim
G1 X132.063 Y45.908 E0.01692 ; brim
G1 X132.513 Y45.466 E0.02132 ; brim
G1 X132.631 Y45.395 E0.00467 ; brim
G1 X132.847 Y45.737 F7200.000 ; move to first brim point
G1 F1680
G1 X133.177 Y45.607 E0.01202 ; brim
G1 X133.505 Y45.552 E0.01125 ; brim
G1 X211.630 Y45.557 E2.64446 ; brim
G1 X212.165 Y45.693 E0.01865 ; brim
G1 X212.373 Y45.827 E0.00839 ; brim
G1 X212.697 Y46.146 E0.01540 ; brim
G1 X212.890 Y46.508 E0.01387 ; brim
G1 X212.980 Y46.950 E0.01527 ; brim
G1 X212.980 Y65.031 E0.61203 ; brim
G1 X212.888 Y65.488 E0.01579 ; brim
G1 X212.705 Y65.816 E0.01270 ; brim
G1 X212.334 Y66.178 E0.01754 ; brim
G1 X211.926 Y66.366 E0.01519 ; brim
G1 X211.584 Y66.424 E0.01175 ; brim
G1 X133.500 Y66.424 E2.64307 ; brim
G1 X133.017 Y66.320 E0.01670 ; brim
G1 X132.732 Y66.161 E0.01105 ; brim
G1 X132.353 Y65.781 E0.01815 ; brim
G1 X132.290 Y65.682 E0.00399 ; brim
G1 X132.163 Y65.356 E0.01185 ; brim
G1 X132.109 Y65.028 E0.01125 ; brim
G1 X132.109 Y46.943 E0.61213 ; brim
G1 X132.213 Y46.461 E0.01671 ; brim
G1 X132.371 Y46.175 E0.01105 ; brim
G1 X132.796 Y45.769 E0.01991 ; brim
G1 X132.603 Y46.580 F7200.000 ; move to first brim point
G1 F1680
G1 X132.680 Y46.442 E0.00536 ; brim
G1 X132.997 Y46.122 E0.01523 ; brim
G1 X133.270 Y46.003 E0.01008 ; brim
G1 X133.523 Y45.960 E0.00870 ; brim
G1 X211.607 Y45.964 E2.64303 ; brim
G1 X211.979 Y46.056 E0.01299 ; brim
G1 X212.104 Y46.134 E0.00498 ; brim
G1 X212.386 Y46.411 E0.01338 ; brim
G1 X212.513 Y46.663 E0.00956 ; brim
G1 X212.573 Y46.969 E0.01053 ; brim
G1 X212.573 Y65.009 E0.61065 ; brim
G1 X212.496 Y65.373 E0.01257 ; brim
G1 X212.396 Y65.551 E0.00693 ; brim
G1 X212.123 Y65.828 E0.01316 ; brim
G1 X211.826 Y65.971 E0.01115 ; brim
G1 X211.565 Y66.017 E0.00895 ; brim
G1 X133.523 Y66.017 E2.64164 ; brim
G1 X133.136 Y65.929 E0.01343 ; brim
G1 X132.998 Y65.853 E0.00536 ; brim
G1 X132.678 Y65.536 E0.01524 ; brim
G1 X132.560 Y65.263 E0.01007 ; brim
G1 X132.516 Y65.009 E0.00871 ; brim
G1 X132.516 Y46.967 E0.61071 ; brim
G1 X132.590 Y46.638 E0.01140 ; brim
G1 X133.368 Y46.399 F7200.000 ; move to first brim point
G1 F1680
G1 X133.543 Y46.367 E0.00601 ; brim
G1 X211.542 Y46.367 E2.64017 ; brim
G1 X211.808 Y46.426 E0.00922 ; brim
G1 X212.070 Y46.672 E0.01219 ; brim
G1 X212.132 Y46.806 E0.00497 ; brim
G1 X212.166 Y46.987 E0.00625 ; brim
G1 X212.166 Y64.986 E0.60923 ; brim
G1 X212.107 Y65.252 E0.00922 ; brim
G1 X211.860 Y65.514 E0.01219 ; brim
G1 X211.727 Y65.575 E0.00497 ; brim
G1 X211.545 Y65.610 E0.00625 ; brim
G1 X133.548 Y65.610 E2.64011 ; brim
G1 X133.269 Y65.543 E0.00973 ; brim
G1 X133.009 Y65.292 E0.01221 ; brim
G1 X132.955 Y65.164 E0.00470 ; brim
G1 X132.923 Y64.989 E0.00601 ; brim
G1 X132.923 Y46.992 E0.60919 ; brim
G1 X133.009 Y46.682 E0.01091 ; brim
G1 X133.240 Y46.453 E0.01100 ; brim
G1 X133.313 Y46.422 E0.00268 ; brim
G1 X133.486 Y46.811 F7200.000 ; move to first perimeter point
G1 F1260
G1 X133.567 Y46.795 E0.00278 ; perimeter
G1 X211.519 Y46.795 E2.63860 ; perimeter
G1 X211.608 Y46.815 E0.00309 ; perimeter
G1 X211.715 Y46.923 E0.00513 ; perimeter
G1 X211.737 Y47.015 E0.00321 ; perimeter
G1 X211.737 Y64.963 E0.60752 ; perimeter
G1 X211.717 Y65.050 E0.00304 ; perimeter
G1 X211.604 Y65.165 E0.00546 ; perimeter
G1 X211.522 Y65.181 E0.00281 ; perimeter
G1 X133.571 Y65.181 E2.63855 ; perimeter
G1 X133.479 Y65.159 E0.00320 ; perimeter
G1 X133.367 Y65.046 E0.00537 ; perimeter
G1 X133.351 Y64.966 E0.00278 ; perimeter
G1 X133.351 Y47.015 E0.60762 ; perimeter
G1 X133.373 Y46.923 E0.00320 ; perimeter
G1 X133.443 Y46.853 E0.00334 ; perimeter
G1 X133.554 Y46.857 F7200.000 ; move inwards before travel
G1 X133.758 Y47.202 F7200.000 ; move to first perimeter point
G1 F1680
G1 X211.330 Y47.202 E2.62571 ; perimeter
G1 X211.330 Y64.774 E0.59478 ; perimeter
G1 X133.758 Y64.774 E2.62571 ; perimeter
G1 X133.758 Y47.262 E0.59275 ; perimeter
G1 X134.166 Y47.609 F7200.000 ; move to first perimeter point
G1 F1680
G1 X136.051 Y47.609 E0.06382 ; perimeter
G1 X136.102 Y47.786 E0.00624 ; perimeter
G1 X135.935 Y47.890 E0.00666 ; perimeter
G1 X135.556 Y48.245 E0.01755 ; perimeter
G1 X135.254 Y48.666 E0.01755 ; perimeter
G1 X135.041 Y49.138 E0.01755 ; perimeter
G1 X134.923 Y49.643 E0.01755 ; perimeter
G1 X134.906 Y50.161 E0.01755 ; perimeter
G1 X134.990 Y50.672 E0.01754 ; perimeter
G1 X135.173 Y51.158 E0.01755 ; perimeter
G1 X135.447 Y51.598 E0.01755 ; perimeter
G1 X135.801 Y51.976 E0.01755 ; perimeter
G1 X136.222 Y52.278 E0.01755 ; perimeter
G1 X136.694 Y52.492 E0.01754 ; perimeter
G1 X137.199 Y52.610 E0.01755 ; perimeter
G1 X137.717 Y52.627 E0.01755 ; perimeter
G1 X138.229 Y52.542 E0.01755 ; perimeter
G1 X138.714 Y52.360 E0.01754 ; perimeter
G1 X139.154 Y52.086 E0.01754 ; perimeter
G1 X139.532 Y51.732 E0.01755 ; perimeter
