; generated by Slic3r 1.37.1-prusa3d-win64 on 2017-09-24 at 22:37:01

; 

; external perimeters extrusion width = 0.43mm
; perimeters extrusion width = 0.45mm
; infill extrusion width = 0.50mm
; solid infill extrusion width = 0.50mm
; top infill extrusion width = 0.50mm
; first layer extrusion width = 0.45mm

M107 ; disable fan
M115 U3.0.12 ; tell printer latest fw version
M83  ; extruder relative mode
M104 S150
M140 S120 ; set bed temp
G28 W ; home all without mesh bed level
G0 Z80 F1000 ; go above the bed to keep PINDA cool
M190 S120 ; wait for bed temp
M104 S290 ; set extruder temp
G80 ; mesh bed leveling homes the head
G0 Z80 F1000 ; go higher to allow switch lock
M109 S290 ; wait for extruder temp
M0 Click when done retracting
G0 Z0 Y-3.0 F1000 ; go outside print area
G1 X60.0 E9.0 ; intro line
G1 X100.0 E12.5 ; intro line
; Filament gcode
G21 ; set units to millimeters
G90 ; use absolute coordinates
M83 ; use relative distances for extrusion
; Layer 0
G1 E-0.80000 F2100.00000 ; retract
G1 Z0.200 F7200.000 ; move to next layer (0)
G1 X32.566 Y112.120 F7200.000 ; move to first skirt point
G1 E0.80000 F2100.00000 ; unretract
M204 S1000 ; adjust acceleration
G1 F1680
G1 X33.475 Y111.222 E0.04326 ; skirt
G1 X34.681 Y110.449 E0.04848 ; skirt
G1 X35.488 Y110.118 E0.02952 ; skirt
G1 X36.203 Y109.927 E0.02506 ; skirt
G1 X78.619 Y104.806 E1.44616 ; skirt
G1 X111.504 Y104.793 E1.11311 ; skirt
G1 X156.121 Y109.829 E1.51980 ; skirt
G1 X157.431 Y110.092 E0.04526 ; skirt
G1 X158.765 Y110.688 E0.04945 ; skirt
G1 X159.954 Y111.596 E0.05063 ; skirt
G1 X160.909 Y112.770 E0.05123 ; skirt
G1 X161.522 Y114.027 E0.04733 ; skirt
G1 X161.784 Y114.972 E0.03321 ; skirt
G1 X161.905 Y116.135 E0.03958 ; skirt
G1 X161.896 Y119.527 E0.11481 ; skirt
G1 X161.786 Y120.420 E0.03046 ; skirt
G1 X161.604 Y121.138 E0.02506 ; skirt
G1 X161.010 Y122.466 E0.04925 ; skirt
G1 X160.115 Y123.643 E0.05006 ; skirt
G1 X140.005 Y143.755 E0.96269 ; skirt
G1 X139.249 Y144.387 E0.03336 ; skirt
G1 X138.628 Y144.791 E0.02506 ; skirt
G1 X137.730 Y145.200 E0.03339 ; skirt
G1 X136.996 Y145.429 E0.02603 ; skirt
G1 X135.512 Y145.607 E0.05061 ; skirt
G1 X57.470 Y145.607 E2.64162 ; skirt
G1 X56.229 Y145.477 E0.04223 ; skirt
G1 X55.206 Y145.175 E0.03611 ; skirt
G1 X54.119 Y144.641 E0.04098 ; skirt
G1 X53.056 Y143.815 E0.04556 ; skirt
G1 X32.844 Y123.602 E0.96755 ; skirt
G1 X32.246 Y122.860 E0.03229 ; skirt
G1 X31.843 Y122.205 E0.02603 ; skirt
G1 X31.446 Y121.292 E0.03367 ; skirt
G1 X31.226 Y120.496 E0.02797 ; skirt
G1 X31.093 Y119.339 E0.03942 ; skirt
G1 X31.106 Y115.809 E0.11946 ; skirt
G1 X31.304 Y114.565 E0.04266 ; skirt
G1 X31.742 Y113.394 E0.04231 ; skirt
G1 X32.533 Y112.170 E0.04934 ; skirt
G1 F5760
G1 X33.475 Y111.222 E-0.46298 ; wipe and retract
G1 F5760
G1 X34.197 Y110.759 E-0.29702 ; wipe and retract
G1 E-0.04000 F2100.00000 ; retract
G1 X140.772 Y124.472 F7200.000 ; move to first brim point
G1 E0.80000 F2100.00000 ; unretract
G1 F1680
G1 X140.764 Y139.477 E0.50789 ; brim
G1 X140.618 Y140.470 E0.03398 ; brim
G1 X140.066 Y141.832 E0.04974 ; brim
G1 X139.033 Y143.115 E0.05573 ; brim
G1 X137.869 Y143.913 E0.04777 ; brim
G1 X136.781 Y144.315 E0.03929 ; brim
G1 X135.639 Y144.474 E0.03901 ; brim
G1 X57.334 Y144.472 E2.65053 ; brim
G1 X56.358 Y144.352 E0.03331 ; brim
G1 X54.796 Y143.726 E0.05696 ; brim
G1 X53.494 Y142.638 E0.05741 ; brim
G1 X52.943 Y141.857 E0.03237 ; brim
G1 X52.530 Y140.976 E0.03292 ; brim
G1 X52.260 Y139.761 E0.04214 ; brim
G1 X52.227 Y124.472 E0.51752 ; brim
G1 X36.967 Y124.440 E0.51653 ; brim
G1 X35.638 Y124.135 E0.04617 ; brim
G1 X34.421 Y123.483 E0.04674 ; brim
G1 X33.433 Y122.560 E0.04577 ; brim
G1 X32.797 Y121.590 E0.03925 ; brim
G1 X32.378 Y120.462 E0.04071 ; brim
G1 X32.226 Y119.370 E0.03734 ; brim
G1 X32.226 Y116.011 E0.11371 ; brim
G1 X32.512 Y114.482 E0.05264 ; brim
G1 X33.087 Y113.311 E0.04417 ; brim
G1 X33.931 Y112.316 E0.04414 ; brim
G1 X34.988 Y111.562 E0.04397 ; brim
G1 X36.227 Y111.081 E0.04497 ; brim
G1 X37.361 Y110.925 E0.03878 ; brim
G1 X69.234 Y110.925 E1.07884 ; brim
G1 X70.135 Y109.710 E0.05121 ; brim
G1 X72.554 Y107.756 E0.10526 ; brim
G1 X75.566 Y106.416 E0.11158 ; brim
G1 X78.895 Y105.927 E0.11390 ; brim
G1 X82.296 Y106.378 E0.11613 ; brim
G1 X85.491 Y107.785 E0.11817 ; brim
G1 X87.868 Y109.716 E0.10364 ; brim
G1 X88.764 Y110.925 E0.05096 ; brim
G1 X100.767 Y110.925 E0.40630 ; brim
G1 X102.027 Y109.522 E0.06382 ; brim
G1 X104.902 Y107.543 E0.11816 ; brim
G1 X108.146 Y106.326 E0.11728 ; brim
G1 X111.574 Y105.927 E0.11680 ; brim
G1 X114.902 Y106.338 E0.11353 ; brim
G1 X118.043 Y107.515 E0.11354 ; brim
G1 X120.966 Y109.519 E0.11994 ; brim
G1 X122.230 Y110.926 E0.06403 ; brim
G1 X155.871 Y110.942 E1.13871 ; brim
G1 X157.055 Y111.161 E0.04074 ; brim
G1 X158.216 Y111.680 E0.04305 ; brim
G1 X159.228 Y112.471 E0.04348 ; brim
G1 X160.026 Y113.495 E0.04395 ; brim
G1 X160.544 Y114.667 E0.04337 ; brim
G1 X160.767 Y115.978 E0.04503 ; brim
G1 X160.773 Y119.321 E0.11315 ; brim
G1 X160.641 Y120.373 E0.03588 ; brim
G1 X160.094 Y121.786 E0.05130 ; brim
G1 X159.146 Y123.008 E0.05236 ; brim
G1 X157.965 Y123.862 E0.04934 ; brim
G1 X156.806 Y124.309 E0.04204 ; brim
G1 X155.840 Y124.460 E0.03308 ; brim
G1 X140.832 Y124.472 E0.50803 ; brim
G1 X140.365 Y124.065 F7200.000 ; move to first brim point
G1 F1680
G1 X140.357 Y139.461 E0.52113 ; brim
G1 X140.219 Y140.386 E0.03165 ; brim
G1 X139.729 Y141.602 E0.04437 ; brim
G1 X138.776 Y142.797 E0.05173 ; brim
G1 X137.702 Y143.541 E0.04421 ; brim
G1 X136.701 Y143.915 E0.03618 ; brim
G1 X135.625 Y144.067 E0.03680 ; brim
G1 X57.347 Y144.065 E2.64961 ; brim
G1 X56.435 Y143.952 E0.03111 ; brim
G1 X54.979 Y143.361 E0.05319 ; brim
G1 X53.812 Y142.382 E0.05155 ; brim
G1 X53.286 Y141.637 E0.03086 ; brim
G1 X52.909 Y140.826 E0.03030 ; brim
G1 X52.663 Y139.696 E0.03915 ; brim
G1 X52.634 Y124.065 E0.52907 ; brim
G1 X37.034 Y124.038 E0.52803 ; brim
G1 X35.804 Y123.762 E0.04268 ; brim
G1 X34.677 Y123.165 E0.04314 ; brim
G1 X33.758 Y122.314 E0.04240 ; brim
G1 X33.170 Y121.425 E0.03611 ; brim
G1 X32.778 Y120.383 E0.03767 ; brim
G1 X32.633 Y119.356 E0.03512 ; brim
G1 X32.633 Y116.029 E0.11260 ; brim
G1 X32.891 Y114.634 E0.04800 ; brim
G1 X33.415 Y113.553 E0.04070 ; brim
G1 X34.190 Y112.631 E0.04074 ; brim
G1 X35.161 Y111.931 E0.04054 ; brim
G1 X36.307 Y111.481 E0.04167 ; brim
G1 X37.376 Y111.332 E0.03652 ; brim
G1 X69.441 Y111.332 E1.08536 ; brim
G1 X70.412 Y110.009 E0.05557 ; brim
G1 X72.745 Y108.116 E0.10168 ; brim
G1 X75.654 Y106.815 E0.10787 ; brim
G1 X78.871 Y106.335 E0.11011 ; brim
G1 X82.159 Y106.762 E0.11223 ; brim
G1 X85.302 Y108.147 E0.11624 ; brim
G1 X87.590 Y110.014 E0.09998 ; brim
G1 X88.557 Y111.332 E0.05534 ; brim
G1 X100.950 Y111.332 E0.41948 ; brim
G1 X102.279 Y109.843 E0.06756 ; brim
G1 X105.069 Y107.915 E0.11482 ; brim
G1 X108.219 Y106.727 E0.11393 ; brim
G1 X111.548 Y106.334 E0.11348 ; brim
G1 X114.828 Y106.739 E0.11187 ; brim
G1 X117.876 Y107.887 E0.11025 ; brim
G1 X120.714 Y109.840 E0.11661 ; brim
G1 X122.047 Y111.333 E0.06774 ; brim
G1 X155.852 Y111.350 E1.14424 ; brim
G1 X156.955 Y111.556 E0.03799 ; brim
G1 X158.025 Y112.041 E0.03977 ; brim
G1 X158.924 Y112.742 E0.03859 ; brim
G1 X159.665 Y113.683 E0.04053 ; brim
G1 X160.161 Y114.808 E0.04161 ; brim
G1 X160.360 Y115.995 E0.04076 ; brim
G1 X160.366 Y119.310 E0.11219 ; brim
G1 X160.252 Y120.250 E0.03206 ; brim
G1 X159.726 Y121.610 E0.04938 ; brim
G1 X158.844 Y122.733 E0.04831 ; brim
G1 X157.750 Y123.515 E0.04554 ; brim
G1 X156.721 Y123.910 E0.03730 ; brim
G1 X155.824 Y124.053 E0.03075 ; brim
G1 X140.425 Y124.065 E0.52124 ; brim
G1 X139.958 Y123.659 F7200.000 ; move to first brim point
G1 F1680
G1 X139.950 Y139.446 E0.53437 ; brim
G1 X139.820 Y140.302 E0.02932 ; brim
G1 X139.390 Y141.374 E0.03908 ; brim
G1 X138.518 Y142.482 E0.04774 ; brim
G1 X137.535 Y143.169 E0.04058 ; brim
G1 X136.580 Y143.526 E0.03452 ; brim
G1 X135.611 Y143.660 E0.03311 ; brim
G1 X57.360 Y143.658 E2.64871 ; brim
G1 X56.512 Y143.551 E0.02894 ; brim
G1 X55.214 Y143.028 E0.04736 ; brim
G1 X54.128 Y142.124 E0.04782 ; brim
G1 X53.648 Y141.449 E0.02806 ; brim
G1 X53.288 Y140.675 E0.02887 ; brim
G1 X53.065 Y139.632 E0.03611 ; brim
G1 X53.040 Y123.659 E0.54067 ; brim
G1 X37.099 Y123.635 E0.53959 ; brim
G1 X35.967 Y123.388 E0.03921 ; brim
G1 X34.932 Y122.847 E0.03954 ; brim
G1 X34.084 Y122.069 E0.03897 ; brim
G1 X33.522 Y121.220 E0.03444 ; brim
G1 X33.168 Y120.263 E0.03454 ; brim
G1 X33.040 Y119.342 E0.03148 ; brim
G1 X33.040 Y116.047 E0.11153 ; brim
G1 X33.269 Y114.787 E0.04335 ; brim
G1 X33.770 Y113.754 E0.03886 ; brim
G1 X34.483 Y112.915 E0.03727 ; brim
G1 X35.376 Y112.278 E0.03713 ; brim
G1 X36.431 Y111.869 E0.03829 ; brim
G1 X37.389 Y111.740 E0.03273 ; brim
G1 X69.648 Y111.740 E1.09194 ; brim
G1 X70.690 Y110.308 E0.05991 ; brim
G1 X72.980 Y108.449 E0.09985 ; brim
G1 X75.793 Y107.198 E0.10421 ; brim
G1 X78.902 Y106.742 E0.10635 ; brim
G1 X82.077 Y107.162 E0.10840 ; brim
G1 X85.066 Y108.479 E0.11056 ; brim
G1 X87.312 Y110.313 E0.09815 ; brim
G1 X88.349 Y111.740 E0.05971 ; brim
G1 X101.134 Y111.740 E0.43273 ; brim
G1 X102.531 Y110.164 E0.07130 ; brim
G1 X105.237 Y108.286 E0.11148 ; brim
G1 X108.291 Y107.128 E0.11056 ; brim
G1 X111.571 Y106.741 E0.11179 ; brim
G1 X114.753 Y107.140 E0.10855 ; brim
G1 X117.709 Y108.259 E0.10698 ; brim
G1 X120.463 Y110.161 E0.11328 ; brim
G1 X121.864 Y111.740 E0.07146 ; brim
G1 X155.798 Y111.753 E1.14861 ; brim
G1 X156.812 Y111.938 E0.03491 ; brim
G1 X157.796 Y112.378 E0.03649 ; brim
G1 X158.621 Y113.016 E0.03529 ; brim
G1 X159.304 Y113.874 E0.03712 ; brim
G1 X159.764 Y114.901 E0.03811 ; brim
G1 X159.956 Y116.046 E0.03929 ; brim
G1 X159.959 Y119.297 E0.11005 ; brim
G1 X159.851 Y120.174 E0.02991 ; brim
G1 X159.358 Y121.433 E0.04575 ; brim
G1 X158.545 Y122.456 E0.04426 ; brim
G1 X157.536 Y123.168 E0.04177 ; brim
G1 X156.635 Y123.512 E0.03265 ; brim
G1 X155.807 Y123.646 E0.02841 ; brim
G1 X140.018 Y123.659 E0.53444 ; brim
G1 X139.551 Y123.252 F7200.000 ; move to first brim point
G1 F1680
G1 X139.543 Y139.430 E0.54760 ; brim
G1 X139.421 Y140.217 E0.02698 ; brim
G1 X139.051 Y141.147 E0.03388 ; brim
G1 X138.258 Y142.167 E0.04375 ; brim
G1 X137.366 Y142.798 E0.03696 ; brim
G1 X136.500 Y143.126 E0.03133 ; brim
G1 X135.597 Y143.253 E0.03089 ; brim
G1 X57.373 Y143.251 E2.64778 ; brim
G1 X56.590 Y143.151 E0.02671 ; brim
G1 X55.398 Y142.663 E0.04361 ; brim
G1 X54.445 Y141.867 E0.04203 ; brim
G1 X53.991 Y141.229 E0.02653 ; brim
G1 X53.668 Y140.527 E0.02615 ; brim
G1 X53.468 Y139.570 E0.03310 ; brim
G1 X53.447 Y123.252 E0.55233 ; brim
G1 X37.162 Y123.233 E0.55122 ; brim
G1 X36.129 Y123.014 E0.03576 ; brim
G1 X35.185 Y122.527 E0.03593 ; brim
G1 X34.408 Y121.821 E0.03556 ; brim
G1 X33.895 Y121.054 E0.03122 ; brim
G1 X33.568 Y120.184 E0.03147 ; brim
G1 X33.448 Y119.327 E0.02927 ; brim
G1 X33.447 Y116.065 E0.11044 ; brim
G1 X33.648 Y114.937 E0.03877 ; brim
G1 X34.099 Y113.995 E0.03534 ; brim
G1 X34.742 Y113.229 E0.03385 ; brim
G1 X35.550 Y112.647 E0.03370 ; brim
G1 X36.511 Y112.269 E0.03496 ; brim
G1 X37.403 Y112.147 E0.03049 ; brim
G1 X69.857 Y112.147 E1.09853 ; brim
G1 X70.968 Y110.606 E0.06428 ; brim
G1 X73.171 Y108.810 E0.09623 ; brim
G1 X75.881 Y107.597 E0.10050 ; brim
G1 X78.878 Y107.149 E0.10255 ; brim
G1 X81.939 Y107.546 E0.10449 ; brim
G1 X84.876 Y108.841 E0.10862 ; brim
G1 X87.033 Y110.610 E0.09444 ; brim
G1 X88.140 Y112.147 E0.06411 ; brim
G1 X101.318 Y112.147 E0.44603 ; brim
G1 X102.784 Y110.483 E0.07506 ; brim
G1 X105.406 Y108.658 E0.10813 ; brim
G1 X108.365 Y107.529 E0.10720 ; brim
G1 X111.546 Y107.148 E0.10845 ; brim
G1 X114.632 Y107.529 E0.10524 ; brim
G1 X117.541 Y108.631 E0.10530 ; brim
G1 X120.210 Y110.481 E0.10992 ; brim
G1 X121.680 Y112.147 E0.07520 ; brim
G1 X155.778 Y112.160 E1.15420 ; brim
G1 X156.714 Y112.334 E0.03221 ; brim
G1 X157.568 Y112.716 E0.03168 ; brim
G1 X158.319 Y113.289 E0.03196 ; brim
G1 X158.969 Y114.106 E0.03534 ; brim
G1 X159.381 Y115.041 E0.03458 ; brim
G1 X159.549 Y116.062 E0.03504 ; brim
G1 X159.552 Y119.286 E0.10912 ; brim
G1 X159.462 Y120.053 E0.02614 ; brim
G1 X159.020 Y121.204 E0.04174 ; brim
G1 X158.245 Y122.179 E0.04216 ; brim
G1 X157.325 Y122.819 E0.03792 ; brim
G1 X156.549 Y123.114 E0.02811 ; brim
G1 X155.790 Y123.239 E0.02605 ; brim
G1 X139.611 Y123.252 E0.54763 ; brim
G1 X139.144 Y122.845 F7200.000 ; move to first brim point
G1 F1680
G1 X139.136 Y139.413 E0.56081 ; brim
G1 X139.023 Y140.132 E0.02462 ; brim
G1 X138.710 Y140.923 E0.02878 ; brim
G1 X137.995 Y141.855 E0.03976 ; brim
G1 X137.194 Y142.428 E0.03334 ; brim
G1 X136.419 Y142.727 E0.02811 ; brim
G1 X135.582 Y142.846 E0.02863 ; brim
G1 X57.386 Y142.844 E2.64683 ; brim
G1 X56.669 Y142.751 E0.02449 ; brim
G1 X55.633 Y142.329 E0.03787 ; brim
G1 X54.759 Y141.608 E0.03834 ; brim
G1 X54.352 Y141.040 E0.02364 ; brim
G1 X54.048 Y140.379 E0.02466 ; brim
G1 X53.871 Y139.509 E0.03004 ; brim
G1 X53.853 Y122.845 E0.56404 ; brim
G1 X37.223 Y122.830 E0.56292 ; brim
G1 X36.287 Y122.638 E0.03232 ; brim
G1 X35.436 Y122.205 E0.03232 ; brim
G1 X34.731 Y121.573 E0.03206 ; brim
G1 X34.247 Y120.848 E0.02951 ; brim
G1 X33.957 Y120.064 E0.02828 ; brim
G1 X33.855 Y119.314 E0.02564 ; brim
G1 X33.854 Y116.082 E0.10940 ; brim
G1 X34.028 Y115.085 E0.03426 ; brim
G1 X34.429 Y114.234 E0.03182 ; brim
G1 X35.002 Y113.544 E0.03036 ; brim
G1 X35.766 Y112.993 E0.03189 ; brim
G1 X36.634 Y112.658 E0.03149 ; brim
G1 X37.416 Y112.554 E0.02671 ; brim
G1 X70.067 Y112.554 E1.10519 ; brim
G1 X71.247 Y110.905 E0.06864 ; brim
G1 X73.407 Y109.142 E0.09438 ; brim
G1 X76.021 Y107.980 E0.09682 ; brim
G1 X78.909 Y107.556 E0.09879 ; brim
G1 X81.857 Y107.946 E0.10067 ; brim
G1 X84.639 Y109.173 E0.10292 ; brim
G1 X86.754 Y110.908 E0.09258 ; brim
G1 X87.931 Y112.554 E0.06849 ; brim
G1 X101.502 Y112.554 E0.45939 ; brim
G1 X103.038 Y110.803 E0.07884 ; brim
G1 X105.575 Y109.029 E0.10479 ; brim
G1 X108.439 Y107.930 E0.10384 ; brim
G1 X111.522 Y107.555 E0.10511 ; brim
G1 X114.511 Y107.919 E0.10192 ; brim
G1 X117.373 Y109.002 E0.10360 ; brim
G1 X119.957 Y110.801 E0.10654 ; brim
G1 X121.495 Y112.554 E0.07895 ; brim
G1 X155.725 Y112.564 E1.15865 ; brim
G1 X156.573 Y112.716 E0.02916 ; brim
G1 X157.343 Y113.056 E0.02848 ; brim
G1 X158.018 Y113.565 E0.02864 ; brim
G1 X158.609 Y114.298 E0.03185 ; brim
G1 X158.984 Y115.134 E0.03101 ; brim
G1 X159.145 Y116.112 E0.03356 ; brim
G1 X159.145 Y119.274 E0.10702 ; brim
G1 X159.061 Y119.979 E0.02403 ; brim
G1 X158.652 Y121.026 E0.03805 ; brim
G1 X157.948 Y121.900 E0.03799 ; brim
G1 X157.116 Y122.469 E0.03411 ; brim
G1 X156.462 Y122.716 E0.02368 ; brim
G1 X155.772 Y122.832 E0.02368 ; brim
G1 X139.204 Y122.845 E0.56081 ; brim
G1 X138.737 Y122.438 F7200.000 ; move to first brim point
G1 F1680
G1 X138.728 Y139.397 E0.57402 ; brim
G1 X138.624 Y140.046 E0.02226 ; brim
G1 X138.368 Y140.701 E0.02379 ; brim
G1 X137.731 Y141.544 E0.03578 ; brim
G1 X137.023 Y142.058 E0.02962 ; brim
G1 X136.295 Y142.338 E0.02639 ; brim
G1 X135.569 Y142.439 E0.02483 ; brim
G1 X57.400 Y142.437 E2.64591 ; brim
G1 X56.749 Y142.351 E0.02222 ; brim
G1 X55.817 Y141.965 E0.03415 ; brim
G1 X55.075 Y141.350 E0.03264 ; brim
G1 X54.695 Y140.820 E0.02207 ; brim
G1 X54.429 Y140.233 E0.02182 ; brim
G1 X54.274 Y139.450 E0.02701 ; brim
G1 X54.260 Y122.438 E0.57582 ; brim
G1 X37.282 Y122.427 E0.57471 ; brim
G1 X36.444 Y122.261 E0.02891 ; brim
G1 X35.685 Y121.882 E0.02870 ; brim
G1 X35.055 Y121.324 E0.02849 ; brim
G1 X34.599 Y120.643 E0.02774 ; brim
G1 X34.348 Y119.948 E0.02503 ; brim
G1 X34.262 Y119.301 E0.02209 ; brim
G1 X34.262 Y116.099 E0.10839 ; brim
G1 X34.410 Y115.230 E0.02982 ; brim
G1 X34.760 Y114.473 E0.02823 ; brim
G1 X35.298 Y113.825 E0.02852 ; brim
G1 X35.979 Y113.340 E0.02831 ; brim
G1 X36.754 Y113.047 E0.02805 ; brim
G1 X37.429 Y112.961 E0.02301 ; brim
G1 X70.278 Y112.961 E1.11190 ; brim
G1 X71.526 Y111.202 E0.07299 ; brim
G1 X73.643 Y109.475 E0.09250 ; brim
G1 X76.160 Y108.364 E0.09311 ; brim
G1 X78.938 Y107.963 E0.09503 ; brim
G1 X81.774 Y108.346 E0.09685 ; brim
G1 X84.402 Y109.505 E0.09724 ; brim
G1 X86.474 Y111.205 E0.09071 ; brim
G1 X87.720 Y112.961 E0.07287 ; brim
