; generated by Slic3r 1.37.2-prusa3d-win64 on 2018-02-14 at 16:33:06

; 

; external perimeters extrusion width = 0.50mm
; perimeters extrusion width = 0.50mm
; infill extrusion width = 0.60mm
; solid infill extrusion width = 0.50mm
; top infill extrusion width = 0.45mm

M107
M115 U3.1.0 ; tell printer latest fw version
M83  ; extruder relative mode
M104 S150
M140 S55 ; set bed temp
G28 W ; home all without mesh bed level
G1 X125 Z80 F1000
M190 S55 ; wait for bed temp
M104 S230 ; set extruder temp
G80 ; mesh bed leveling
M109 S230 ; wait for extruder temp
G1 Y-3.0 F1000.0 ; go outside print area
G92 E0.0
G1 X60.0 E9.0  F1000.0 ; intro line
G1 X100.0 E12.5  F1000.0 ; intro line
G92 E0.0
M900 K10 ; Filament gcode
G21 ; set units to millimeters
G90 ; use absolute coordinates
M83 ; use relative distances for extrusion
;BEFORE_LAYER_CHANGE
;0.2


G1 E-0.80000 F2100.00000
G1 Z0.200 F7200.000
;AFTER_LAYER_CHANGE
;0.2
G1 X98.737 Y77.494 F7200.000
G1 E0.80000 F2100.00000
M204 S1000
G1 F1800
G1 X99.668 Y77.293 E0.03222
G1 X150.304 Y77.293 E1.71398
G1 X151.205 Y77.469 E0.03108
G1 X151.974 Y77.970 E0.03108
G1 X152.500 Y78.723 E0.03108
G1 X152.706 Y79.622 E0.03120
G1 X152.707 Y130.331 E1.71644
G1 X152.529 Y131.208 E0.03031
G1 X152.043 Y131.960 E0.03031
G1 X151.252 Y132.511 E0.03260
G1 X150.306 Y132.707 E0.03273
G1 X99.669 Y132.707 E1.71398
G1 X98.792 Y132.529 E0.03031
G1 X98.037 Y132.040 E0.03044
G1 X97.488 Y131.249 E0.03260
G1 X97.293 Y130.306 E0.03260
G1 X97.293 Y79.669 E1.71398
G1 X97.471 Y78.792 E0.03031
G1 X97.960 Y78.037 E0.03044
G1 X98.688 Y77.528 E0.03006
G1 F5760
G1 X99.668 Y77.293 E-0.34896
G1 F5760
G1 X100.854 Y77.293 E-0.41104
G1 E-0.04000 F2100.00000
G1 X100.864 Y80.864 F7200.000
G1 E0.80000 F2100.00000
G1 F1800
G1 X149.136 Y80.864 E1.83463
G1 X149.136 Y129.136 E1.83463
G1 X100.864 Y129.136 E1.83463
G1 X100.864 Y80.924 E1.83235
G1 X100.407 Y80.407 F7200.000
G1 F1800
G1 X149.593 Y80.407 E1.86937
G1 X149.593 Y129.593 E1.86937
G1 X100.407 Y129.593 E1.86937
G1 X100.407 Y80.467 E1.86709
G1 X99.950 Y79.950 F7200.000
G1 F1800
G1 X150.050 Y79.950 E1.90412
G1 X150.050 Y130.050 E1.90412
G1 X99.950 Y130.050 E1.90412
G1 X99.950 Y80.010 E1.90184
G1 X100.336 Y80.054 F7200.000
G1 F5760
G1 X102.144 Y80.007 E-0.76000
G1 E-0.04000 F2100.00000
G1 X101.929 Y128.999 F7200.000
G1 E0.80000 F2100.00000
G1 F1800
G1 X101.207 Y128.276 E0.03900
G1 X101.207 Y127.627 E0.02478
G1 X102.373 Y128.793 E0.06295
G1 X103.022 Y128.793 E0.02478
G1 X101.207 Y126.978 E0.09800
G1 X101.207 Y126.329 E0.02478
G1 X103.671 Y128.793 E0.13304
G1 X104.321 Y128.793 E0.02478
G1 X101.207 Y125.679 E0.16809
G1 X101.207 Y125.030 E0.02478
G1 X104.970 Y128.793 E0.20314
G1 X105.619 Y128.793 E0.02478
G1 X101.207 Y124.381 E0.23819
G1 X101.207 Y123.732 E0.02478
G1 X106.268 Y128.793 E0.27324
G1 X106.918 Y128.793 E0.02478
G1 X101.207 Y123.082 E0.30828
G1 X101.207 Y122.433 E0.02478
G1 X107.567 Y128.793 E0.34333
G1 X108.216 Y128.793 E0.02478
G1 X101.207 Y121.784 E0.37838
G1 X101.207 Y121.135 E0.02478
G1 X108.865 Y128.793 E0.41343
G1 X109.515 Y128.793 E0.02478
G1 X101.207 Y120.485 E0.44848
G1 X101.207 Y119.836 E0.02478
G1 X110.164 Y128.793 E0.48352
G1 X110.813 Y128.793 E0.02478
G1 X101.207 Y119.187 E0.51857
G1 X101.207 Y118.538 E0.02478
G1 X111.462 Y128.793 E0.55362
G1 X112.111 Y128.793 E0.02478
G1 X101.207 Y117.889 E0.58867
G1 X101.207 Y117.239 E0.02478
G1 X112.761 Y128.793 E0.62372
G1 X113.410 Y128.793 E0.02478
G1 X101.207 Y116.590 E0.65876
G1 X101.207 Y115.941 E0.02478
G1 X114.059 Y128.793 E0.69381
G1 X114.708 Y128.793 E0.02478
G1 X101.207 Y115.292 E0.72886
G1 X101.207 Y114.642 E0.02478
G1 X115.358 Y128.793 E0.76391
G1 X116.007 Y128.793 E0.02478
G1 X101.207 Y113.993 E0.79896
G1 X101.207 Y113.344 E0.02478
G1 X116.656 Y128.793 E0.83400
G1 X117.305 Y128.793 E0.02478
G1 X101.207 Y112.695 E0.86905
G1 X101.207 Y112.045 E0.02478
G1 X117.955 Y128.793 E0.90410
G1 X118.604 Y128.793 E0.02478
G1 X101.207 Y111.396 E0.93915
G1 X101.207 Y110.747 E0.02478
G1 X119.253 Y128.793 E0.97420
G1 X119.902 Y128.793 E0.02478
G1 X101.207 Y110.098 E1.00924
G1 X101.207 Y109.449 E0.02478
G1 X120.551 Y128.793 E1.04429
G1 X121.201 Y128.793 E0.02478
G1 X101.207 Y108.799 E1.07934
G1 X101.207 Y108.150 E0.02478
G1 X121.850 Y128.793 E1.11439
G1 X122.499 Y128.793 E0.02478
G1 X101.207 Y107.501 E1.14944
G1 X101.207 Y106.852 E0.02478
G1 X123.148 Y128.793 E1.18448
G1 X123.798 Y128.793 E0.02478
G1 X101.207 Y106.202 E1.21953
G1 X101.207 Y105.553 E0.02478
G1 X124.447 Y128.793 E1.25458
G1 X125.096 Y128.793 E0.02478
G1 X101.207 Y104.904 E1.28963
G1 X101.207 Y104.255 E0.02478
G1 X125.745 Y128.793 E1.32468
G1 X126.395 Y128.793 E0.02478
G1 X101.207 Y103.605 E1.35972
G1 X101.207 Y102.956 E0.02478
G1 X127.044 Y128.793 E1.39477
G1 X127.693 Y128.793 E0.02478
G1 X101.207 Y102.307 E1.42982
G1 X101.207 Y101.658 E0.02478
G1 X128.342 Y128.793 E1.46487
G1 X128.991 Y128.793 E0.02478
G1 X101.207 Y101.009 E1.49992
G1 X101.207 Y100.359 E0.02478
G1 X129.641 Y128.793 E1.53496
G1 X130.290 Y128.793 E0.02478
G1 X101.207 Y99.710 E1.57001
G1 X101.207 Y99.061 E0.02478
G1 X130.939 Y128.793 E1.60506
G1 X131.588 Y128.793 E0.02478
G1 X101.207 Y98.412 E1.64011
G1 X101.207 Y97.762 E0.02478
G1 X132.238 Y128.793 E1.67516
G1 X132.887 Y128.793 E0.02478
G1 X101.207 Y97.113 E1.71020
G1 X101.207 Y96.464 E0.02478
G1 X133.536 Y128.793 E1.74525
G1 X134.185 Y128.793 E0.02478
G1 X101.207 Y95.815 E1.78030
G1 X101.207 Y95.165 E0.02478
G1 X134.835 Y128.793 E1.81535
G1 X135.484 Y128.793 E0.02478
G1 X101.207 Y94.516 E1.85040
G1 X101.207 Y93.867 E0.02478
G1 X136.133 Y128.793 E1.88544
G1 X136.782 Y128.793 E0.02478
G1 X101.207 Y93.218 E1.92049
G1 X101.207 Y92.569 E0.02478
G1 X137.431 Y128.793 E1.95554
G1 X138.081 Y128.793 E0.02478
G1 X101.207 Y91.919 E1.99059
G1 X101.207 Y91.270 E0.02478
G1 X138.730 Y128.793 E2.02564
G1 X139.379 Y128.793 E0.02478
G1 X101.207 Y90.621 E2.06068
G1 X101.207 Y89.972 E0.02478
G1 X140.028 Y128.793 E2.09573
G1 X140.678 Y128.793 E0.02478
G1 X101.207 Y89.322 E2.13078
G1 X101.207 Y88.673 E0.02478
G1 X141.327 Y128.793 E2.16583
G1 X141.976 Y128.793 E0.02478
G1 X101.207 Y88.024 E2.20088
G1 X101.207 Y87.375 E0.02478
G1 X142.625 Y128.793 E2.23592
G1 X143.275 Y128.793 E0.02478
G1 X101.207 Y86.725 E2.27097
G1 X101.207 Y86.076 E0.02478
G1 X143.924 Y128.793 E2.30602
G1 X144.573 Y128.793 E0.02478
G1 X101.207 Y85.427 E2.34107
G1 X101.207 Y84.778 E0.02478
G1 X145.222 Y128.793 E2.37612
G1 X145.871 Y128.793 E0.02478
G1 X101.207 Y84.129 E2.41116
G1 X101.207 Y83.479 E0.02478
G1 X146.521 Y128.793 E2.44621
G1 X147.170 Y128.793 E0.02478
G1 X101.207 Y82.830 E2.48126
G1 X101.207 Y82.181 E0.02478
G1 X147.819 Y128.793 E2.51631
G1 X148.468 Y128.793 E0.02478
G1 X101.207 Y81.532 E2.55135
G1 X101.207 Y81.207 E0.01239
G1 X101.532 Y81.207 E0.01239
G1 X148.793 Y128.468 E2.55136
G1 X148.793 Y127.819 E0.02478
G1 X102.181 Y81.207 E2.51631
G1 X102.830 Y81.207 E0.02478
G1 X148.793 Y127.170 E2.48126
G1 X148.793 Y126.521 E0.02478
G1 X103.479 Y81.207 E2.44621
G1 X104.128 Y81.207 E0.02478
G1 X148.793 Y125.872 E2.41116
G1 X148.793 Y125.222 E0.02478
G1 X104.778 Y81.207 E2.37612
G1 X105.427 Y81.207 E0.02478
G1 X148.793 Y124.573 E2.34107
G1 X148.793 Y123.924 E0.02478
G1 X106.076 Y81.207 E2.30602
G1 X106.725 Y81.207 E0.02478
G1 X148.793 Y123.275 E2.27097
G1 X148.793 Y122.625 E0.02478
G1 X107.375 Y81.207 E2.23592
G1 X108.024 Y81.207 E0.02478
G1 X148.793 Y121.976 E2.20088
G1 X148.793 Y121.327 E0.02478
G1 X108.673 Y81.207 E2.16583
G1 X109.322 Y81.207 E0.02478
G1 X148.793 Y120.678 E2.13078
G1 X148.793 Y120.028 E0.02478
G1 X109.972 Y81.207 E2.09573
G1 X110.621 Y81.207 E0.02478
G1 X148.793 Y119.379 E2.06068
G1 X148.793 Y118.730 E0.02478
G1 X111.270 Y81.207 E2.02564
G1 X111.919 Y81.207 E0.02478
G1 X148.793 Y118.081 E1.99059
G1 X148.793 Y117.432 E0.02478
G1 X112.568 Y81.207 E1.95554
G1 X113.218 Y81.207 E0.02478
G1 X148.793 Y116.782 E1.92049
G1 X148.793 Y116.133 E0.02478
G1 X113.867 Y81.207 E1.88544
G1 X114.516 Y81.207 E0.02478
G1 X148.793 Y115.484 E1.85040
G1 X148.793 Y114.835 E0.02478
G1 X115.165 Y81.207 E1.81535
G1 X115.815 Y81.207 E0.02478
G1 X148.793 Y114.185 E1.78030
G1 X148.793 Y113.536 E0.02478
G1 X116.464 Y81.207 E1.74525
G1 X117.113 Y81.207 E0.02478
G1 X148.793 Y112.887 E1.71020
G1 X148.793 Y112.238 E0.02478
G1 X117.762 Y81.207 E1.67516
G1 X118.412 Y81.207 E0.02478
G1 X148.793 Y111.588 E1.64011
G1 X148.793 Y110.939 E0.02478
G1 X119.061 Y81.207 E1.60506
G1 X119.710 Y81.207 E0.02478
G1 X148.793 Y110.290 E1.57001
G1 X148.793 Y109.641 E0.02478
G1 X120.359 Y81.207 E1.53496
G1 X121.008 Y81.207 E0.02478
G1 X148.793 Y108.992 E1.49992
G1 X148.793 Y108.342 E0.02478
G1 X121.658 Y81.207 E1.46487
G1 X122.307 Y81.207 E0.02478
G1 X148.793 Y107.693 E1.42982
G1 X148.793 Y107.044 E0.02478
G1 X122.956 Y81.207 E1.39477
G1 X123.605 Y81.207 E0.02478
G1 X148.793 Y106.395 E1.35972
G1 X148.793 Y105.745 E0.02478
G1 X124.255 Y81.207 E1.32468
G1 X124.904 Y81.207 E0.02478
G1 X148.793 Y105.096 E1.28963
G1 X148.793 Y104.447 E0.02478
G1 X125.553 Y81.207 E1.25458
G1 X126.202 Y81.207 E0.02478
G1 X148.793 Y103.798 E1.21953
G1 X148.793 Y103.148 E0.02478
G1 X126.852 Y81.207 E1.18448
G1 X127.501 Y81.207 E0.02478
G1 X148.793 Y102.499 E1.14944
G1 X148.793 Y101.850 E0.02478
G1 X128.150 Y81.207 E1.11439
G1 X128.799 Y81.207 E0.02478
G1 X148.793 Y101.201 E1.07934
G1 X148.793 Y100.551 E0.02478
G1 X129.449 Y81.207 E1.04429
G1 X130.098 Y81.207 E0.02478
G1 X148.793 Y99.902 E1.00924
G1 X148.793 Y99.253 E0.02478
G1 X130.747 Y81.207 E0.97420
G1 X131.396 Y81.207 E0.02478
G1 X148.793 Y98.604 E0.93915
G1 X148.793 Y97.955 E0.02478
G1 X132.045 Y81.207 E0.90410
G1 X132.695 Y81.207 E0.02478
G1 X148.793 Y97.305 E0.86905
G1 X148.793 Y96.656 E0.02478
G1 X133.344 Y81.207 E0.83400
G1 X133.993 Y81.207 E0.02478
G1 X148.793 Y96.007 E0.79896
G1 X148.793 Y95.358 E0.02478
G1 X134.642 Y81.207 E0.76391
G1 X135.292 Y81.207 E0.02478
G1 X148.793 Y94.708 E0.72886
G1 X148.793 Y94.059 E0.02478
G1 X135.941 Y81.207 E0.69381
G1 X136.590 Y81.207 E0.02478
G1 X148.793 Y93.410 E0.65876
G1 X148.793 Y92.761 E0.02478
G1 X137.239 Y81.207 E0.62372
G1 X137.889 Y81.207 E0.02478
G1 X148.793 Y92.111 E0.58867
G1 X148.793 Y91.462 E0.02478
G1 X138.538 Y81.207 E0.55362
G1 X139.187 Y81.207 E0.02478
G1 X148.793 Y90.813 E0.51857
G1 X148.793 Y90.164 E0.02478
G1 X139.836 Y81.207 E0.48352
G1 X140.485 Y81.207 E0.02478
G1 X148.793 Y89.515 E0.44848
G1 X148.793 Y88.865 E0.02478
G1 X141.135 Y81.207 E0.41343
G1 X141.784 Y81.207 E0.02478
G1 X148.793 Y88.216 E0.37838
G1 X148.793 Y87.567 E0.02478
G1 X142.433 Y81.207 E0.34333
G1 X143.082 Y81.207 E0.02478
G1 X148.793 Y86.918 E0.30828
G1 X148.793 Y86.268 E0.02478
G1 X143.732 Y81.207 E0.27324
G1 X144.381 Y81.207 E0.02478
G1 X148.793 Y85.619 E0.23819
G1 X148.793 Y84.970 E0.02478
G1 X145.030 Y81.207 E0.20314
G1 X145.679 Y81.207 E0.02478
G1 X148.793 Y84.321 E0.16809
G1 X148.793 Y83.671 E0.02478
G1 X146.329 Y81.207 E0.13304
G1 X146.978 Y81.207 E0.02478
G1 X148.793 Y83.022 E0.09800
G1 X148.793 Y82.373 E0.02478
G1 X147.627 Y81.207 E0.06295
G1 X148.276 Y81.207 E0.02478
G1 X148.999 Y81.929 E0.03900
M106 S232.05
;BEFORE_LAYER_CHANGE
;0.4


G1 F5760
G1 X148.276 Y81.207 E-0.35391
G1 F5760
G1 X147.627 Y81.207 E-0.22486
G1 F5760
G1 X147.997 Y81.577 E-0.18123
G1 E-0.04000 F2100.00000
G1 Z0.400 F7200.000
;AFTER_LAYER_CHANGE
;0.4
G1 X152.500 Y78.723 F7200.000
G1 E0.80000 F2100.00000
G1 F3600
G1 X152.706 Y79.622 E0.03120
G1 X152.707 Y130.331 E1.71644
G1 X152.529 Y131.208 E0.03031
G1 X152.043 Y131.960 E0.03031
G1 X151.252 Y132.511 E0.03260
G1 X150.306 Y132.707 E0.03273
G1 X99.669 Y132.707 E1.71398
G1 X98.792 Y132.529 E0.03031
G1 X98.037 Y132.040 E0.03044
G1 X97.488 Y131.249 E0.03260
G1 X97.293 Y130.306 E0.03260
G1 X97.293 Y79.669 E1.71398
G1 X97.471 Y78.792 E0.03031
G1 X97.960 Y78.037 E0.03044
G1 X98.737 Y77.494 E0.03209
G1 X99.668 Y77.293 E0.03222
G1 X150.304 Y77.293 E1.71398
G1 X151.205 Y77.469 E0.03108
G1 X151.974 Y77.970 E0.03108
G1 X152.466 Y78.674 E0.02905
G1 F5760
G1 X152.706 Y79.622 E-0.33864
G1 F5760
G1 X152.706 Y80.838 E-0.42136
G1 E-0.04000 F2100.00000
G1 X148.936 Y81.064 F7200.000
G1 E0.80000 F2100.00000
M204 S800
G1 F4800
G1 X148.936 Y128.936 E1.81943
G1 X101.064 Y128.936 E1.81943
G1 X101.064 Y81.064 E1.81943
G1 X148.876 Y81.064 E1.81715
M204 S1000
G1 X149.393 Y80.607 F7200.000
M204 S800
G1 F4800
G1 X149.393 Y129.393 E1.85417
G1 X100.607 Y129.393 E1.85417
G1 X100.607 Y80.607 E1.85417
G1 X149.333 Y80.607 E1.85189
M204 S1000
G1 X149.850 Y80.150 F7200.000
M204 S800
G1 F3000
G1 X149.850 Y129.850 E1.88891
G1 X100.150 Y129.850 E1.88891
G1 X100.150 Y80.150 E1.88891
G1 X149.790 Y80.150 E1.88663
M204 S1000
G1 X149.746 Y80.536 F7200.000
G1 F5760
G1 X149.793 Y82.344 E-0.76000
G1 E-0.04000 F2100.00000
G1 X102.128 Y81.201 F7200.000
G1 E0.80000 F2100.00000
M204 S2000
G1 F6545.2
G1 X101.407 Y81.922 E0.03886
G1 X101.407 Y82.570 E0.02470
G1 X102.570 Y81.407 E0.06271
G1 X103.219 Y81.407 E0.02470
G1 X101.407 Y83.219 E0.09764
G1 X101.407 Y83.867 E0.02470
G1 X103.867 Y81.407 E0.13258
G1 X104.515 Y81.407 E0.02470
G1 X101.407 Y84.515 E0.16752
G1 X101.407 Y85.163 E0.02470
G1 X105.163 Y81.407 E0.20246
G1 X105.811 Y81.407 E0.02470
G1 X101.407 Y85.811 E0.23739
G1 X101.407 Y86.460 E0.02470
G1 X106.460 Y81.407 E0.27233
G1 X107.108 Y81.407 E0.02470
G1 X101.407 Y87.108 E0.30727
G1 X101.407 Y87.756 E0.02470
G1 X107.756 Y81.407 E0.34221
G1 X108.404 Y81.407 E0.02470
G1 X101.407 Y88.404 E0.37714
G1 X101.407 Y89.052 E0.02470
G1 X109.052 Y81.407 E0.41208
G1 X109.701 Y81.407 E0.02470
G1 X101.407 Y89.701 E0.44702
G1 X101.407 Y90.349 E0.02470
G1 X110.349 Y81.407 E0.48196
G1 X110.997 Y81.407 E0.02470
G1 X101.407 Y90.997 E0.51689
G1 X101.407 Y91.645 E0.02470
G1 X111.645 Y81.407 E0.55183
G1 X112.293 Y81.407 E0.02470
G1 X101.407 Y92.293 E0.58677
G1 X101.407 Y92.942 E0.02470
G1 X112.942 Y81.407 E0.62171
G1 X113.590 Y81.407 E0.02470
G1 X101.407 Y93.590 E0.65664
G1 X101.407 Y94.238 E0.02470
G1 X114.238 Y81.407 E0.69158
G1 X114.886 Y81.407 E0.02470
G1 X101.407 Y94.886 E0.72652
G1 X101.407 Y95.534 E0.02470
G1 X115.535 Y81.407 E0.76145
G1 X116.183 Y81.407 E0.02470
G1 X101.407 Y96.183 E0.79639
G1 X101.407 Y96.831 E0.02470
G1 X116.831 Y81.407 E0.83133
G1 X117.479 Y81.407 E0.02470
G1 X101.407 Y97.479 E0.86627
G1 X101.407 Y98.127 E0.02470
G1 X118.127 Y81.407 E0.90120
G1 X118.776 Y81.407 E0.02470
G1 X101.407 Y98.776 E0.93614
G1 X101.407 Y99.424 E0.02470
G1 X119.424 Y81.407 E0.97108
G1 X120.072 Y81.407 E0.02470
G1 X101.407 Y100.072 E1.00602
G1 X101.407 Y100.720 E0.02470
G1 X120.720 Y81.407 E1.04095
G1 X121.368 Y81.407 E0.02470
G1 X101.407 Y101.368 E1.07589
G1 X101.407 Y102.017 E0.02470
G1 X122.017 Y81.407 E1.11083
G1 X122.665 Y81.407 E0.02470
G1 X101.407 Y102.665 E1.14577
G1 X101.407 Y103.313 E0.02470
G1 X123.313 Y81.407 E1.18070
G1 X123.961 Y81.407 E0.02470
G1 X101.407 Y103.961 E1.21564
G1 X101.407 Y104.609 E0.02470
G1 X124.609 Y81.407 E1.25058
G1 X125.258 Y81.407 E0.02470
G1 X101.407 Y105.258 E1.28552
G1 X101.407 Y105.906 E0.02470
G1 X125.906 Y81.407 E1.32045
G1 X126.554 Y81.407 E0.02470
G1 X101.407 Y106.554 E1.35539
G1 X101.407 Y107.202 E0.02470
G1 X127.202 Y81.407 E1.39033
G1 X127.850 Y81.407 E0.02470
G1 X101.407 Y107.850 E1.42527
G1 X101.407 Y108.499 E0.02470
G1 X128.499 Y81.407 E1.46020
G1 X129.147 Y81.407 E0.02470
G1 X101.407 Y109.147 E1.49514
G1 X101.407 Y109.795 E0.02470
G1 X129.795 Y81.407 E1.53008
G1 X130.443 Y81.407 E0.02470
G1 X101.407 Y110.443 E1.56501
G1 X101.407 Y111.091 E0.02470
G1 X131.091 Y81.407 E1.59995
G1 X131.740 Y81.407 E0.02470
G1 X101.407 Y111.740 E1.63489
G1 X101.407 Y112.388 E0.02470
G1 X132.388 Y81.407 E1.66983
G1 X133.036 Y81.407 E0.02470
G1 X101.407 Y113.036 E1.70476
G1 X101.407 Y113.684 E0.02470
G1 X133.684 Y81.407 E1.73970
G1 X134.332 Y81.407 E0.02470
G1 X101.407 Y114.332 E1.77464
G1 X101.407 Y114.981 E0.02470
G1 X134.981 Y81.407 E1.80958
G1 X135.629 Y81.407 E0.02470
G1 X101.407 Y115.629 E1.84451
G1 X101.407 Y116.277 E0.02470
G1 X136.277 Y81.407 E1.87945
G1 X136.925 Y81.407 E0.02470
G1 X101.407 Y116.925 E1.91439
G1 X101.407 Y117.574 E0.02470
G1 X137.574 Y81.407 E1.94933
G1 X138.222 Y81.407 E0.02470
G1 X101.407 Y118.222 E1.98426
G1 X101.407 Y118.870 E0.02470
