; generated by Slic3r 1.36.2-prusa3d-stable-win64 on 2017-09-09 at 17:19:15

; 

; external perimeters extrusion width = 0.45mm
; perimeters extrusion width = 0.47mm
; infill extrusion width = 0.45mm
; solid infill extrusion width = 0.45mm
; top infill extrusion width = 0.40mm
; first layer extrusion width = 0.47mm

M115 U3.0.12 ; tell printer latest fw version
M83  ; extruder relative mode
;G28 W ; home all without mesh bed level
G28 XYW ; home XY, not Z, without mesh bed level
G0 Z80 Y-3 ; get head above bed to keep it cool, move the nozzle up front to make cleaning easier
M104 S150 ; set extruder temp to 150C, cold enopugh to avoid ooze, but get some temp on it
M140 S115 ; set bed temp
M190 S115 ; wait for bed temp
M104 S290 ; set extruder temp
M109 S290 ; wait for extruder temp

;G80 ; mesh bed leveling
G1 Y-3.0 F1000.0 ; go outside pritn area
G1 X60.0 E9.0  F1000.0 ; intro line
G1 X100.0 E12.5  F1000.0 ; intro line
; Filament gcode
G21 ; set units to millimeters
G90 ; use absolute coordinates
M83 ; use relative distances for extrusion
; Layer 0
G1 E-0.80000 F2100.00000
G1 Z0.250 F7200.000
G1 X101.156 Y98.087 F7200.000
G1 E0.80000 F2100.00000
M204 S1000
G1 F1680
G1 X101.924 Y97.022 E0.05693
G1 X103.347 Y95.669 E0.08511
G1 X104.009 Y95.244 E0.03411
G1 X104.726 Y94.918 E0.03411
G1 X105.623 Y94.672 E0.04033
G1 X106.549 Y94.584 E0.04033
G1 X141.506 Y94.561 E1.51528
G1 X142.664 Y94.687 E0.05050
G1 X143.773 Y95.061 E0.05074
G1 X144.772 Y95.661 E0.05050
G1 X145.623 Y96.464 E0.05074
G1 X146.157 Y97.212 E0.03983
G1 X149.183 Y102.458 E0.26250
G1 X149.553 Y103.330 E0.04107
G1 X149.765 Y104.254 E0.04107
G1 X149.779 Y105.635 E0.05990
G1 X149.441 Y106.981 E0.06015
G1 X149.123 Y107.651 E0.03213
G1 X146.953 Y111.410 E0.18815
G1 X146.417 Y112.163 E0.04008
G1 X145.761 Y112.814 E0.04008
G1 X145.003 Y113.344 E0.04008
G1 X144.161 Y113.740 E0.04033
G1 X143.258 Y113.986 E0.04057
G1 X142.332 Y114.073 E0.04033
G1 X106.377 Y114.048 E1.55854
G1 X105.601 Y113.916 E0.03411
G1 X104.847 Y113.670 E0.03436
G1 X104.138 Y113.317 E0.03436
G1 X103.487 Y112.864 E0.03436
G1 X101.685 Y111.056 E0.11065
G1 X101.199 Y110.338 E0.03759
G1 X100.832 Y109.545 E0.03784
G1 X100.589 Y108.665 E0.03958
G1 X100.498 Y107.757 E0.03958
G1 X100.485 Y100.595 E0.31042
G1 X100.666 Y99.306 E0.05644
G1 X101.133 Y98.143 E0.05433
G1 F5760
G1 X101.924 Y97.022 E-0.47511
G1 F5760
G1 X102.520 Y96.455 E-0.28489
G1 E-0.04000 F2100.00000
G1 X102.579 Y99.374 F7200.000
G1 E0.80000 F2100.00000
G1 F1680
G1 X102.834 Y98.582 E0.03606
G1 X103.482 Y97.518 E0.05400
G1 X104.334 Y96.749 E0.04976
G1 X105.397 Y96.226 E0.05132
G1 X106.352 Y96.045 E0.04214
G1 X135.195 Y96.045 E1.25029
G1 X135.415 Y96.022 E0.00957
G1 X141.502 Y96.029 E0.26388
G1 X142.436 Y96.244 E0.04152
G1 X143.340 Y96.709 E0.04407
G1 X144.333 Y97.690 E0.06048
G1 X147.600 Y103.350 E0.28330
G1 X147.947 Y104.646 E0.05817
G1 X147.904 Y105.701 E0.04577
G1 X147.611 Y106.653 E0.04316
G1 X145.258 Y110.738 E0.20434
G1 X144.380 Y111.632 E0.05435
G1 X143.237 Y112.227 E0.05584
G1 X142.332 Y112.403 E0.04000
G1 X106.408 Y112.403 E1.55718
G1 X105.178 Y112.105 E0.05487
G1 X104.104 Y111.459 E0.05432
G1 X103.242 Y110.523 E0.05515
G1 X102.683 Y109.381 E0.05513
G1 X102.519 Y108.471 E0.04009
G1 X102.579 Y99.434 E0.39172
G1 X102.986 Y99.468 F7200.000
G1 F1680
G1 X103.204 Y98.774 E0.03156
G1 X103.785 Y97.806 E0.04892
G1 X104.591 Y97.078 E0.04708
G1 X105.552 Y96.613 E0.04627
G1 X106.371 Y96.461 E0.03610
G1 X135.219 Y96.461 E1.25049
G1 X135.427 Y96.438 E0.00906
G1 X141.477 Y96.445 E0.26228
G1 X142.314 Y96.643 E0.03726
G1 X143.119 Y97.063 E0.03939
G1 X143.986 Y97.922 E0.05288
G1 X147.225 Y103.533 E0.28086
G1 X147.536 Y104.719 E0.05314
G1 X147.490 Y105.653 E0.04051
G1 X147.221 Y106.505 E0.03875
G1 X144.912 Y110.506 E0.20023
G1 X144.109 Y111.315 E0.04941
G1 X143.076 Y111.843 E0.05029
G1 X142.313 Y111.987 E0.03366
G1 X106.432 Y111.987 E1.55531
G1 X105.362 Y111.731 E0.04768
G1 X104.387 Y111.152 E0.04916
G1 X103.602 Y110.312 E0.04985
G1 X103.070 Y109.225 E0.05246
G1 X102.936 Y108.455 E0.03388
G1 X102.986 Y99.528 E0.38694
G1 X103.393 Y99.560 F7200.000
G1 F1680
G1 X103.576 Y98.963 E0.02709
G1 X104.090 Y98.091 E0.04388
G1 X104.800 Y97.439 E0.04177
G1 X105.707 Y97.001 E0.04367
G1 X106.389 Y96.877 E0.03002
G1 X135.244 Y96.877 E1.25078
G1 X135.439 Y96.855 E0.00852
G1 X141.451 Y96.862 E0.26062
G1 X142.189 Y97.041 E0.03290
G1 X142.897 Y97.416 E0.03473
G1 X143.639 Y98.154 E0.04536
G1 X146.851 Y103.718 E0.27848
G1 X147.118 Y104.734 E0.04556
G1 X147.084 Y105.557 E0.03570
G1 X146.849 Y106.318 E0.03454
G1 X144.565 Y110.273 E0.19797
G1 X143.840 Y110.995 E0.04436
G1 X142.917 Y111.457 E0.04472
G1 X142.294 Y111.570 E0.02744
G1 X106.456 Y111.570 E1.55349
G1 X105.545 Y111.355 E0.04060
G1 X104.670 Y110.845 E0.04389
G1 X103.928 Y110.051 E0.04709
G1 X103.459 Y109.072 E0.04707
G1 X103.352 Y108.439 E0.02783
G1 X103.393 Y99.620 E0.38228
G1 F5760
G1 X103.576 Y98.963 E-0.23645
G1 F5760
G1 X104.090 Y98.091 E-0.35061
G1 F5760
G1 X104.458 Y97.753 E-0.17294
G1 E-0.04000 F2100.00000
G1 X104.396 Y98.375 F7200.000
G1 E0.80000 F2100.00000
G1 F1680
G1 X105.058 Y97.768 E0.03896
G1 X105.858 Y97.389 E0.03838
G1 X106.406 Y97.294 E0.02410
G1 X135.271 Y97.294 E1.25120
G1 X135.452 Y97.271 E0.00795
G1 X141.424 Y97.278 E0.25887
G1 X142.061 Y97.438 E0.02843
G1 X142.672 Y97.768 E0.03010
G1 X143.292 Y98.386 E0.03795
G1 X146.477 Y103.902 E0.27610
G1 X146.702 Y104.751 E0.03808
G1 X146.677 Y105.464 E0.03090
G1 X146.476 Y106.131 E0.03022
G1 X144.219 Y110.040 E0.19564
G1 X143.572 Y110.674 E0.03928
G1 X142.812 Y111.053 E0.03683
G1 X142.274 Y111.154 E0.02369
G1 X106.480 Y111.154 E1.55162
G1 X105.724 Y110.979 E0.03362
G1 X104.950 Y110.535 E0.03868
G1 X104.289 Y109.841 E0.04153
G1 X103.848 Y108.920 E0.04426
G1 X103.769 Y108.425 E0.02175
G1 X103.801 Y99.650 E0.38038
G1 X103.950 Y99.148 E0.02268
G1 X104.366 Y98.427 E0.03608
G1 X104.705 Y98.656 F7200.000
G1 F1680
G1 X105.266 Y98.130 E0.03335
G1 X106.009 Y97.778 E0.03563
G1 X106.422 Y97.710 E0.01814
G1 X135.300 Y97.710 E1.25176
G1 X135.467 Y97.687 E0.00732
G1 X141.396 Y97.694 E0.25701
G1 X141.929 Y97.834 E0.02384
G1 X142.445 Y98.118 E0.02554
G1 X142.945 Y98.617 E0.03066
G1 X146.102 Y104.086 E0.27374
G1 X146.285 Y104.772 E0.03074
G1 X146.270 Y105.374 E0.02613
G1 X146.102 Y105.945 E0.02579
G1 X143.872 Y109.808 E0.19333
G1 X143.354 Y110.319 E0.03155
G1 X142.702 Y110.650 E0.03171
G1 X142.254 Y110.738 E0.01980
G1 X106.502 Y110.738 E1.54972
G1 X105.900 Y110.600 E0.02679
G1 X105.229 Y110.225 E0.03333
G1 X104.615 Y109.579 E0.03862
G1 X104.238 Y108.774 E0.03855
G1 X104.185 Y108.412 E0.01587
G1 X104.209 Y99.736 E0.37608
G1 X104.325 Y99.330 E0.01831
G1 X104.676 Y98.708 E0.03092
G1 X105.015 Y98.936 F7200.000
G1 F1680
G1 X105.526 Y98.458 E0.03033
G1 X106.154 Y98.170 E0.02997
G1 X106.437 Y98.126 E0.01240
G1 X135.332 Y98.126 E1.25254
G1 X135.484 Y98.104 E0.00664
G1 X141.367 Y98.111 E0.25501
G1 X141.791 Y98.227 E0.01909
G1 X142.215 Y98.466 E0.02106
G1 X142.598 Y98.849 E0.02350
G1 X145.728 Y104.271 E0.27138
G1 X145.868 Y104.796 E0.02354
G1 X145.861 Y105.289 E0.02140
G1 X145.728 Y105.760 E0.02121
G1 X143.526 Y109.576 E0.19097
G1 X143.133 Y109.965 E0.02397
G1 X142.589 Y110.249 E0.02661
G1 X142.232 Y110.321 E0.01577
G1 X106.525 Y110.321 E1.54781
G1 X106.072 Y110.220 E0.02011
G1 X105.504 Y109.911 E0.02806
G1 X104.975 Y109.367 E0.03288
G1 X104.645 Y108.679 E0.03308
G1 X104.601 Y108.396 E0.01241
G1 X104.618 Y99.818 E0.37184
G1 X104.703 Y99.506 E0.01402
G1 X104.986 Y98.989 E0.02554
G1 X105.330 Y99.210 F7200.000
G1 F1680
G1 X105.736 Y98.818 E0.02448
G1 X106.251 Y98.576 E0.02469
G1 X106.454 Y98.543 E0.00892
G1 X135.370 Y98.543 E1.25340
G1 X135.503 Y98.520 E0.00587
G1 X141.335 Y98.527 E0.25279
G1 X141.648 Y98.619 E0.01414
G1 X141.982 Y98.812 E0.01674
G1 X142.251 Y99.081 E0.01649
G1 X145.354 Y104.455 E0.26901
G1 X145.452 Y104.824 E0.01653
G1 X145.452 Y105.210 E0.01675
G1 X145.353 Y105.577 E0.01645
G1 X143.179 Y109.344 E0.18855
G1 X142.908 Y109.613 E0.01656
G1 X142.470 Y109.849 E0.02155
G1 X142.209 Y109.905 E0.01158
G1 X106.547 Y109.905 E1.54586
G1 X106.239 Y109.838 E0.01362
G1 X105.774 Y109.592 E0.02283
G1 X105.331 Y109.150 E0.02711
G1 X105.050 Y108.580 E0.02757
G1 X105.018 Y108.378 E0.00884
G1 X105.027 Y99.894 E0.36775
G1 X105.084 Y99.676 E0.00979
G1 X105.302 Y99.263 E0.02021
G1 X105.468 Y99.838 F7200.000
G1 F1680
G1 X105.650 Y99.478 E0.01746
G1 X105.952 Y99.176 E0.01855
G1 X106.354 Y98.980 E0.01938
G1 X106.474 Y98.959 E0.00526
G1 X135.415 Y98.959 E1.25451
G1 X135.527 Y98.936 E0.00496
G1 X141.303 Y98.943 E0.25037
G1 X141.459 Y98.991 E0.00710
G1 X141.750 Y99.159 E0.01456
G1 X141.904 Y99.313 E0.00943
G1 X144.980 Y104.640 E0.26664
G1 X145.036 Y104.851 E0.00945
G1 X145.036 Y105.183 E0.01439
G1 X144.979 Y105.392 E0.00941
G1 X142.832 Y109.112 E0.18620
G1 X142.679 Y109.265 E0.00936
G1 X142.344 Y109.451 E0.01661
G1 X142.183 Y109.489 E0.00717
G1 X106.567 Y109.489 E1.54385
G1 X106.400 Y109.454 E0.00739
G1 X106.043 Y109.273 E0.01734
G1 X105.651 Y108.881 E0.02407
G1 X105.455 Y108.479 E0.01938
G1 X105.434 Y108.359 E0.00526
G1 X105.438 Y99.964 E0.36390
G1 X105.454 Y99.896 E0.00303
G1 X105.857 Y99.986 F7200.000
G1 F1680
G1 X105.971 Y99.745 E0.01156
G1 X106.220 Y99.496 E0.01526
G1 X106.497 Y99.375 E0.01307
G1 X135.476 Y99.375 E1.25618
G1 X135.561 Y99.353 E0.00380
G1 X141.225 Y99.353 E0.24553
G1 X141.519 Y99.506 E0.01436
G1 X141.557 Y99.544 E0.00238
G1 X144.605 Y104.824 E0.26427
G1 X144.619 Y105.155 E0.01434
G1 X144.605 Y105.208 E0.00237
G1 X142.485 Y108.880 E0.18383
G1 X142.205 Y109.058 E0.01436
G1 X142.152 Y109.072 E0.00238
G1 X106.587 Y109.072 E1.54167
G1 X106.310 Y108.951 E0.01307
G1 X105.971 Y108.612 E0.02078
G1 X105.850 Y108.336 E0.01307
G1 X105.850 Y100.046 E0.35937
G1 X106.482 Y99.823 F7200.000
G1 F1680
G1 X106.559 Y99.792 E0.00359
G1 X135.605 Y99.792 E1.25907
G1 X135.644 Y99.769 E0.00197
G1 X141.142 Y99.769 E0.23831
G1 X141.238 Y99.825 E0.00484
G1 X144.203 Y104.960 E0.25705
G1 X144.203 Y105.071 E0.00481
G1 X142.166 Y108.600 E0.17663
G1 X142.069 Y108.656 E0.00484
G1 X106.649 Y108.656 E1.53538
G1 X106.572 Y108.624 E0.00359
G1 X106.299 Y108.351 E0.01677
G1 X106.267 Y108.274 E0.00359
G1 X106.267 Y100.084 E0.35504
G1 X106.299 Y100.007 E0.00359
G1 X106.440 Y99.866 E0.00865
G1 F5760
G1 X106.559 Y99.792 E-0.04854
G1 F5760
G1 X108.613 Y99.792 E-0.71146
G1 E-0.04000 F2100.00000
G1 X137.482 Y108.144 F7200.000
G1 E0.80000 F2100.00000
G1 F1050
G1 X137.850 Y108.203 E0.01686
G1 F1050
G1 X138.295 Y108.265 E0.01634
G1 X138.760 Y108.241 E0.01694
G1 F1050
G1 X139.691 Y108.192 E0.04204
G1 X139.918 Y108.131 F7200.000
G1 F1050
G1 X139.890 Y108.028 E0.00463
G1 X140.835 Y107.482 E0.04728
G1 X141.651 Y106.359 E0.06021
G1 X141.940 Y105.000 E0.06021
G1 X141.651 Y103.641 E0.06021
G1 X140.835 Y102.518 E0.06021
G1 X139.632 Y101.823 E0.06021
G1 X138.251 Y101.678 E0.06021
G1 X136.930 Y102.107 E0.06021
G1 X135.898 Y103.037 E0.06021
G1 X135.333 Y104.305 E0.06021
G1 X135.333 Y105.694 E0.06021
G1 X135.898 Y106.963 E0.06021
G1 X136.930 Y107.893 E0.06021
G1 X137.266 Y108.002 E0.01534
G1 X137.233 Y108.213 E0.00925
G1 X106.787 Y108.213 E1.31974
G1 X106.710 Y108.135 E0.00474
G1 X106.710 Y100.235 E0.34247
G1 X135.823 Y100.235 E1.26195
G1 X135.836 Y100.212 E0.00114
G1 X140.950 Y100.212 E0.22171
G1 X143.724 Y105.015 E0.24042
G1 X141.878 Y108.213 E0.16004
G1 X139.940 Y108.213 E0.08399
G1 X139.934 Y108.189 E0.00107
G1 X139.956 Y108.031 F7200.000
G1 F5760
G1 X139.890 Y108.028 E-0.05780
G1 F5760
G1 X140.835 Y107.482 E-0.37779
G1 F5760
G1 X141.386 Y106.725 E-0.32441
G1 E-0.04000 F2100.00000
G1 X141.121 Y107.796 F7200.000
G1 E0.80000 F2100.00000
G1 F1050
G1 X142.040 Y106.532 E0.06777
G1 X142.366 Y105.000 E0.06788
G1 X142.040 Y103.468 E0.06788
G1 X141.120 Y102.201 E0.06788
G1 X139.764 Y101.418 E0.06788
G1 X138.206 Y101.255 E0.06788
G1 X136.717 Y101.739 E0.06788
G1 X135.553 Y102.786 E0.06788
G1 X134.916 Y104.217 E0.06788
G1 X134.916 Y105.783 E0.06788
G1 X135.553 Y107.214 E0.06788
G1 X136.201 Y107.796 E0.03776
G1 X107.126 Y107.796 E1.26030
G1 X107.126 Y100.651 E0.30972
G1 X136.063 Y100.651 E1.25433
G1 X136.076 Y100.629 E0.00114
G1 X140.710 Y100.628 E0.20086
G1 X143.243 Y105.015 E0.21958
G1 X141.637 Y107.796 E0.13920
G1 X141.181 Y107.796 E0.01976
G1 F5760
G1 X142.040 Y106.532 E-0.52952
G1 F5760
G1 X142.179 Y105.881 E-0.23048
G1 E-0.04000 F2100.00000
G1 X112.432 Y106.735 F7200.000
G1 E0.80000 F2100.00000
G1 F840
G1 X110.981 Y106.735 E0.06290
G1 X110.981 Y105.369 E0.05921
G1 X111.099 Y105.369 E0.00510
G1 X110.973 Y101.465 E0.16931
G1 X112.461 Y101.465 E0.06447
G1 X112.335 Y105.369 E0.16931
G1 X112.432 Y105.369 E0.00419
G1 X112.432 Y106.675 E0.05661
G1 X112.441 Y107.135 F7200.000
G1 F5760
G1 X110.981 Y106.735 E-0.50298
G1 F5760
G1 X110.981 Y105.993 E-0.25702
G1 E-0.04000 F2100.00000
G1 X110.543 Y101.049 F7200.000
G1 E0.80000 F2100.00000
G1 F840
G1 X112.891 Y101.049 E0.10175
G1 X112.765 Y104.953 E0.16931
G1 X112.848 Y104.953 E0.00361
G1 X112.848 Y107.151 E0.09531
G1 X110.565 Y107.151 E0.09899
G1 X110.565 Y104.953 E0.09531
G1 X110.669 Y104.953 E0.00452
G1 X110.545 Y101.109 E0.16671
G1 X110.129 Y101.122 F7200.000
G1 F840
G1 X110.239 Y104.536 E0.14808
G1 X110.148 Y104.536 E0.00393
G1 X110.148 Y107.380 E0.12327
G1 X107.543 Y107.380 E0.11295
G1 X107.543 Y101.068 E0.27363
G1 X110.122 Y101.068 E0.11180
G1 F5760
G1 X110.196 Y103.261 E-0.76000
G1 E-0.04000 F2100.00000
G1 X113.303 Y101.170 F7200.000
G1 E0.80000 F2100.00000
G1 F840
G1 X113.307 Y101.068 E0.00443
G1 X114.161 Y101.068 E0.03706
G1 X114.161 Y107.380 E0.27363
G1 X113.265 Y107.380 E0.03887
G1 X113.265 Y104.536 E0.12327
G1 X113.195 Y104.536 E0.00302
G1 X113.301 Y101.230 E0.14340
G1 F5760
G1 X113.307 Y101.068 E-0.05621
G1 F5760
G1 X114.161 Y101.068 E-0.29608
G1 F5760
G1 X114.161 Y102.245 E-0.40770
G1 E-0.04000 F2100.00000
G1 X133.740 Y101.068 F7200.000
G1 E0.80000 F2100.00000
G1 F840
G1 X136.304 Y101.068 E0.11112
G1 X136.317 Y101.045 E0.00114
G1 X136.823 Y101.045 E0.02193
G1 X136.856 Y101.256 E0.00925
G1 X136.504 Y101.370 E0.01604
G1 X135.209 Y102.536 E0.07555
G1 X134.500 Y104.129 E0.07555
G1 X134.500 Y105.871 E0.07555
G1 X135.172 Y107.380 E0.07159
G1 X133.698 Y107.380 E0.06387
G1 X133.698 Y104.536 E0.12327
G1 X133.629 Y104.536 E0.00302
G1 X133.738 Y101.128 E0.14783
G1 X132.894 Y101.465 F7200.000
G1 F840
G1 X132.769 Y105.369 E0.16931
G1 X132.866 Y105.369 E0.00420
G1 X132.866 Y106.735 E0.05921
G1 X131.415 Y106.735 E0.06290
G1 X131.415 Y105.369 E0.05921
G1 X131.532 Y105.369 E0.00511
G1 X131.407 Y101.465 E0.16931
G1 X132.834 Y101.465 E0.06187
G1 X133.264 Y101.313 F7200.000
G1 F5760
G1 X132.797 Y103.659 E-0.76000
G1 E-0.04000 F2100.00000
G1 X130.977 Y101.049 F7200.000
G1 E0.80000 F2100.00000
G1 F840
G1 X133.324 Y101.049 E0.10175
G1 X133.199 Y104.953 E0.16931
G1 X133.282 Y104.953 E0.00361
G1 X133.282 Y107.151 E0.09531
G1 X130.998 Y107.151 E0.09899
G1 X130.998 Y104.953 E0.09531
G1 X131.102 Y104.953 E0.00452
G1 X130.979 Y101.109 E0.16671
G1 X130.563 Y101.122 F7200.000
G1 F840
G1 X130.672 Y104.536 E0.14808
G1 X130.582 Y104.536 E0.00393
G1 X130.582 Y107.380 E0.12327
G1 X128.667 Y107.380 E0.08302
G1 X128.667 Y103.545 E0.16626
G1 X130.198 Y103.545 E0.06636
G1 X130.198 Y101.068 E0.10737
G1 X130.555 Y101.068 E0.01551
G1 F5760
G1 X130.629 Y103.261 E-0.76000
G1 E-0.04000 F2100.00000
G1 X125.526 Y106.150 F7200.000
G1 E0.80000 F2100.00000
G1 F840
G1 X125.526 Y107.380 E0.05333
G1 X124.249 Y107.380 E0.05535
G1 X124.195 Y107.204 E0.00801
G1 X124.708 Y106.857 E0.02683
G1 X125.141 Y106.414 E0.02683
G1 X125.347 Y106.097 E0.01643
G1 X125.469 Y106.133 E0.00548
G1 F5760
G1 X125.526 Y107.380 E-0.43252
G1 F5760
G1 X124.581 Y107.380 E-0.32748
G1 E-0.04000 F2100.00000
G1 X124.823 Y101.465 F7200.000
G1 E0.80000 F2100.00000
G1 F1050
G1 X129.365 Y101.465 E0.19688
G1 X129.365 Y102.712 E0.05405
G1 X127.834 Y102.712 E0.06636
G1 X127.834 Y106.735 E0.17439
G1 X126.359 Y106.735 E0.06394
G1 X126.359 Y102.712 E0.17439
G1 X124.767 Y102.712 E0.06901
G1 X124.986 Y103.322 E0.02812
G1 X125.063 Y104.076 E0.03284
G1 X125.027 Y104.592 E0.02243
G1 X124.920 Y105.068 E0.02113
G1 X124.739 Y105.505 E0.02051
G1 X124.488 Y105.891 E0.01997
