; generated by Slic3r 1.37.1-prusa3d-win64 on 2017-11-01 at 10:44:01

; 

; external perimeters extrusion width = 0.55mm
; perimeters extrusion width = 0.55mm
; infill extrusion width = 0.55mm
; solid infill extrusion width = 0.50mm
; top infill extrusion width = 0.48mm
; first layer extrusion width = 0.50mm

M107
M115 U3.0.12 ; tell printer latest fw version
M83  ; extruder relative mode
M104 S150
M140 S110 ; set bed temp
G28 W ; home all without mesh bed level
G1 X125 Z80 F1000
M190 S110 ; wait for bed temp
M104 S295 ; set extruder temp
G80 ; mesh bed leveling
M109 S295 ; wait for extruder temp
G1 Y-3.0 F1000 ; go outside print area
G1 X60.0 E9.0 ; intro line
G1 X100.0 E12.5 ; intro line
; Filament gcode
G21 ; set units to millimeters
G90 ; use absolute coordinates
M83 ; use relative distances for extrusion
; Layer 0
G1 E-0.80000 F2100.00000
G1 Z0.200 F9000.000
G1 X93.206 Y72.838 F9000.000
G1 E0.80000 F2100.00000
M204 S1000
G1 F2100
G1 X94.314 Y72.093 E0.05076
G1 X113.730 Y62.799 E0.81809
G1 X114.795 Y62.425 E0.04291
G1 X115.750 Y62.286 E0.03668
G1 X146.637 Y60.532 E1.17577
G1 X148.240 Y60.524 E0.06094
G1 X149.210 Y60.612 E0.03702
G1 X150.155 Y60.873 E0.03724
G1 X151.032 Y61.296 E0.03702
G1 X151.825 Y61.872 E0.03724
G1 X155.229 Y65.315 E0.18402
G1 X155.878 Y66.370 E0.04706
G1 X156.272 Y67.543 E0.04706
G1 X163.363 Y114.423 E1.80200
G1 X163.376 Y124.339 E0.37685
G1 X163.074 Y125.763 E0.05533
G1 X162.407 Y127.056 E0.05533
G1 X161.816 Y127.765 E0.03505
G1 X158.390 Y131.122 E0.18232
G1 X157.764 Y131.534 E0.02849
G1 X157.092 Y131.855 E0.02827
G1 X156.384 Y132.081 E0.02827
G1 X155.645 Y132.209 E0.02849
G1 X107.573 Y134.851 E1.82981
G1 X99.559 Y134.830 E0.30458
G1 X98.183 Y134.520 E0.05359
G1 X96.933 Y133.868 E0.05359
G1 X95.677 Y132.730 E0.06442
G1 X95.038 Y131.950 E0.03833
G1 X94.491 Y130.917 E0.04444
G1 X94.176 Y129.785 E0.04466
G1 X88.444 Y82.401 E1.81400
G1 X88.510 Y81.039 E0.05185
G1 X88.911 Y79.735 E0.05185
G1 X92.313 Y73.831 E0.25897
G1 X93.166 Y72.883 E0.04848
G1 F7200
G1 X94.314 Y72.093 E-0.38621
G1 F7200
G1 X95.531 Y71.510 E-0.37379
G1 E-0.04000 F2100.00000
G1 X152.277 Y75.157 F9000.000
G1 E0.80000 F2100.00000
G1 F2100
G1 X152.277 Y110.640 E1.34858
G1 X158.491 Y110.649 E0.23618
G1 X159.308 Y110.816 E0.03170
G1 X160.067 Y111.150 E0.03150
G1 X160.641 Y111.554 E0.02670
G1 X161.421 Y112.346 E0.04224
G1 X161.788 Y112.887 E0.02485
G1 X162.119 Y113.671 E0.03235
G1 X162.277 Y114.521 E0.03284
G1 X162.277 Y124.224 E0.36879
G1 X162.048 Y125.349 E0.04363
G1 X161.785 Y125.956 E0.02517
G1 X161.422 Y126.535 E0.02596
G1 X157.756 Y130.213 E0.19737
G1 X156.983 Y130.696 E0.03463
G1 X156.269 Y130.967 E0.02902
G1 X155.492 Y131.113 E0.03006
G1 X112.473 Y131.124 E1.63500
G1 X111.757 Y130.990 E0.02768
G1 X111.422 Y131.501 E0.02322
G1 X110.646 Y132.301 E0.04236
G1 X109.914 Y132.810 E0.03386
G1 X109.151 Y133.137 E0.03157
G1 X108.389 Y133.310 E0.02971
G1 X99.314 Y133.334 E0.34491
G1 X98.231 Y133.106 E0.04204
G1 X97.633 Y132.846 E0.02478
G1 X97.062 Y132.488 E0.02562
G1 X96.318 Y131.797 E0.03859
G1 X95.771 Y131.034 E0.03570
G1 X95.401 Y130.172 E0.03562
G1 X95.218 Y129.189 E0.03802
G1 X95.203 Y93.985 E1.33797
G1 X95.482 Y92.845 E0.04460
G1 X95.989 Y91.908 E0.04049
G1 X96.468 Y91.388 E0.02689
G1 X95.162 Y91.048 E0.05131
G1 X94.196 Y90.509 E0.04204
G1 X93.256 Y89.562 E0.05070
G1 X89.928 Y83.813 E0.25247
G1 X89.541 Y82.339 E0.05791
G1 X89.586 Y81.272 E0.04061
G1 X89.883 Y80.257 E0.04018
G1 X93.219 Y74.449 E0.25455
G1 X94.306 Y73.373 E0.05814
G1 X95.209 Y72.896 E0.03881
G1 X96.175 Y72.644 E0.03793
G1 X103.174 Y72.642 E0.26600
G1 X104.188 Y72.907 E0.03984
G1 X105.224 Y73.492 E0.04523
G1 X106.005 Y74.257 E0.04153
G1 X106.667 Y75.366 E0.04910
G1 X111.592 Y77.457 E0.20336
G1 X111.592 Y75.174 E0.08676
G1 X110.142 Y72.606 E0.11208
G1 X109.861 Y71.517 E0.04273
G1 X109.874 Y70.351 E0.04435
G1 X110.229 Y69.149 E0.04763
G1 X112.490 Y65.232 E0.17189
G1 X113.335 Y64.334 E0.04684
G1 X114.351 Y63.725 E0.04503
G1 X115.682 Y63.392 E0.05213
G1 X120.192 Y63.392 E0.17142
G1 X121.458 Y63.701 E0.04952
G1 X122.539 Y64.336 E0.04769
G1 X123.317 Y65.150 E0.04276
G1 X123.836 Y66.024 E0.03865
G1 X124.544 Y66.474 E0.03189
G1 X125.370 Y67.285 E0.04397
G1 X125.782 Y67.879 E0.02748
G1 X126.091 Y68.578 E0.02903
G1 X126.305 Y69.611 E0.04011
G1 X142.592 Y69.611 E0.61902
G1 X142.601 Y65.436 E0.15868
G1 X142.775 Y64.588 E0.03290
G1 X143.066 Y63.915 E0.02785
G1 X143.492 Y63.293 E0.02865
G1 X144.287 Y62.506 E0.04252
G1 X144.887 Y62.103 E0.02748
G1 X145.566 Y61.813 E0.02805
G1 X146.491 Y61.639 E0.03578
G1 X148.580 Y61.644 E0.07941
G1 X149.355 Y61.778 E0.02990
G1 X150.134 Y62.067 E0.03157
G1 X150.907 Y62.549 E0.03462
G1 X154.204 Y65.810 E0.17626
G1 X154.684 Y66.475 E0.03117
G1 X155.046 Y67.256 E0.03271
G1 X155.277 Y68.388 E0.04391
G1 X155.269 Y71.522 E0.11911
G1 X155.125 Y72.276 E0.02917
G1 X154.835 Y72.988 E0.02920
G1 X154.357 Y73.694 E0.03243
G1 X153.569 Y74.469 E0.04201
G1 X152.958 Y74.872 E0.02781
G1 X152.332 Y75.134 E0.02579
G1 X151.820 Y74.802 F9000.000
G1 F2100
G1 X151.820 Y111.097 E1.37944
G1 X158.466 Y111.106 E0.25261
G1 X159.189 Y111.258 E0.02807
G1 X159.858 Y111.557 E0.02786
G1 X160.358 Y111.914 E0.02335
G1 X161.079 Y112.650 E0.03915
G1 X161.396 Y113.123 E0.02164
G1 X161.675 Y113.781 E0.02716
G1 X161.820 Y114.543 E0.02947
G1 X161.820 Y124.201 E0.36708
G1 X161.619 Y125.189 E0.03831
G1 X161.373 Y125.758 E0.02357
G1 X161.049 Y126.269 E0.02299
G1 X157.490 Y129.841 E0.19163
G1 X156.799 Y130.277 E0.03107
G1 X156.127 Y130.532 E0.02732
G1 X155.431 Y130.659 E0.02690
G1 X112.495 Y130.667 E1.63181
G1 X111.539 Y130.482 E0.03704
G1 X111.077 Y131.200 E0.03246
G1 X110.334 Y131.967 E0.04057
G1 X109.675 Y132.420 E0.03041
G1 X109.026 Y132.697 E0.02679
G1 X108.360 Y132.853 E0.02600
G1 X99.337 Y132.877 E0.34297
G1 X98.392 Y132.677 E0.03669
G1 X97.832 Y132.434 E0.02322
G1 X97.325 Y132.114 E0.02277
G1 X96.648 Y131.480 E0.03526
G1 X96.158 Y130.791 E0.03214
G1 X95.832 Y130.018 E0.03186
G1 X95.675 Y129.168 E0.03286
G1 X95.660 Y94.012 E1.33614
G1 X95.898 Y93.037 E0.03816
G1 X96.375 Y92.156 E0.03809
G1 X97.136 Y91.366 E0.04168
G1 X97.369 Y91.210 E0.01065
G1 X97.273 Y90.887 E0.01282
G1 X96.325 Y90.877 E0.03604
G1 X95.357 Y90.634 E0.03792
G1 X94.447 Y90.125 E0.03963
G1 X93.637 Y89.308 E0.04374
G1 X90.339 Y83.610 E0.25021
G1 X89.998 Y82.321 E0.05067
G1 X90.033 Y81.370 E0.03619
G1 X90.294 Y80.460 E0.03596
G1 X93.600 Y74.703 E0.25231
G1 X94.552 Y73.760 E0.05094
G1 X95.351 Y73.331 E0.03447
G1 X96.262 Y73.094 E0.03576
G1 X103.090 Y73.092 E0.25950
G1 X103.993 Y73.321 E0.03541
G1 X104.929 Y73.843 E0.04073
G1 X105.628 Y74.518 E0.03695
G1 X106.351 Y75.728 E0.05359
G1 X112.049 Y78.147 E0.23527
G1 X112.049 Y75.053 E0.11761
G1 X110.576 Y72.459 E0.11337
G1 X110.318 Y71.488 E0.03821
G1 X110.322 Y70.446 E0.03960
G1 X110.639 Y69.353 E0.04325
G1 X112.873 Y65.483 E0.16983
G1 X113.600 Y64.707 E0.04040
G1 X114.499 Y64.159 E0.04002
G1 X115.711 Y63.849 E0.04755
G1 X120.165 Y63.849 E0.16928
G1 X121.258 Y64.113 E0.04275
G1 X122.232 Y64.676 E0.04276
G1 X122.967 Y65.446 E0.04045
G1 X123.526 Y66.399 E0.04198
G1 X123.753 Y66.499 E0.00943
G1 X124.240 Y66.815 E0.02207
G1 X125.033 Y67.595 E0.04229
G1 X125.393 Y68.118 E0.02412
G1 X125.663 Y68.739 E0.02574
G1 X125.806 Y69.402 E0.02575
G1 X125.816 Y70.068 E0.02533
G1 X143.049 Y70.068 E0.65495
G1 X143.054 Y65.502 E0.17352
G1 X143.204 Y64.747 E0.02929
G1 X143.476 Y64.118 E0.02602
G1 X143.855 Y63.571 E0.02529
G1 X144.559 Y62.873 E0.03768
G1 X145.123 Y62.495 E0.02579
G1 X145.720 Y62.244 E0.02461
G1 X146.511 Y62.096 E0.03059
G1 X148.559 Y62.101 E0.07784
G1 X149.254 Y62.224 E0.02683
G1 X149.950 Y62.486 E0.02827
G1 X150.641 Y62.922 E0.03106
G1 X153.868 Y66.121 E0.17269
G1 X154.299 Y66.722 E0.02813
G1 X154.619 Y67.422 E0.02922
G1 X154.820 Y68.411 E0.03835
G1 X154.816 Y71.460 E0.11589
G1 X154.692 Y72.126 E0.02574
G1 X154.421 Y72.793 E0.02738
G1 X154.020 Y73.384 E0.02713
G1 X153.265 Y74.127 E0.04026
G1 X152.728 Y74.477 E0.02437
G1 X152.107 Y74.732 E0.02553
G1 X151.878 Y74.787 E0.00894
G1 X151.363 Y74.427 F9000.000
G1 F2100
G1 X151.363 Y111.553 E1.41103
G1 X158.441 Y111.563 E0.26901
G1 X159.067 Y111.699 E0.02435
G1 X159.647 Y111.963 E0.02422
G1 X160.073 Y112.272 E0.02002
G1 X160.736 Y112.952 E0.03610
G1 X161.003 Y113.357 E0.01842
G1 X161.231 Y113.893 E0.02214
G1 X161.363 Y114.565 E0.02604
G1 X161.363 Y124.178 E0.36535
G1 X161.190 Y125.031 E0.03307
G1 X160.976 Y125.529 E0.02061
G1 X160.676 Y126.004 E0.02132
G1 X157.223 Y129.469 E0.18595
G1 X156.612 Y129.859 E0.02755
G1 X156.023 Y130.086 E0.02398
G1 X155.369 Y130.206 E0.02527
G1 X112.518 Y130.210 E1.62860
G1 X111.834 Y130.074 E0.02651
G1 X111.281 Y129.833 E0.02291
G1 X111.043 Y130.410 E0.02371
G1 X110.731 Y130.901 E0.02209
G1 X110.054 Y131.605 E0.03713
G1 X109.471 Y132.010 E0.02696
G1 X108.898 Y132.258 E0.02374
G1 X108.331 Y132.396 E0.02218
G1 X99.360 Y132.420 E0.34097
G1 X98.551 Y132.248 E0.03141
G1 X98.060 Y132.038 E0.02031
G1 X97.589 Y131.740 E0.02120
G1 X96.978 Y131.163 E0.03191
G1 X96.568 Y130.587 E0.02688
G1 X96.277 Y129.907 E0.02811
G1 X96.132 Y129.146 E0.02946
G1 X96.117 Y94.041 E1.33421
G1 X96.334 Y93.178 E0.03381
G1 X96.760 Y92.405 E0.03357
G1 X97.436 Y91.713 E0.03676
G1 X99.053 Y90.770 E0.07114
G1 X98.962 Y90.433 E0.01328
G1 X96.405 Y90.426 E0.09719
G1 X95.549 Y90.218 E0.03350
G1 X94.748 Y89.779 E0.03471
G1 X93.982 Y89.007 E0.04132
G1 X90.750 Y83.408 E0.24573
G1 X90.456 Y82.301 E0.04353
G1 X90.481 Y81.464 E0.03180
G1 X90.705 Y80.662 E0.03164
G1 X93.981 Y74.957 E0.25004
G1 X94.797 Y74.147 E0.04371
G1 X95.542 Y73.748 E0.03211
G1 X96.346 Y73.544 E0.03152
G1 X103.008 Y73.542 E0.25322
G1 X103.801 Y73.737 E0.03101
G1 X104.637 Y74.195 E0.03625
G1 X105.252 Y74.780 E0.03226
G1 X106.035 Y76.091 E0.05804
G1 X112.507 Y78.838 E0.26719
G1 X112.507 Y74.931 E0.14848
G1 X111.009 Y72.310 E0.11474
G1 X110.775 Y71.454 E0.03372
G1 X110.771 Y70.538 E0.03482
G1 X111.049 Y69.556 E0.03879
G1 X113.255 Y65.735 E0.16768
G1 X113.909 Y65.045 E0.03613
G1 X114.704 Y64.568 E0.03524
G1 X115.739 Y64.306 E0.04057
G1 X120.138 Y64.306 E0.16720
G1 X121.062 Y64.527 E0.03609
G1 X121.925 Y65.017 E0.03774
G1 X122.618 Y65.741 E0.03808
G1 X123.208 Y66.763 E0.04484
G1 X123.526 Y66.896 E0.01310
G1 X123.938 Y67.160 E0.01861
G1 X124.670 Y67.873 E0.03882
G1 X125.003 Y68.358 E0.02236
G1 X125.233 Y68.897 E0.02228
G1 X125.353 Y69.471 E0.02230
G1 X125.360 Y70.525 E0.04006
G1 X143.507 Y70.525 E0.68968
G1 X143.507 Y65.567 E0.18845
G1 X143.634 Y64.905 E0.02562
G1 X143.886 Y64.322 E0.02413
G1 X144.217 Y63.851 E0.02188
G1 X144.834 Y63.239 E0.03303
G1 X145.322 Y62.907 E0.02241
G1 X145.874 Y62.675 E0.02278
G1 X146.531 Y62.553 E0.02538
G1 X148.537 Y62.558 E0.07625
G1 X149.150 Y62.669 E0.02370
G1 X149.764 Y62.904 E0.02497
G1 X150.374 Y63.293 E0.02751
G1 X153.532 Y66.431 E0.16917
G1 X153.913 Y66.968 E0.02504
G1 X154.192 Y67.585 E0.02574
G1 X154.363 Y68.433 E0.03288
G1 X154.363 Y71.397 E0.11265
G1 X154.247 Y72.018 E0.02400
G1 X154.008 Y72.596 E0.02377
G1 X153.682 Y73.075 E0.02202
G1 X152.993 Y73.759 E0.03689
G1 X152.533 Y74.063 E0.02096
G1 X151.955 Y74.300 E0.02376
G1 X151.421 Y74.414 E0.02074
G1 X150.906 Y73.952 F9000.000
G1 F2100
G1 X150.906 Y112.124 E1.45077
G1 X151.541 Y112.010 E0.02452
G1 X158.371 Y112.015 E0.25959
G1 X158.904 Y112.126 E0.02070
G1 X159.401 Y112.348 E0.02067
G1 X159.760 Y112.606 E0.01681
G1 X160.392 Y113.254 E0.03441
G1 X160.609 Y113.589 E0.01514
G1 X160.788 Y114.007 E0.01731
G1 X160.906 Y114.589 E0.02255
G1 X160.906 Y124.155 E0.36359
G1 X160.761 Y124.873 E0.02781
G1 X160.564 Y125.332 E0.01898
G1 X160.305 Y125.736 E0.01825
G1 X156.954 Y129.099 E0.18044
G1 X156.422 Y129.443 E0.02406
G1 X155.916 Y129.642 E0.02066
G1 X155.347 Y129.749 E0.02201
G1 X112.542 Y129.752 E1.62686
G1 X111.953 Y129.632 E0.02286
G1 X111.446 Y129.403 E0.02115
G1 X110.978 Y129.072 E0.02177
G1 X110.857 Y129.658 E0.02275
G1 X110.645 Y130.184 E0.02154
G1 X110.358 Y130.636 E0.02038
G1 X109.772 Y131.244 E0.03207
G1 X109.266 Y131.601 E0.02356
G1 X108.770 Y131.819 E0.02058
G1 X108.249 Y131.946 E0.02036
G1 X99.383 Y131.963 E0.33697
G1 X98.711 Y131.820 E0.02613
G1 X98.258 Y131.625 E0.01873
G1 X97.854 Y131.367 E0.01821
G1 X97.310 Y130.848 E0.02860
G1 X96.977 Y130.381 E0.02178
G1 X96.720 Y129.794 E0.02437
G1 X96.589 Y129.123 E0.02597
G1 X96.574 Y94.069 E1.33228
G1 X96.750 Y93.369 E0.02742
G1 X97.112 Y92.697 E0.02902
G1 X97.694 Y92.091 E0.03194
G1 X100.746 Y90.313 E0.13422
G1 X100.654 Y89.975 E0.01330
G1 X96.483 Y89.975 E0.15854
G1 X95.736 Y89.800 E0.02916
G1 X95.045 Y89.431 E0.02978
G1 X94.363 Y88.752 E0.03658
G1 X91.161 Y83.205 E0.24341
G1 X90.914 Y82.278 E0.03649
G1 X90.930 Y81.555 E0.02747
G1 X91.116 Y80.864 E0.02721
G1 X94.363 Y75.211 E0.24773
G1 X95.046 Y74.532 E0.03662
G1 X95.683 Y74.183 E0.02761
G1 X96.431 Y73.994 E0.02931
G1 X102.930 Y73.993 E0.24703
G1 X103.612 Y74.154 E0.02662
G1 X104.348 Y74.551 E0.03180
G1 X104.877 Y75.043 E0.02745
G1 X105.719 Y76.453 E0.06243
G1 X112.964 Y79.528 E0.29911
G1 X112.964 Y74.809 E0.17937
G1 X111.440 Y72.157 E0.11622
G1 X111.231 Y71.416 E0.02927
G1 X111.221 Y70.626 E0.03002
G1 X111.460 Y69.759 E0.03421
G1 X113.638 Y65.987 E0.16554
G1 X114.172 Y65.421 E0.02956
G1 X114.910 Y64.978 E0.03274
G1 X115.767 Y64.763 E0.03356
G1 X120.112 Y64.763 E0.16514
G1 X120.869 Y64.942 E0.02956
G1 X121.622 Y65.360 E0.03274
G1 X122.236 Y65.995 E0.03356
G1 X122.892 Y67.130 E0.04982
G1 X123.299 Y67.293 E0.01667
G1 X123.672 Y67.532 E0.01684
G1 X124.308 Y68.152 E0.03375
G1 X124.593 Y68.562 E0.01900
G1 X124.792 Y69.018 E0.01887
G1 X124.896 Y69.499 E0.01871
G1 X124.906 Y70.982 E0.05638
G1 X143.964 Y70.982 E0.72431
G1 X143.964 Y65.588 E0.20501
G1 X144.064 Y65.060 E0.02043
G1 X144.276 Y64.562 E0.02056
G1 X144.556 Y64.159 E0.01864
G1 X145.112 Y63.602 E0.02991
G1 X145.522 Y63.319 E0.01892
G1 X146.028 Y63.106 E0.02090
G1 X146.550 Y63.010 E0.02017
G1 X148.514 Y63.015 E0.07464
G1 X149.044 Y63.114 E0.02048
G1 X149.576 Y63.321 E0.02168
G1 X150.106 Y63.664 E0.02398
G1 X153.195 Y66.740 E0.16569
G1 X153.526 Y67.211 E0.02190
G1 X153.763 Y67.747 E0.02227
G1 X153.906 Y68.456 E0.02748
G1 X153.906 Y71.375 E0.11094
G1 X153.804 Y71.907 E0.02058
G1 X153.596 Y72.396 E0.02020
G1 X153.344 Y72.768 E0.01707
G1 X152.719 Y73.393 E0.03359
G1 X152.337 Y73.649 E0.01747
G1 X151.802 Y73.869 E0.02199
G1 X151.451 Y73.941 E0.01363
G1 X150.966 Y73.951 E0.01845
G1 X150.449 Y73.496 F9000.000
G1 F2100
G1 X150.449 Y112.840 E1.49531
G1 X151.166 Y112.543 E0.02951
G1 X151.563 Y112.468 E0.01537
G1 X158.305 Y112.468 E0.25621
G1 X158.745 Y112.556 E0.01708
G1 X159.158 Y112.736 E0.01713
G1 X159.450 Y112.942 E0.01356
G1 X160.024 Y113.526 E0.03112
G1 X160.197 Y113.788 E0.01195
G1 X160.359 Y114.166 E0.01560
G1 X160.449 Y114.611 E0.01728
G1 X160.449 Y124.133 E0.36187
G1 X160.331 Y124.714 E0.02255
G1 X160.152 Y125.133 E0.01731
G1 X159.935 Y125.467 E0.01513
G1 X156.683 Y128.730 E0.17511
G1 X156.232 Y129.026 E0.02049
G1 X155.770 Y129.208 E0.01885
G1 X155.287 Y129.295 E0.01868
G1 X112.565 Y129.295 E1.62370
G1 X112.118 Y129.205 E0.01734
G1 X111.659 Y128.997 E0.01915
G1 X111.414 Y128.816 E0.01156
G1 X110.509 Y127.888 E0.04928
G1 X110.508 Y129.068 E0.04483
G1 X110.423 Y129.512 E0.01719
G1 X110.245 Y129.961 E0.01835
G1 X110.011 Y130.337 E0.01685
G1 X109.458 Y130.911 E0.03030
G1 X109.061 Y131.192 E0.01848
G1 X108.606 Y131.391 E0.01889
G1 X108.170 Y131.495 E0.01700
G1 X99.407 Y131.506 E0.33306
G1 X98.871 Y131.391 E0.02085
G1 X98.457 Y131.213 E0.01712
G1 X98.122 Y130.997 E0.01513
G1 X97.642 Y130.534 E0.02535
G1 X97.384 Y130.173 E0.01686
G1 X97.163 Y129.677 E0.02064
G1 X97.046 Y129.100 E0.02239
G1 X97.031 Y94.099 E1.33024
G1 X97.184 Y93.514 E0.02298
G1 X97.496 Y92.947 E0.02463
G1 X97.998 Y92.434 E0.02726
G1 X102.589 Y89.774 E0.20164
G1 X101.986 Y89.518 E0.02488
G1 X96.511 Y89.518 E0.20809
G1 X95.875 Y89.363 E0.02488
G1 X95.293 Y89.046 E0.02519
G1 X94.744 Y88.497 E0.02952
G1 X91.571 Y83.003 E0.24113
G1 X91.371 Y82.251 E0.02957
G1 X91.379 Y81.645 E0.02302
G1 X91.550 Y81.012 E0.02495
G1 X94.744 Y75.466 E0.24324
G1 X95.293 Y74.917 E0.02951
G1 X95.875 Y74.599 E0.02519
G1 X96.511 Y74.445 E0.02488
G1 X102.856 Y74.445 E0.24115
G1 X103.427 Y74.573 E0.02225
