; generated by Slic3r 1.37.1-prusa3d-win64 on 2017-10-29 at 00:10:07

; 

; external perimeters extrusion width = 0.45mm
; perimeters extrusion width = 0.45mm
; infill extrusion width = 0.45mm
; solid infill extrusion width = 0.45mm
; top infill extrusion width = 0.45mm
; first layer extrusion width = 0.45mm

M107
M115 U3.0.12 ; tell printer latest fw version
M83  ; extruder relative mode
M104 S150
M140 S105 ; set bed temp
G28 W ; home all without mesh bed level
G1 X125 Z80 F1000
M190 S105 ; wait for bed temp
M104 S295 ; set extruder temp
G80 ; mesh bed leveling
M109 S295 ; wait for extruder temp
G1 Y-3.0 F1000 ; go outside print area
G1 X60.0 E9.0 ; intro line
G1 X100.0 E12.5 ; intro line
; Filament gcode
G21 ; set units to millimeters
G90 ; use absolute coordinates
M83 ; use relative distances for extrusion
; Layer 0
G1 E-0.80000 F2100.00000
G1 Z0.150 F7200.000
G1 X115.050 Y96.894 F7200.000
G1 E0.80000 F2100.00000
M204 S1000
G1 F1469.28
G1 X116.069 Y95.781 E0.03933
G1 X116.858 Y95.080 E0.02749
G1 X118.080 Y94.190 E0.03939
G1 X118.992 Y93.659 E0.02748
G1 X120.344 Y93.039 E0.03878
G1 X121.365 Y92.691 E0.02809
G1 X122.814 Y92.352 E0.03878
G1 X123.860 Y92.216 E0.02748
G1 X125.240 Y92.168 E0.03598
G1 X126.394 Y92.241 E0.03012
G1 X127.785 Y92.472 E0.03676
G1 X129.794 Y93.095 E0.05480
G1 X131.049 Y93.680 E0.03609
G1 X131.978 Y94.227 E0.02810
G1 X133.183 Y95.112 E0.03894
G1 X134.051 Y95.901 E0.03058
G1 X134.981 Y96.931 E0.03614
G1 X135.614 Y97.782 E0.02764
G1 X136.379 Y99.065 E0.03893
G1 X136.845 Y100.057 E0.02856
G1 X137.334 Y101.450 E0.03847
G1 X137.588 Y102.492 E0.02794
G1 X137.795 Y103.996 E0.03955
G1 X137.834 Y105.139 E0.02981
G1 X137.740 Y106.553 E0.03691
G1 X137.571 Y107.594 E0.02748
G1 X137.181 Y109.042 E0.03909
G1 X136.802 Y110.046 E0.02794
G1 X136.135 Y111.382 E0.03893
G1 X135.574 Y112.276 E0.02748
G1 X134.644 Y113.468 E0.03940
G1 X133.909 Y114.240 E0.02778
G1 X132.764 Y115.219 E0.03924
G1 X131.905 Y115.820 E0.02732
G1 X130.996 Y116.347 E0.02738
G1 X129.622 Y116.974 E0.03935
G1 X128.624 Y117.312 E0.02747
G1 X127.151 Y117.654 E0.03940
G1 X126.104 Y117.786 E0.02748
G1 X124.629 Y117.830 E0.03846
G1 X123.541 Y117.751 E0.02841
G1 X122.052 Y117.492 E0.03940
G1 X121.031 Y117.205 E0.02763
G1 X119.644 Y116.665 E0.03878
G1 X118.684 Y116.173 E0.02810
G1 X117.428 Y115.364 E0.03893
G1 X116.603 Y114.707 E0.02748
G1 X115.601 Y113.739 E0.03629
G1 X114.860 Y112.868 E0.02980
G1 X114.058 Y111.707 E0.03676
G1 X113.113 Y109.838 E0.05459
G1 X112.659 Y108.527 E0.03613
G1 X112.407 Y107.484 E0.02795
G1 X112.205 Y106.004 E0.03893
G1 X112.166 Y104.861 E0.02981
G1 X112.260 Y103.447 E0.03691
G1 X112.429 Y102.406 E0.02748
G1 X112.817 Y100.963 E0.03893
G1 X113.193 Y99.965 E0.02778
G1 X113.863 Y98.623 E0.03909
G1 X114.419 Y97.734 E0.02732
G1 X115.014 Y96.942 E0.02582
G1 X115.348 Y97.192 F7200.000
G1 F1469.28
G1 X116.361 Y96.080 E0.03921
G1 X117.119 Y95.406 E0.02642
G1 X118.311 Y94.538 E0.03843
G1 X119.182 Y94.031 E0.02627
G1 X120.502 Y93.425 E0.03784
G1 X121.478 Y93.094 E0.02686
G1 X122.892 Y92.762 E0.03784
G1 X123.892 Y92.633 E0.02626
G1 X125.240 Y92.586 E0.03514
G1 X126.343 Y92.656 E0.02881
G1 X127.702 Y92.881 E0.03589
G1 X129.631 Y93.480 E0.05262
G1 X130.854 Y94.049 E0.03515
G1 X131.747 Y94.575 E0.02701
G1 X132.922 Y95.438 E0.03799
G1 X133.753 Y96.194 E0.02925
G1 X134.660 Y97.199 E0.03529
G1 X135.265 Y98.013 E0.02642
G1 X136.010 Y99.259 E0.03784
G1 X136.458 Y100.213 E0.02746
G1 X136.933 Y101.567 E0.03739
G1 X137.177 Y102.569 E0.02686
G1 X137.379 Y104.030 E0.03843
G1 X137.416 Y105.130 E0.02866
G1 X137.325 Y106.510 E0.03604
G1 X137.163 Y107.504 E0.02626
G1 X136.784 Y108.912 E0.03799
G1 X136.420 Y109.877 E0.02686
G1 X135.771 Y111.176 E0.03784
G1 X135.233 Y112.035 E0.02641
G1 X134.325 Y113.198 E0.03844
G1 X133.622 Y113.936 E0.02656
G1 X132.505 Y114.891 E0.03829
G1 X131.679 Y115.468 E0.02626
G1 X130.808 Y115.974 E0.02626
G1 X129.471 Y116.585 E0.03829
G1 X128.511 Y116.910 E0.02641
G1 X127.080 Y117.242 E0.03829
G1 X126.074 Y117.370 E0.02641
G1 X124.634 Y117.412 E0.03754
G1 X123.594 Y117.337 E0.02716
G1 X122.141 Y117.084 E0.03843
G1 X121.160 Y116.807 E0.02656
G1 X119.812 Y116.282 E0.03769
G1 X118.890 Y115.809 E0.02701
G1 X117.669 Y115.023 E0.03784
G1 X116.876 Y114.390 E0.02641
G1 X115.902 Y113.449 E0.03529
G1 X115.189 Y112.612 E0.02865
G1 X114.411 Y111.482 E0.03574
G1 X113.502 Y109.685 E0.05248
G1 X113.059 Y108.405 E0.03529
G1 X112.818 Y107.408 E0.02671
G1 X112.621 Y105.964 E0.03798
G1 X112.584 Y104.870 E0.02851
G1 X112.675 Y103.490 E0.03604
G1 X112.837 Y102.495 E0.02626
G1 X113.216 Y101.088 E0.03799
G1 X113.578 Y100.128 E0.02671
G1 X114.229 Y98.824 E0.03799
G1 X114.764 Y97.970 E0.02626
G1 X115.312 Y97.240 E0.02376
G1 F5760
G1 X116.361 Y96.080 E-0.54194
G1 F5760
G1 X116.831 Y95.661 E-0.21806
G1 E-0.04000 F2100.00000
G1 X116.099 Y97.901 F7200.000
G1 E0.80000 F2100.00000
G1 F1469.28
G1 X116.499 Y97.424 E0.01622
G1 X117.144 Y96.757 E0.02416
G1 X117.643 Y96.309 E0.01749
G1 X118.178 Y95.882 E0.01783
G1 X118.943 Y95.358 E0.02415
G1 X119.521 Y95.018 E0.01748
G1 X120.131 Y94.706 E0.01784
G1 X120.985 Y94.344 E0.02417
G1 X121.632 Y94.123 E0.01782
G1 X122.279 Y93.943 E0.01750
G1 X123.188 Y93.758 E0.02416
G1 X123.853 Y93.671 E0.01749
G1 X124.536 Y93.622 E0.01783
G1 X125.463 Y93.622 E0.02416
G1 X126.145 Y93.671 E0.01781
G1 X126.811 Y93.758 E0.01751
G1 X127.720 Y93.943 E0.02416
G1 X128.379 Y94.126 E0.01781
G1 X129.014 Y94.344 E0.01751
G1 X129.868 Y94.706 E0.02415
G1 X130.477 Y95.017 E0.01781
G1 X131.056 Y95.357 E0.01752
G1 X131.821 Y95.882 E0.02417
G1 X132.346 Y96.300 E0.01749
G1 X132.855 Y96.756 E0.01778
G1 X133.440 Y97.356 E0.02185
G1 X133.989 Y98.010 E0.02224
G1 X134.384 Y98.550 E0.01745
G1 X134.755 Y99.125 E0.01783
G1 X135.200 Y99.939 E0.02417
G1 X135.481 Y100.549 E0.01750
G1 X135.729 Y101.186 E0.01782
G1 X136.004 Y102.071 E0.02415
G1 X136.157 Y102.725 E0.01749
G1 X136.274 Y103.399 E0.01783
G1 X136.367 Y104.322 E0.02415
G1 X136.387 Y105.005 E0.01781
G1 X136.367 Y105.675 E0.01747
G1 X136.286 Y106.510 E0.02185
G1 X136.142 Y107.351 E0.02224
G1 X135.981 Y108.014 E0.01778
G1 X135.784 Y108.656 E0.01750
G1 X135.451 Y109.522 E0.02416
G1 X135.166 Y110.129 E0.01749
G1 X134.840 Y110.731 E0.01783
G1 X134.341 Y111.513 E0.02416
G1 X133.933 Y112.062 E0.01782
G1 X133.501 Y112.576 E0.01750
G1 X132.856 Y113.243 E0.02416
G1 X132.357 Y113.691 E0.01749
G1 X131.822 Y114.118 E0.01783
G1 X131.057 Y114.642 E0.02416
G1 X130.468 Y114.988 E0.01781
G1 X129.869 Y115.294 E0.01751
G1 X129.015 Y115.656 E0.02417
G1 X128.368 Y115.877 E0.01782
G1 X127.721 Y116.057 E0.01750
G1 X126.812 Y116.242 E0.02415
G1 X126.147 Y116.329 E0.01749
G1 X125.464 Y116.378 E0.01783
G1 X124.536 Y116.378 E0.02418
G1 X123.866 Y116.330 E0.01750
G1 X123.188 Y116.242 E0.01782
G1 X122.280 Y116.057 E0.02416
G1 X121.633 Y115.878 E0.01749
G1 X120.985 Y115.656 E0.01783
G1 X120.132 Y115.294 E0.02415
G1 X119.534 Y114.989 E0.01748
G1 X118.944 Y114.643 E0.01784
G1 X118.179 Y114.118 E0.02417
G1 X117.654 Y113.700 E0.01749
G1 X117.145 Y113.244 E0.01781
G1 X116.532 Y112.613 E0.02293
G1 X116.079 Y112.076 E0.01829
G1 X115.661 Y111.515 E0.01822
G1 X115.172 Y110.751 E0.02364
G1 X114.857 Y110.175 E0.01711
G1 X114.579 Y109.586 E0.01697
G1 X114.243 Y108.735 E0.02382
G1 X113.995 Y107.925 E0.02207
G1 X113.840 Y107.261 E0.01778
G1 X113.724 Y106.584 E0.01788
G1 X113.633 Y105.678 E0.02373
G1 X113.613 Y105.008 E0.01748
G1 X113.633 Y104.325 E0.01779
G1 X113.714 Y103.490 E0.02185
G1 X113.858 Y102.649 E0.02224
G1 X114.016 Y101.998 E0.01745
G1 X114.216 Y101.344 E0.01783
G1 X114.549 Y100.478 E0.02417
G1 X114.840 Y99.859 E0.01782
G1 X115.160 Y99.269 E0.01750
G1 X115.659 Y98.487 E0.02416
G1 X116.061 Y97.947 E0.01754
G1 X116.391 Y98.202 F7200.000
G1 F1469.28
G1 X116.814 Y97.698 E0.01714
G1 X117.428 Y97.063 E0.02301
G1 X117.918 Y96.624 E0.01714
G1 X118.433 Y96.214 E0.01715
G1 X119.160 Y95.714 E0.02300
G1 X119.727 Y95.381 E0.01713
G1 X120.314 Y95.082 E0.01716
G1 X121.127 Y94.737 E0.02302
G1 X121.750 Y94.523 E0.01714
G1 X122.384 Y94.347 E0.01715
G1 X123.249 Y94.171 E0.02301
G1 X123.901 Y94.086 E0.01713
G1 X124.558 Y94.040 E0.01715
G1 X125.441 Y94.040 E0.02302
G1 X126.097 Y94.086 E0.01713
G1 X126.750 Y94.171 E0.01715
G1 X127.615 Y94.347 E0.02301
G1 X128.249 Y94.523 E0.01714
G1 X128.872 Y94.737 E0.01715
G1 X129.685 Y95.081 E0.02301
G1 X130.270 Y95.380 E0.01713
G1 X130.838 Y95.713 E0.01716
G1 X131.567 Y96.214 E0.02302
G1 X132.081 Y96.623 E0.01713
G1 X132.570 Y97.062 E0.01711
G1 X133.135 Y97.642 E0.02110
G1 X133.656 Y98.262 E0.02109
G1 X134.043 Y98.792 E0.01711
G1 X134.399 Y99.345 E0.01715
G1 X134.824 Y100.120 E0.02302
G1 X135.099 Y100.718 E0.01714
G1 X135.337 Y101.331 E0.01714
G1 X135.599 Y102.174 E0.02300
G1 X135.749 Y102.814 E0.01713
G1 X135.861 Y103.463 E0.01715
G1 X135.949 Y104.342 E0.02301
G1 X135.969 Y104.999 E0.01713
G1 X135.950 Y105.655 E0.01712
G1 X135.871 Y106.462 E0.02111
G1 X135.734 Y107.260 E0.02109
G1 X135.579 Y107.898 E0.01711
G1 X135.387 Y108.527 E0.01715
G1 X135.069 Y109.351 E0.02301
G1 X134.790 Y109.947 E0.01714
G1 X134.476 Y110.525 E0.01715
G1 X134.001 Y111.270 E0.02302
G1 X133.609 Y111.798 E0.01714
G1 X133.186 Y112.302 E0.01715
G1 X132.572 Y112.937 E0.02301
G1 X132.082 Y113.376 E0.01714
G1 X131.567 Y113.786 E0.01715
G1 X130.839 Y114.286 E0.02301
G1 X130.272 Y114.619 E0.01713
G1 X129.686 Y114.918 E0.01715
G1 X128.872 Y115.263 E0.02302
G1 X128.250 Y115.477 E0.01714
G1 X127.616 Y115.653 E0.01715
G1 X126.751 Y115.829 E0.02300
G1 X126.099 Y115.914 E0.01713
G1 X125.442 Y115.960 E0.01715
G1 X124.558 Y115.960 E0.02303
G1 X123.902 Y115.914 E0.01714
G1 X123.250 Y115.829 E0.01714
G1 X122.384 Y115.653 E0.02301
G1 X121.751 Y115.477 E0.01714
G1 X121.128 Y115.263 E0.01715
G1 X120.315 Y114.919 E0.02300
G1 X119.730 Y114.620 E0.01713
G1 X119.162 Y114.286 E0.01716
G1 X118.433 Y113.786 E0.02302
G1 X117.919 Y113.377 E0.01713
G1 X117.429 Y112.938 E0.01713
G1 X116.837 Y112.327 E0.02217
G1 X116.402 Y111.812 E0.01756
G1 X116.001 Y111.272 E0.01754
G1 X115.535 Y110.544 E0.02252
G1 X115.232 Y109.991 E0.01644
G1 X114.960 Y109.414 E0.01663
G1 X114.635 Y108.590 E0.02307
G1 X114.400 Y107.823 E0.02089
G1 X114.248 Y107.172 E0.01743
G1 X114.137 Y106.521 E0.01720
G1 X114.051 Y105.658 E0.02260
G1 X114.031 Y105.001 E0.01713
G1 X114.050 Y104.345 E0.01712
G1 X114.129 Y103.538 E0.02111
G1 X114.266 Y102.741 E0.02109
G1 X114.421 Y102.102 E0.01711
G1 X114.613 Y101.473 E0.01715
G1 X114.931 Y100.649 E0.02302
G1 X115.210 Y100.053 E0.01714
G1 X115.524 Y99.475 E0.01715
G1 X115.999 Y98.730 E0.02301
G1 X116.356 Y98.250 E0.01558
G1 X116.691 Y98.499 F7200.000
G1 F1469.28
G1 X117.130 Y97.972 E0.01786
G1 X117.713 Y97.369 E0.02186
G1 X118.192 Y96.939 E0.01678
G1 X118.687 Y96.546 E0.01647
G1 X119.379 Y96.071 E0.02187
G1 X119.923 Y95.751 E0.01645
G1 X120.497 Y95.458 E0.01680
G1 X121.270 Y95.130 E0.02188
G1 X121.868 Y94.924 E0.01646
G1 X122.489 Y94.752 E0.01679
G1 X123.311 Y94.585 E0.02185
G1 X123.949 Y94.501 E0.01678
G1 X124.580 Y94.457 E0.01647
G1 X125.419 Y94.457 E0.02188
G1 X126.049 Y94.501 E0.01645
G1 X126.688 Y94.585 E0.01680
G1 X127.511 Y94.752 E0.02187
G1 X128.119 Y94.920 E0.01645
G1 X128.729 Y95.130 E0.01680
G1 X129.502 Y95.457 E0.02186
G1 X130.064 Y95.743 E0.01645
G1 X130.620 Y96.070 E0.01680
G1 X131.313 Y96.545 E0.02188
G1 X131.807 Y96.938 E0.01645
G1 X132.286 Y97.368 E0.01676
G1 X132.820 Y97.917 E0.01996
G1 X133.323 Y98.514 E0.02034
G1 X133.702 Y99.033 E0.01675
G1 X134.044 Y99.565 E0.01647
G1 X134.447 Y100.301 E0.02188
G1 X134.712 Y100.875 E0.01646
G1 X134.945 Y101.476 E0.01679
G1 X135.194 Y102.277 E0.02185
G1 X135.338 Y102.891 E0.01645
G1 X135.448 Y103.527 E0.01680
G1 X135.532 Y104.362 E0.02186
G1 X135.551 Y104.993 E0.01645
G1 X135.532 Y105.636 E0.01677
G1 X135.456 Y106.413 E0.02035
G1 X135.326 Y107.168 E0.01996
G1 X135.178 Y107.781 E0.01644
G1 X134.989 Y108.398 E0.01679
G1 X134.688 Y109.181 E0.02186
G1 X134.420 Y109.753 E0.01645
G1 X134.113 Y110.319 E0.01680
G1 X133.661 Y111.027 E0.02187
G1 X133.285 Y111.534 E0.01646
G1 X132.870 Y112.028 E0.01679
G1 X132.287 Y112.631 E0.02187
G1 X131.817 Y113.053 E0.01646
G1 X131.313 Y113.455 E0.01679
G1 X130.621 Y113.929 E0.02187
G1 X130.077 Y114.250 E0.01645
G1 X129.503 Y114.542 E0.01680
G1 X128.730 Y114.870 E0.02188
G1 X128.132 Y115.076 E0.01646
G1 X127.511 Y115.248 E0.01679
G1 X126.689 Y115.415 E0.02185
G1 X126.051 Y115.499 E0.01678
G1 X125.420 Y115.543 E0.01647
G1 X124.580 Y115.543 E0.02189
G1 X123.950 Y115.499 E0.01646
G1 X123.311 Y115.415 E0.01679
G1 X122.489 Y115.248 E0.02186
G1 X121.880 Y115.080 E0.01646
G1 X121.271 Y114.870 E0.01679
G1 X120.498 Y114.543 E0.02186
G1 X119.936 Y114.257 E0.01645
G1 X119.380 Y113.930 E0.01680
G1 X118.687 Y113.455 E0.02188
G1 X118.193 Y113.062 E0.01645
G1 X117.714 Y112.632 E0.01678
G1 X117.151 Y112.052 E0.02105
G1 X116.734 Y111.557 E0.01687
G1 X116.340 Y111.028 E0.01717
G1 X115.898 Y110.337 E0.02138
G1 X115.601 Y109.796 E0.01608
G1 X115.340 Y109.242 E0.01595
G1 X115.027 Y108.444 E0.02232
G1 X114.806 Y107.721 E0.01971
G1 X114.659 Y107.095 E0.01675
G1 X114.550 Y106.458 E0.01684
G1 X114.468 Y105.638 E0.02147
G1 X114.449 Y105.007 E0.01645
G1 X114.468 Y104.364 E0.01677
G1 X114.542 Y103.601 E0.01997
G1 X114.674 Y102.832 E0.02034
G1 X114.825 Y102.207 E0.01675
G1 X115.010 Y101.603 E0.01647
G1 X115.312 Y100.819 E0.02188
G1 X115.580 Y100.247 E0.01646
G1 X115.888 Y99.681 E0.01679
G1 X116.339 Y98.973 E0.02186
G1 X116.655 Y98.547 E0.01383
G1 X116.991 Y98.796 F7200.000
G1 F1469.28
G1 X117.445 Y98.247 E0.01857
G1 X117.998 Y97.675 E0.02072
G1 X118.457 Y97.262 E0.01610
G1 X118.941 Y96.877 E0.01611
G1 X119.597 Y96.427 E0.02073
G1 X120.129 Y96.114 E0.01609
G1 X120.680 Y95.833 E0.01612
G1 X121.413 Y95.522 E0.02074
G1 X121.997 Y95.322 E0.01610
G1 X122.593 Y95.156 E0.01611
G1 X123.372 Y94.998 E0.02072
G1 X123.985 Y94.918 E0.01609
G1 X124.602 Y94.874 E0.01612
G1 X125.397 Y94.874 E0.02074
G1 X126.014 Y94.917 E0.01610
G1 X126.627 Y94.998 E0.01611
G1 X127.406 Y95.156 E0.02073
G1 X128.002 Y95.321 E0.01610
G1 X128.586 Y95.522 E0.01611
G1 X129.319 Y95.833 E0.02072
G1 X129.869 Y96.113 E0.01609
G1 X130.402 Y96.426 E0.01612
G1 X131.058 Y96.877 E0.02074
G1 X131.542 Y97.261 E0.01610
G1 X132.001 Y97.674 E0.01608
G1 X132.515 Y98.202 E0.01921
G1 X132.990 Y98.767 E0.01921
G1 X133.354 Y99.265 E0.01608
G1 X133.688 Y99.785 E0.01611
G1 X134.071 Y100.483 E0.02074
G1 X134.329 Y101.044 E0.01611
G1 X134.553 Y101.620 E0.01610
G1 X134.789 Y102.380 E0.02072
G1 X134.930 Y102.981 E0.01610
G1 X135.035 Y103.590 E0.01611
G1 X135.115 Y104.382 E0.02072
G1 X135.133 Y104.999 E0.01609
G1 X135.115 Y105.616 E0.01609
G1 X135.043 Y106.350 E0.01922
G1 X134.918 Y107.077 E0.01921
G1 X134.773 Y107.677 E0.01608
G1 X134.592 Y108.268 E0.01611
G1 X134.306 Y109.010 E0.02072
G1 X134.045 Y109.570 E0.01610
G1 X133.749 Y110.113 E0.01611
G1 X133.321 Y110.784 E0.02073
G1 X132.953 Y111.280 E0.01610
G1 X132.555 Y111.753 E0.01611
G1 X132.002 Y112.325 E0.02073
G1 X131.543 Y112.738 E0.01610
G1 X131.059 Y113.123 E0.01611
G1 X130.403 Y113.573 E0.02073
G1 X129.871 Y113.886 E0.01610
G1 X129.320 Y114.167 E0.01611
G1 X128.587 Y114.478 E0.02074
G1 X128.002 Y114.678 E0.01610
G1 X127.407 Y114.844 E0.01611
G1 X126.628 Y115.002 E0.02072
G1 X126.015 Y115.082 E0.01609
G1 X125.398 Y115.126 E0.01612
G1 X124.602 Y115.126 E0.02075
G1 X123.986 Y115.083 E0.01610
G1 X123.373 Y115.002 E0.01610
G1 X122.593 Y114.844 E0.02072
G1 X121.998 Y114.679 E0.01610
G1 X121.413 Y114.478 E0.01611
G1 X120.681 Y114.167 E0.02072
G1 X120.131 Y113.887 E0.01609
G1 X119.598 Y113.574 E0.01612
G1 X118.942 Y113.123 E0.02074
G1 X118.458 Y112.739 E0.01610
G1 X117.998 Y112.326 E0.01610
G1 X117.466 Y111.777 E0.01993
G1 X117.057 Y111.293 E0.01651
G1 X116.680 Y110.785 E0.01648
G1 X116.261 Y110.130 E0.02027
G1 X115.977 Y109.612 E0.01540
G1 X115.721 Y109.070 E0.01560
G1 X115.419 Y108.299 E0.02157
G1 X115.211 Y107.619 E0.01854
G1 X115.067 Y107.006 E0.01640
G1 X114.963 Y106.395 E0.01615
G1 X114.885 Y105.618 E0.02034
G1 X114.867 Y105.001 E0.01609
G1 X114.885 Y104.384 E0.01609
G1 X114.957 Y103.650 E0.01922
G1 X115.082 Y102.923 E0.01921
G1 X115.226 Y102.323 E0.01608
G1 X115.408 Y101.732 E0.01611
G1 X115.694 Y100.989 E0.02074
