; generated by Slic3r 1.37.1-prusa3d-win64 on 2017-10-28 at 23:34:34

; 

; external perimeters extrusion width = 0.45mm
; perimeters extrusion width = 0.45mm
; infill extrusion width = 0.45mm
; solid infill extrusion width = 0.45mm
; top infill extrusion width = 0.45mm
; first layer extrusion width = 0.45mm

M107
M115 U3.0.12 ; tell printer latest fw version
M83  ; extruder relative mode
M104 S150
M140 S120 ; set bed temp
G28 W ; home all without mesh bed level
G1 X125 Z80 F1000
M190 S120 ; wait for bed temp
M104 S290 ; set extruder temp
G80 ; mesh bed leveling
M109 S290 ; wait for extruder temp
G1 Y-3.0 F1000 ; go outside print area
G1 X60.0 E9.0 ; intro line
G1 X100.0 E12.5 ; intro line
; Filament gcode
G21 ; set units to millimeters
G90 ; use absolute coordinates
M83 ; use relative distances for extrusion
; Layer 0
G1 E-0.80000 F2100.00000
G1 Z0.150 F7200.000
G1 X120.444 Y66.723 F7200.000
G1 E0.80000 F2100.00000
M204 S1000
G1 F4102.73
G1 X121.422 Y66.335 E0.02740
G1 X123.024 Y65.894 E0.04328
G1 X123.907 Y65.780 E0.02322
G1 X125.272 Y65.763 E0.03557
G1 X126.118 Y65.816 E0.02208
G1 X127.067 Y65.998 E0.02517
G1 X128.525 Y66.438 E0.03969
G1 X129.418 Y66.835 E0.02545
G1 X130.742 Y67.658 E0.04064
G1 X131.492 Y68.227 E0.02451
G1 X133.080 Y69.981 E0.06166
G1 X163.225 Y116.469 E1.44366
G1 X163.687 Y117.681 E0.03378
G1 X163.848 Y118.973 E0.03393
G1 X163.846 Y135.846 E0.43964
G1 X163.693 Y136.978 E0.02976
G1 X163.303 Y138.058 E0.02991
G1 X162.512 Y139.253 E0.03735
G1 X161.430 Y140.202 E0.03750
G1 X160.142 Y140.831 E0.03735
G1 X158.728 Y141.100 E0.03750
G1 X92.966 Y142.759 E1.71403
G1 X89.900 Y142.725 E0.07991
G1 X88.998 Y142.545 E0.02394
G1 X88.141 Y142.215 E0.02394
G1 X86.993 Y141.465 E0.03571
G1 X86.071 Y140.451 E0.03571
G1 X85.433 Y139.238 E0.03571
G1 X85.119 Y137.904 E0.03571
G1 X85.092 Y120.498 E0.45352
G1 X85.244 Y119.360 E0.02991
G1 X85.634 Y118.275 E0.03006
G1 X116.572 Y69.967 E1.49470
G1 X117.578 Y68.786 E0.04041
G1 X118.203 Y68.182 E0.02265
G1 X118.964 Y67.616 E0.02471
G1 X120.393 Y66.754 E0.04349
G1 F5760
G1 X121.422 Y66.335 E-0.38479
G1 F5760
G1 X122.467 Y66.048 E-0.37521
G1 E-0.04000 F2100.00000
G1 X154.139 Y115.344 F7200.000
G1 E0.80000 F2100.00000
G1 F4102.73
G1 X155.012 Y114.875 E0.02581
G1 X155.928 Y114.634 E0.02468
G1 X158.540 Y114.629 E0.06808
G1 X159.330 Y114.819 E0.02115
G1 X160.060 Y115.152 E0.02092
G1 X161.250 Y116.179 E0.04096
G1 X161.932 Y117.288 E0.03391
G1 X162.206 Y118.278 E0.02678
G1 X162.237 Y136.145 E0.46554
G1 X162.011 Y137.194 E0.02795
G1 X161.500 Y138.182 E0.02899
G1 X160.346 Y139.338 E0.04255
G1 X159.520 Y139.788 E0.02451
G1 X158.561 Y140.047 E0.02589
G1 X156.187 Y140.078 E0.06187
G1 X154.937 Y139.775 E0.03351
G1 X153.825 Y139.091 E0.03400
G1 X152.802 Y137.907 E0.04077
G1 X152.468 Y137.181 E0.02082
G1 X152.283 Y136.438 E0.01997
G1 X152.249 Y118.536 E0.46644
G1 X152.475 Y117.487 E0.02796
G1 X152.986 Y116.499 E0.02900
G1 X154.097 Y115.386 E0.04097
G1 X154.366 Y115.696 F7200.000
G1 F4102.73
G1 X155.143 Y115.272 E0.02306
G1 X156.008 Y115.045 E0.02330
G1 X158.469 Y115.041 E0.06411
G1 X159.175 Y115.208 E0.01892
G1 X159.859 Y115.520 E0.01957
G1 X160.950 Y116.472 E0.03774
G1 X161.558 Y117.477 E0.03062
G1 X161.795 Y118.359 E0.02380
G1 X161.819 Y136.123 E0.46283
G1 X161.610 Y137.076 E0.02543
G1 X161.145 Y137.960 E0.02601
G1 X160.120 Y138.986 E0.03779
G1 X159.343 Y139.409 E0.02305
G1 X158.480 Y139.636 E0.02324
G1 X156.208 Y139.660 E0.05921
G1 X155.124 Y139.400 E0.02903
G1 X154.117 Y138.791 E0.03066
G1 X153.168 Y137.704 E0.03763
G1 X152.868 Y137.061 E0.01848
G1 X152.694 Y136.361 E0.01877
G1 X152.667 Y118.559 E0.46386
G1 X152.876 Y117.605 E0.02544
G1 X153.341 Y116.722 E0.02601
G1 X154.324 Y115.738 E0.03623
G1 X154.592 Y116.048 F7200.000
G1 F4102.73
G1 X155.320 Y115.652 E0.02158
G1 X156.086 Y115.456 E0.02060
G1 X158.396 Y115.454 E0.06021
G1 X159.058 Y115.610 E0.01772
G1 X159.655 Y115.886 E0.01712
G1 X160.648 Y116.762 E0.03453
G1 X161.183 Y117.664 E0.02731
G1 X161.384 Y118.438 E0.02084
G1 X161.401 Y136.099 E0.46018
G1 X161.209 Y136.955 E0.02287
G1 X160.792 Y137.735 E0.02303
G1 X159.894 Y138.633 E0.03310
G1 X159.166 Y139.029 E0.02158
G1 X158.402 Y139.225 E0.02055
G1 X156.230 Y139.242 E0.05661
G1 X155.309 Y139.024 E0.02465
G1 X154.408 Y138.489 E0.02731
G1 X153.533 Y137.499 E0.03441
G1 X153.256 Y136.903 E0.01713
G1 X153.106 Y136.287 E0.01653
G1 X153.085 Y118.582 E0.46131
G1 X153.277 Y117.726 E0.02287
G1 X153.694 Y116.946 E0.02303
G1 X154.550 Y116.091 E0.03153
G1 X154.819 Y116.401 F7200.000
G1 F4102.73
G1 X155.495 Y116.032 E0.02008
G1 X156.160 Y115.868 E0.01785
G1 X158.327 Y115.866 E0.05645
G1 X158.903 Y115.998 E0.01541
G1 X159.450 Y116.251 E0.01571
G1 X160.344 Y117.051 E0.03124
G1 X160.807 Y117.846 E0.02398
G1 X160.973 Y118.513 E0.01791
G1 X160.984 Y136.075 E0.45759
G1 X160.808 Y136.832 E0.02025
G1 X160.440 Y137.508 E0.02006
G1 X159.667 Y138.281 E0.02847
G1 X158.991 Y138.649 E0.02008
G1 X158.327 Y138.814 E0.01781
G1 X156.252 Y138.824 E0.05407
G1 X155.491 Y138.647 E0.02036
G1 X154.696 Y138.185 E0.02396
G1 X153.898 Y137.293 E0.03120
G1 X153.657 Y136.783 E0.01468
G1 X153.518 Y136.213 E0.01531
G1 X153.502 Y118.606 E0.45874
G1 X153.678 Y117.849 E0.02025
G1 X154.046 Y117.173 E0.02006
G1 X154.776 Y116.443 E0.02690
G1 X155.045 Y116.753 F7200.000
G1 F4102.73
G1 X155.670 Y116.413 E0.01854
G1 X156.232 Y116.280 E0.01505
G1 X158.260 Y116.279 E0.05284
G1 X158.749 Y116.387 E0.01306
G1 X159.245 Y116.617 E0.01425
G1 X160.038 Y117.336 E0.02788
G1 X160.428 Y118.024 E0.02061
G1 X160.561 Y118.585 E0.01500
G1 X160.566 Y136.052 E0.45512
G1 X160.428 Y136.658 E0.01619
G1 X160.087 Y137.282 E0.01852
G1 X159.441 Y137.928 E0.02382
G1 X158.816 Y138.269 E0.01854
G1 X158.256 Y138.401 E0.01501
G1 X156.275 Y138.406 E0.05162
G1 X155.669 Y138.268 E0.01618
G1 X154.982 Y137.878 E0.02059
G1 X154.262 Y137.085 E0.02790
G1 X154.044 Y136.625 E0.01326
G1 X153.930 Y136.141 E0.01297
G1 X153.920 Y118.629 E0.45628
G1 X154.058 Y118.024 E0.01619
G1 X154.399 Y117.400 E0.01852
G1 X155.002 Y116.796 E0.02225
G1 X155.271 Y117.106 F7200.000
G1 F4102.73
G1 X155.843 Y116.794 E0.01696
G1 X156.298 Y116.693 E0.01216
G1 X158.234 Y116.697 E0.05044
G1 X158.631 Y116.789 E0.01063
G1 X159.037 Y116.980 E0.01168
G1 X159.728 Y117.619 E0.02452
G1 X160.046 Y118.197 E0.01721
G1 X160.148 Y118.652 E0.01214
G1 X160.148 Y136.029 E0.45278
G1 X160.047 Y136.484 E0.01213
G1 X159.735 Y137.055 E0.01696
G1 X159.215 Y137.576 E0.01917
G1 X158.643 Y137.887 E0.01696
G1 X158.189 Y137.989 E0.01213
G1 X156.297 Y137.989 E0.04928
G1 X155.843 Y137.887 E0.01214
G1 X155.264 Y137.569 E0.01721
G1 X154.625 Y136.877 E0.02452
G1 X154.432 Y136.468 E0.01178
G1 X154.343 Y136.072 E0.01058
G1 X154.338 Y118.652 E0.45391
G1 X154.439 Y118.197 E0.01213
G1 X154.751 Y117.626 E0.01696
G1 X155.229 Y117.148 E0.01760
G1 X155.524 Y117.444 F7200.000
G1 F4102.73
G1 X156.011 Y117.177 E0.01445
G1 X156.319 Y117.111 E0.00823
G1 X158.209 Y117.115 E0.04924
G1 X158.473 Y117.176 E0.00705
G1 X158.827 Y117.343 E0.01022
G1 X159.415 Y117.897 E0.02103
G1 X159.663 Y118.366 E0.01382
G1 X159.730 Y118.674 E0.00821
G1 X159.730 Y136.008 E0.45165
G1 X159.663 Y136.316 E0.00822
G1 X159.416 Y136.783 E0.01377
G1 X158.943 Y137.257 E0.01746
G1 X158.475 Y137.504 E0.01377
G1 X158.167 Y137.571 E0.00822
G1 X156.319 Y137.571 E0.04815
G1 X156.011 Y137.504 E0.00821
G1 X155.542 Y137.255 E0.01382
G1 X154.989 Y136.668 E0.02103
G1 X154.821 Y136.313 E0.01023
G1 X154.756 Y136.008 E0.00812
G1 X154.756 Y118.674 E0.45166
G1 X154.823 Y118.365 E0.00822
G1 X155.070 Y117.898 E0.01377
G1 X155.482 Y117.486 E0.01519
G1 F5760
G1 X156.011 Y117.177 E-0.21212
G1 F5760
G1 X156.319 Y117.111 E-0.10937
G1 F5760
G1 X157.585 Y117.113 E-0.43850
G1 E-0.04000 F2100.00000
G1 X155.209 Y118.527 F7200.000
G1 E0.80000 F2100.00000
G1 F4102.73
G1 X155.390 Y118.169 E0.01046
G1 X155.814 Y117.745 E0.01563
G1 X156.172 Y117.563 E0.01046
G1 X156.340 Y117.528 E0.00445
G1 X158.184 Y117.532 E0.04806
G1 X158.314 Y117.563 E0.00348
G1 X158.617 Y117.706 E0.00872
G1 X159.097 Y118.170 E0.01741
G1 X159.277 Y118.527 E0.01041
G1 X159.312 Y118.694 E0.00446
G1 X159.312 Y135.987 E0.45057
G1 X159.277 Y136.154 E0.00446
G1 X159.096 Y136.513 E0.01046
G1 X158.672 Y136.937 E0.01563
G1 X158.314 Y137.118 E0.01046
G1 X158.146 Y137.153 E0.00446
G1 X156.340 Y137.153 E0.04707
G1 X156.172 Y137.118 E0.00446
G1 X155.816 Y136.938 E0.01041
G1 X155.351 Y136.457 E0.01741
G1 X155.209 Y136.157 E0.00865
G1 X155.174 Y135.987 E0.00453
G1 X155.174 Y118.694 E0.45057
G1 X155.196 Y118.586 E0.00289
G1 X155.599 Y118.679 F7200.000
G1 F4102.73
G1 X155.713 Y118.437 E0.00697
G1 X156.082 Y118.067 E0.01360
G1 X156.324 Y117.953 E0.00697
G1 X158.127 Y117.946 E0.04697
G1 X158.404 Y118.067 E0.00789
G1 X158.773 Y118.437 E0.01360
G1 X158.894 Y118.714 E0.00789
G1 X158.894 Y135.967 E0.44955
G1 X158.773 Y136.245 E0.00789
G1 X158.404 Y136.614 E0.01360
G1 X158.127 Y136.735 E0.00789
G1 X156.324 Y136.728 E0.04697
G1 X156.082 Y136.614 E0.00697
G1 X155.713 Y136.245 E0.01360
G1 X155.591 Y135.967 E0.00789
G1 X155.591 Y118.738 E0.44893
G1 X156.041 Y118.699 F7200.000
G1 F4102.73
G1 X156.345 Y118.396 E0.01118
G1 X156.421 Y118.364 E0.00217
G1 X158.065 Y118.364 E0.04281
G1 X158.141 Y118.396 E0.00217
G1 X158.445 Y118.699 E0.01118
G1 X158.477 Y118.776 E0.00217
G1 X158.477 Y135.905 E0.44632
G1 X158.445 Y135.982 E0.00217
G1 X158.141 Y136.286 E0.01118
G1 X158.065 Y136.317 E0.00217
G1 X156.421 Y136.317 E0.04281
G1 X156.345 Y136.286 E0.00217
G1 X156.041 Y135.982 E0.01118
G1 X156.009 Y135.905 E0.00217
G1 X156.018 Y118.755 E0.44687
G1 X156.427 Y118.904 F7200.000
G1 F4102.73
G1 X156.549 Y118.782 E0.00451
G1 X157.936 Y118.782 E0.03614
G1 X158.059 Y118.904 E0.00451
G1 X158.059 Y135.777 E0.43964
G1 X157.936 Y135.900 E0.00451
G1 X156.549 Y135.900 E0.03614
G1 X156.427 Y135.777 E0.00451
G1 X156.427 Y118.964 E0.43808
G1 F5760
G1 X156.549 Y118.782 E-0.07607
G1 F5760
G1 X157.936 Y118.782 E-0.48040
G1 F5760
G1 X158.059 Y118.904 E-0.05994
G1 F5760
G1 X158.059 Y119.319 E-0.14359
G1 E-0.04000 F2100.00000
G1 X129.862 Y82.397 F7200.000
G1 E0.80000 F2100.00000
G1 F4102.73
G1 X129.202 Y82.857 E0.02096
G1 X128.514 Y83.247 E0.02060
G1 X127.784 Y83.570 E0.02079
G1 X127.022 Y83.821 E0.02091
G1 X126.226 Y84.002 E0.02127
G1 X125.433 Y84.100 E0.02083
G1 X124.648 Y84.119 E0.02047
G1 X123.908 Y84.072 E0.01932
G1 X123.182 Y83.958 E0.01915
G1 X122.490 Y83.784 E0.01857
G1 X121.705 Y83.510 E0.02168
G1 X121.010 Y83.186 E0.01996
G1 X120.340 Y82.793 E0.02026
G1 X119.843 Y82.445 E0.01579
G1 X119.378 Y82.065 E0.01567
G1 X118.860 Y81.565 E0.01875
G1 X118.339 Y80.960 E0.02079
G1 X117.882 Y80.315 E0.02060
G1 X117.484 Y79.614 E0.02100
G1 X117.159 Y78.889 E0.02070
G1 X116.904 Y78.131 E0.02085
G1 X116.721 Y77.334 E0.02130
G1 X116.616 Y76.538 E0.02092
G1 X116.591 Y75.749 E0.02058
G1 X116.641 Y74.996 E0.01967
G1 X116.770 Y74.209 E0.02077
G1 X116.944 Y73.520 E0.01851
G1 X117.140 Y72.952 E0.01566
G1 X117.378 Y72.399 E0.01569
G1 X117.738 Y71.713 E0.02017
G1 X118.159 Y71.069 E0.02006
G1 X118.675 Y70.430 E0.02142
G1 X119.180 Y69.907 E0.01893
G1 X119.780 Y69.395 E0.02056
G1 X120.441 Y68.935 E0.02097
G1 X121.131 Y68.544 E0.02067
G1 X121.862 Y68.220 E0.02082
G1 X122.622 Y67.971 E0.02085
G1 X123.417 Y67.790 E0.02124
G1 X124.192 Y67.694 E0.02034
G1 X124.993 Y67.673 E0.02089
G1 X125.602 Y67.707 E0.01590
G1 X126.198 Y67.785 E0.01567
G1 X126.898 Y67.937 E0.01864
G1 X127.656 Y68.174 E0.02070
G1 X128.350 Y68.464 E0.01960
G1 X129.014 Y68.819 E0.01962
G1 X129.669 Y69.250 E0.02044
G1 X130.250 Y69.715 E0.01939
G1 X130.781 Y70.226 E0.01920
G1 X131.303 Y70.832 E0.02084
G1 X131.761 Y71.478 E0.02064
G1 X132.160 Y72.181 E0.02105
G1 X132.491 Y72.922 E0.02115
G1 X132.742 Y73.674 E0.02067
G1 X132.917 Y74.441 E0.02050
G1 X133.021 Y75.246 E0.02113
G1 X133.047 Y76.038 E0.02065
G1 X132.999 Y76.779 E0.01934
G1 X132.875 Y77.570 E0.02087
G1 X132.698 Y78.272 E0.01885
G1 X132.502 Y78.840 E0.01567
G1 X132.264 Y79.393 E0.01569
G1 X131.905 Y80.079 E0.02017
G1 X131.483 Y80.723 E0.02006
G1 X130.967 Y81.363 E0.02142
G1 X130.462 Y81.885 E0.01893
G1 X129.908 Y82.358 E0.01899
G1 X129.637 Y82.040 F7200.000
G1 F4102.73
G1 X128.972 Y82.509 E0.02118
G1 X128.318 Y82.878 E0.01958
G1 X127.644 Y83.177 E0.01921
G1 X126.919 Y83.416 E0.01988
G1 X126.164 Y83.589 E0.02018
G1 X125.412 Y83.682 E0.01975
G1 X124.664 Y83.702 E0.01949
G1 X123.962 Y83.658 E0.01832
G1 X123.274 Y83.550 E0.01816
G1 X122.618 Y83.386 E0.01760
G1 X121.871 Y83.126 E0.02062
G1 X121.213 Y82.821 E0.01890
G1 X120.572 Y82.445 E0.01936
G1 X120.101 Y82.117 E0.01495
G1 X119.649 Y81.747 E0.01522
G1 X119.158 Y81.271 E0.01781
G1 X118.662 Y80.695 E0.01980
G1 X118.229 Y80.083 E0.01955
G1 X117.852 Y79.417 E0.01993
G1 X117.545 Y78.728 E0.01966
G1 X117.303 Y78.008 E0.01980
G1 X117.134 Y77.269 E0.01975
G1 X117.033 Y76.514 E0.01985
G1 X117.009 Y75.766 E0.01951
G1 X117.055 Y75.053 E0.01861
G1 X117.178 Y74.302 E0.01981
G1 X117.343 Y73.648 E0.01759
G1 X117.532 Y73.095 E0.01522
G1 X117.758 Y72.572 E0.01486
G1 X118.103 Y71.917 E0.01928
G1 X118.503 Y71.308 E0.01899
G1 X118.994 Y70.700 E0.02036
G1 X119.473 Y70.206 E0.01794
G1 X120.043 Y69.720 E0.01952
G1 X120.671 Y69.283 E0.01992
G1 X121.327 Y68.912 E0.01964
G1 X122.002 Y68.614 E0.01924
G1 X122.725 Y68.376 E0.01982
G1 X123.479 Y68.203 E0.02017
G1 X124.213 Y68.111 E0.01928
G1 X124.979 Y68.090 E0.01995
G1 X125.556 Y68.122 E0.01505
G1 X126.135 Y68.198 E0.01523
G1 X126.799 Y68.343 E0.01771
G1 X127.521 Y68.570 E0.01972
G1 X128.178 Y68.846 E0.01857
G1 X128.808 Y69.183 E0.01860
G1 X129.431 Y69.594 E0.01944
G1 X129.981 Y70.035 E0.01838
G1 X130.483 Y70.520 E0.01819
G1 X130.980 Y71.097 E0.01984
G1 X131.414 Y71.711 E0.01958
G1 X131.791 Y72.378 E0.01997
G1 X132.098 Y73.065 E0.01960
G1 X132.337 Y73.778 E0.01961
G1 X132.504 Y74.506 E0.01945
G1 X132.604 Y75.270 E0.02009
G1 X132.629 Y76.022 E0.01961
G1 X132.585 Y76.724 E0.01833
G1 X132.468 Y77.478 E0.01987
G1 X132.300 Y78.144 E0.01791
G1 X132.110 Y78.697 E0.01522
G1 X131.884 Y79.220 E0.01486
G1 X131.540 Y79.875 E0.01928
G1 X131.139 Y80.485 E0.01899
G1 X130.648 Y81.092 E0.02036
G1 X130.169 Y81.587 E0.01794
G1 X129.682 Y82.001 E0.01666
G1 X129.412 Y81.683 F7200.000
G1 F4102.73
G1 X128.742 Y82.160 E0.02141
G1 X128.122 Y82.509 E0.01855
G1 X127.485 Y82.790 E0.01814
G1 X126.798 Y83.016 E0.01882
G1 X126.082 Y83.179 E0.01915
G1 X125.390 Y83.265 E0.01816
G1 X124.680 Y83.284 E0.01850
G1 X124.017 Y83.243 E0.01732
G1 X123.365 Y83.142 E0.01717
G1 X122.746 Y82.988 E0.01664
G1 X122.036 Y82.743 E0.01956
G1 X121.415 Y82.455 E0.01784
G1 X120.804 Y82.098 E0.01844
G1 X120.347 Y81.779 E0.01452
G1 X119.921 Y81.429 E0.01436
G1 X119.456 Y80.978 E0.01688
G1 X118.986 Y80.431 E0.01881
G1 X118.587 Y79.867 E0.01798
G1 X118.229 Y79.237 E0.01888
G1 X117.937 Y78.585 E0.01861
G1 X117.708 Y77.904 E0.01873
G1 X117.547 Y77.203 E0.01874
G1 X117.450 Y76.489 E0.01878
G1 X117.426 Y75.782 E0.01843
G1 X117.469 Y75.109 E0.01756
G1 X117.585 Y74.395 E0.01885
G1 X117.741 Y73.775 E0.01667
G1 X117.919 Y73.253 E0.01436
G1 X118.139 Y72.745 E0.01443
G1 X118.467 Y72.121 E0.01838
G1 X118.846 Y71.546 E0.01793
G1 X119.313 Y70.970 E0.01931
G1 X119.766 Y70.504 E0.01695
G1 X120.306 Y70.045 E0.01847
G1 X120.901 Y69.632 E0.01886
G1 X121.523 Y69.282 E0.01861
G1 X122.161 Y69.000 E0.01817
G1 X122.846 Y68.776 E0.01877
G1 X123.561 Y68.613 E0.01913
G1 X124.255 Y68.527 E0.01820
G1 X124.965 Y68.508 E0.01851
G1 X125.525 Y68.539 E0.01461
G1 X126.071 Y68.611 E0.01436
G1 X126.700 Y68.749 E0.01678
G1 X127.386 Y68.965 E0.01874
G1 X128.007 Y69.227 E0.01754
G1 X128.601 Y69.546 E0.01758
G1 X129.192 Y69.937 E0.01845
G1 X129.712 Y70.354 E0.01737
G1 X130.186 Y70.813 E0.01719
G1 X130.657 Y71.361 E0.01884
G1 X131.056 Y71.926 E0.01801
G1 X131.414 Y72.558 E0.01893
G1 X131.705 Y73.208 E0.01856
G1 X131.933 Y73.882 E0.01854
G1 X132.091 Y74.570 E0.01841
G1 X132.187 Y75.295 E0.01904
G1 X132.212 Y76.007 E0.01855
G1 X132.170 Y76.670 E0.01732
G1 X132.060 Y77.386 E0.01887
G1 X131.902 Y78.017 E0.01697
G1 X131.723 Y78.539 E0.01436
G1 X131.504 Y79.047 E0.01443
G1 X131.175 Y79.671 E0.01838
G1 X130.796 Y80.246 E0.01793
G1 X130.330 Y80.822 E0.01931
G1 X129.876 Y81.288 E0.01694
G1 X129.457 Y81.644 E0.01433
