; generated by Slic3r 1.37.2-prusa3d-win64 on 2017-12-12 at 23:35:28

; 

; external perimeters extrusion width = 0.40mm
; perimeters extrusion width = 0.40mm
; infill extrusion width = 0.50mm
; solid infill extrusion width = 0.60mm
; top infill extrusion width = 0.60mm
; first layer extrusion width = 0.60mm

M107
M115 U3.1.0 ; tell printer latest fw version
M83  ; extruder relative mode
M104 S150
M140 S65 ; set bed temp
G28 W ; home all without mesh bed level
G1 X125 Z80 F1000
M190 S65 ; wait for bed temp
M104 S220 ; set extruder temp
G80 ; mesh bed leveling
M109 S220 ; wait for extruder temp
G1 Y-3.0 F1000.0 ; go outside print area
G92 E0.0
G1 X60.0 E9.0  F1000.0 ; intro line
G1 X100.0 E12.5  F1000.0 ; intro line
G92 E0.0
M900 K30 ; Filament gcode
G21 ; set units to millimeters
G90 ; use absolute coordinates
M83 ; use relative distances for extrusion
;BEFORE_LAYER_CHANGE
;0.2


G1 E-0.80000 F2100.00000
G1 Z0.200 F7200.000
;AFTER_LAYER_CHANGE
;0.2
G1 X61.283 Y72.961 F7200.000
G1 E0.80000 F2100.00000
M204 S1000
G1 F6000
G1 X61.853 Y72.567 E0.03211
G1 X62.411 Y72.361 E0.02757
G1 X63.002 Y72.290 E0.02757
G1 X186.995 Y72.290 E5.74352
G1 X187.951 Y72.477 E0.04511
G1 X188.767 Y73.008 E0.04511
G1 X189.326 Y73.805 E0.04511
G1 X189.547 Y74.758 E0.04529
G1 X189.545 Y102.779 E1.29797
G1 X189.427 Y103.438 E0.03102
G1 X189.140 Y104.047 E0.03120
G1 X188.703 Y104.560 E0.03120
G1 X188.147 Y104.941 E0.03120
G1 X76.031 Y137.635 E5.40970
G1 X75.432 Y137.710 E0.02793
G1 X62.788 Y137.700 E0.58571
G1 X62.156 Y137.563 E0.02993
G1 X61.579 Y137.273 E0.02993
G1 X61.091 Y136.844 E0.03011
G1 X60.728 Y136.309 E0.02993
G1 X60.524 Y135.754 E0.02739
G1 X60.452 Y135.163 E0.02757
G1 X60.452 Y74.804 E2.79592
G1 X60.557 Y74.123 E0.03193
G1 X60.841 Y73.491 E0.03211
G1 X61.244 Y73.007 E0.02915
G1 F5760
G1 X61.853 Y72.567 E-0.26016
G1 F5760
G1 X62.411 Y72.361 E-0.20615
G1 F5760
G1 X63.002 Y72.290 E-0.20615
G1 F5760
G1 X63.255 Y72.290 E-0.08755
G1 E-0.04000 F2100.00000
G1 X63.309 Y75.147 F7200.000
G1 E0.80000 F2100.00000
G1 F6000
G1 X186.691 Y75.147 E5.71523
G1 X186.691 Y102.360 E1.26053
G1 X179.334 Y102.360 E0.34078
G1 X179.334 Y104.238 E0.08699
G1 X171.671 Y104.238 E0.35496
G1 X171.671 Y106.238 E0.09262
G1 X163.689 Y106.238 E0.36973
G1 X163.689 Y108.366 E0.09860
G1 X155.375 Y108.366 E0.38512
G1 X155.375 Y110.632 E0.10496
G1 X146.715 Y110.632 E0.40114
G1 X146.715 Y113.044 E0.11171
G1 X137.695 Y113.044 E0.41784
G1 X137.695 Y115.611 E0.11889
G1 X128.299 Y115.611 E0.43523
G1 X128.299 Y118.342 E0.12652
G1 X118.512 Y118.342 E0.45334
G1 X118.512 Y121.248 E0.13463
G1 X108.318 Y121.248 E0.47221
G1 X108.318 Y124.341 E0.14324
G1 X97.700 Y124.341 E0.49186
G1 X97.700 Y127.630 E0.15239
G1 X86.639 Y127.630 E0.51233
G1 X86.639 Y131.130 E0.16211
G1 X75.119 Y131.130 E0.53365
G1 X75.119 Y134.852 E0.17243
G1 X63.309 Y134.852 E0.54706
G1 X63.309 Y75.207 E2.76284
G1 F5760
G1 X65.503 Y75.206 E-0.76000
G1 E-0.04000 F2100.00000
G1 X63.476 Y133.556 F7200.000
G1 E0.80000 F2100.00000
G1 F6000
G1 X64.355 Y134.435 E0.05775
G1 X65.145 Y134.435 E0.03671
G1 X63.727 Y133.016 E0.09320
G1 X63.727 Y132.226 E0.03671
G1 X65.935 Y134.435 E0.14511
G1 X66.725 Y134.435 E0.03671
G1 X63.727 Y131.436 E0.19703
G1 X63.727 Y130.646 E0.03671
G1 X67.516 Y134.435 E0.24895
G1 X68.306 Y134.435 E0.03671
G1 X63.727 Y129.856 E0.30086
G1 X63.727 Y129.065 E0.03671
G1 X69.096 Y134.435 E0.35278
G1 X69.886 Y134.435 E0.03671
G1 X63.727 Y128.275 E0.40470
G1 X63.727 Y127.485 E0.03671
G1 X70.676 Y134.435 E0.45662
G1 X71.467 Y134.435 E0.03671
G1 X63.727 Y126.695 E0.50853
G1 X63.727 Y125.905 E0.03671
G1 X72.257 Y134.435 E0.56045
G1 X73.047 Y134.435 E0.03671
G1 X63.727 Y125.115 E0.61237
G1 X63.727 Y124.324 E0.03671
G1 X73.837 Y134.435 E0.66428
G1 X74.627 Y134.435 E0.03671
G1 X63.727 Y123.534 E0.71620
G1 X63.727 Y122.744 E0.03671
G1 X74.701 Y133.718 E0.72105
G1 X74.701 Y132.928 E0.03671
G1 X63.727 Y121.954 E0.72105
G1 X63.727 Y121.164 E0.03671
G1 X74.701 Y132.138 E0.72105
G1 X74.701 Y131.348 E0.03671
G1 X63.727 Y120.373 E0.72105
G1 X63.727 Y119.583 E0.03671
G1 X74.856 Y130.712 E0.73121
G1 X75.646 Y130.712 E0.03671
G1 X63.727 Y118.793 E0.78312
G1 X63.727 Y118.003 E0.03671
G1 X76.436 Y130.712 E0.83504
G1 X77.226 Y130.712 E0.03671
G1 X63.727 Y117.213 E0.88696
G1 X63.727 Y116.423 E0.03671
G1 X78.016 Y130.712 E0.93887
G1 X78.806 Y130.712 E0.03671
G1 X63.727 Y115.632 E0.99079
G1 X63.727 Y114.842 E0.03671
G1 X79.597 Y130.712 E1.04271
G1 X80.387 Y130.712 E0.03671
G1 X63.727 Y114.052 E1.09462
G1 X63.727 Y113.262 E0.03671
G1 X81.177 Y130.712 E1.14654
G1 X81.967 Y130.712 E0.03671
G1 X63.727 Y112.472 E1.19846
G1 X63.727 Y111.682 E0.03671
G1 X82.757 Y130.712 E1.25038
G1 X83.548 Y130.712 E0.03671
G1 X63.727 Y110.891 E1.30229
G1 X63.727 Y110.101 E0.03671
G1 X84.338 Y130.712 E1.35421
G1 X85.128 Y130.712 E0.03671
G1 X63.727 Y109.311 E1.40613
G1 X63.727 Y108.521 E0.03671
G1 X85.918 Y130.712 E1.45804
G1 X86.222 Y130.712 E0.01411
G1 X86.222 Y130.226 E0.02260
G1 X63.727 Y107.731 E1.47799
G1 X63.727 Y106.941 E0.03671
G1 X86.222 Y129.436 E1.47799
G1 X86.222 Y128.645 E0.03671
G1 X63.727 Y106.150 E1.47799
G1 X63.727 Y105.360 E0.03671
G1 X86.222 Y127.855 E1.47799
G1 X86.222 Y127.213 E0.02985
G1 X86.369 Y127.213 E0.00686
G1 X63.727 Y104.570 E1.48769
G1 X63.727 Y103.780 E0.03671
G1 X87.159 Y127.213 E1.53961
G1 X87.950 Y127.213 E0.03671
G1 X63.727 Y102.990 E1.59153
G1 X63.727 Y102.199 E0.03671
G1 X88.740 Y127.213 E1.64344
G1 X89.530 Y127.213 E0.03671
G1 X63.727 Y101.409 E1.69536
G1 X63.727 Y100.619 E0.03671
G1 X90.320 Y127.213 E1.74728
G1 X91.110 Y127.213 E0.03671
G1 X63.727 Y99.829 E1.79919
G1 X63.727 Y99.039 E0.03671
G1 X91.901 Y127.213 E1.85111
G1 X92.691 Y127.213 E0.03671
G1 X63.727 Y98.249 E1.90303
G1 X63.727 Y97.458 E0.03671
G1 X93.481 Y127.213 E1.95494
G1 X94.271 Y127.213 E0.03671
G1 X63.727 Y96.668 E2.00686
G1 X63.727 Y95.878 E0.03671
G1 X95.061 Y127.213 E2.05878
G1 X95.851 Y127.213 E0.03671
G1 X63.727 Y95.088 E2.11070
G1 X63.727 Y94.298 E0.03671
G1 X96.642 Y127.213 E2.16261
G1 X97.282 Y127.213 E0.02975
G1 X97.282 Y127.063 E0.00696
G1 X63.727 Y93.508 E2.20469
G1 X63.727 Y92.717 E0.03671
G1 X97.282 Y126.273 E2.20469
G1 X97.282 Y125.482 E0.03671
G1 X63.727 Y91.927 E2.20469
G1 X63.727 Y91.137 E0.03671
G1 X97.282 Y124.692 E2.20469
G1 X97.282 Y123.923 E0.03575
G1 X97.303 Y123.923 E0.00096
G1 X63.727 Y90.347 E2.20605
G1 X63.727 Y89.557 E0.03671
G1 X98.093 Y123.923 E2.25797
G1 X98.883 Y123.923 E0.03671
G1 X63.727 Y88.767 E2.30988
G1 X63.727 Y87.976 E0.03671
G1 X99.673 Y123.923 E2.36180
G1 X100.463 Y123.923 E0.03671
G1 X63.727 Y87.186 E2.41372
G1 X63.727 Y86.396 E0.03671
G1 X101.254 Y123.923 E2.46563
G1 X102.044 Y123.923 E0.03671
G1 X63.727 Y85.606 E2.51755
G1 X63.727 Y84.816 E0.03671
G1 X102.834 Y123.923 E2.56947
G1 X103.624 Y123.923 E0.03671
G1 X63.727 Y84.026 E2.62138
G1 X63.727 Y83.235 E0.03671
G1 X104.414 Y123.923 E2.67330
G1 X105.204 Y123.923 E0.03671
G1 X63.727 Y82.445 E2.72522
G1 X63.727 Y81.655 E0.03671
G1 X105.995 Y123.923 E2.77713
G1 X106.785 Y123.923 E0.03671
G1 X63.727 Y80.865 E2.82905
G1 X63.727 Y80.075 E0.03671
G1 X107.575 Y123.923 E2.88097
G1 X107.900 Y123.923 E0.01512
G1 X107.900 Y123.458 E0.02159
G1 X63.727 Y79.284 E2.90235
G1 X63.727 Y78.494 E0.03671
G1 X107.900 Y122.668 E2.90235
G1 X107.900 Y121.878 E0.03671
G1 X63.727 Y77.704 E2.90235
G1 X63.727 Y76.914 E0.03671
G1 X107.900 Y121.088 E2.90235
G1 X107.900 Y120.831 E0.01194
G1 X108.433 Y120.831 E0.02477
G1 X63.727 Y76.124 E2.93738
G1 X63.727 Y75.565 E0.02595
G1 X63.958 Y75.565 E0.01076
G1 X109.224 Y120.831 E2.97407
G1 X110.014 Y120.831 E0.03671
G1 X64.749 Y75.565 E2.97407
G1 X65.539 Y75.565 E0.03671
G1 X110.804 Y120.831 E2.97407
G1 X111.594 Y120.831 E0.03671
G1 X66.329 Y75.565 E2.97407
G1 X67.119 Y75.565 E0.03671
G1 X112.384 Y120.831 E2.97407
G1 X113.175 Y120.831 E0.03671
G1 X67.909 Y75.565 E2.97407
G1 X68.699 Y75.565 E0.03671
G1 X113.965 Y120.831 E2.97407
G1 X114.755 Y120.831 E0.03671
G1 X69.490 Y75.565 E2.97407
G1 X70.280 Y75.565 E0.03671
G1 X115.545 Y120.831 E2.97407
G1 X116.335 Y120.831 E0.03671
G1 X71.070 Y75.565 E2.97407
G1 X71.860 Y75.565 E0.03671
G1 X117.125 Y120.831 E2.97407
G1 X117.916 Y120.831 E0.03671
G1 X72.650 Y75.565 E2.97407
G1 X73.440 Y75.565 E0.03671
G1 X118.094 Y120.219 E2.93391
G1 X118.094 Y119.429 E0.03671
G1 X74.231 Y75.565 E2.88199
G1 X75.021 Y75.565 E0.03671
G1 X118.094 Y118.639 E2.83008
G1 X118.094 Y117.924 E0.03321
G1 X118.170 Y117.924 E0.00350
G1 X75.811 Y75.565 E2.78312
G1 X76.601 Y75.565 E0.03671
G1 X118.960 Y117.924 E2.78312
G1 X119.750 Y117.924 E0.03671
G1 X77.391 Y75.565 E2.78312
G1 X78.181 Y75.565 E0.03671
G1 X120.540 Y117.924 E2.78312
G1 X121.331 Y117.924 E0.03671
G1 X78.972 Y75.565 E2.78312
G1 X79.762 Y75.565 E0.03671
G1 X122.121 Y117.924 E2.78312
G1 X122.911 Y117.924 E0.03671
G1 X80.552 Y75.565 E2.78312
G1 X81.342 Y75.565 E0.03671
G1 X123.701 Y117.924 E2.78312
G1 X124.491 Y117.924 E0.03671
G1 X82.132 Y75.565 E2.78312
G1 X82.923 Y75.565 E0.03671
G1 X125.281 Y117.924 E2.78312
G1 X126.072 Y117.924 E0.03671
G1 X83.713 Y75.565 E2.78312
G1 X84.503 Y75.565 E0.03671
G1 X126.862 Y117.924 E2.78312
G1 X127.652 Y117.924 E0.03671
G1 X85.293 Y75.565 E2.78312
G1 X86.083 Y75.565 E0.03671
G1 X127.881 Y117.363 E2.74627
G1 X127.881 Y116.573 E0.03671
G1 X86.873 Y75.565 E2.69435
G1 X87.664 Y75.565 E0.03671
G1 X127.881 Y115.783 E2.64243
G1 X127.881 Y115.193 E0.02742
G1 X128.081 Y115.193 E0.00929
G1 X88.454 Y75.565 E2.60366
G1 X89.244 Y75.565 E0.03671
G1 X128.871 Y115.193 E2.60366
G1 X129.662 Y115.193 E0.03671
G1 X90.034 Y75.565 E2.60366
G1 X90.824 Y75.565 E0.03671
G1 X130.452 Y115.193 E2.60366
G1 X131.242 Y115.193 E0.03671
G1 X91.614 Y75.565 E2.60366
G1 X92.405 Y75.565 E0.03671
G1 X132.032 Y115.193 E2.60366
G1 X132.822 Y115.193 E0.03671
G1 X93.195 Y75.565 E2.60366
G1 X93.985 Y75.565 E0.03671
G1 X133.613 Y115.193 E2.60366
G1 X134.403 Y115.193 E0.03671
G1 X94.775 Y75.565 E2.60366
G1 X95.565 Y75.565 E0.03671
G1 X135.193 Y115.193 E2.60366
G1 X135.983 Y115.193 E0.03671
G1 X96.355 Y75.565 E2.60366
G1 X97.146 Y75.565 E0.03671
G1 X136.773 Y115.193 E2.60366
G1 X137.277 Y115.193 E0.02341
G1 X137.277 Y114.907 E0.01330
G1 X97.936 Y75.565 E2.58485
G1 X98.726 Y75.565 E0.03671
G1 X137.277 Y114.116 E2.53293
G1 X137.277 Y113.326 E0.03671
G1 X99.516 Y75.565 E2.48102
G1 X100.306 Y75.565 E0.03671
G1 X137.367 Y112.626 E2.43502
G1 X138.157 Y112.626 E0.03671
G1 X101.097 Y75.565 E2.43502
G1 X101.887 Y75.565 E0.03671
G1 X138.948 Y112.626 E2.43502
G1 X139.738 Y112.626 E0.03671
G1 X102.677 Y75.565 E2.43502
G1 X103.467 Y75.565 E0.03671
G1 X140.528 Y112.626 E2.43502
G1 X141.318 Y112.626 E0.03671
G1 X104.257 Y75.565 E2.43502
G1 X105.047 Y75.565 E0.03671
G1 X142.108 Y112.626 E2.43502
G1 X142.898 Y112.626 E0.03671
G1 X105.838 Y75.565 E2.43502
G1 X106.628 Y75.565 E0.03671
G1 X143.689 Y112.626 E2.43502
G1 X144.479 Y112.626 E0.03671
G1 X107.418 Y75.565 E2.43502
G1 X108.208 Y75.565 E0.03671
G1 X145.269 Y112.626 E2.43502
G1 X146.059 Y112.626 E0.03671
G1 X108.998 Y75.565 E2.43502
G1 X109.788 Y75.565 E0.03671
G1 X146.298 Y112.074 E2.39877
G1 X146.298 Y111.284 E0.03671
G1 X110.579 Y75.565 E2.34685
G1 X111.369 Y75.565 E0.03671
G1 X146.298 Y110.494 E2.29493
G1 X146.298 Y110.214 E0.01299
G1 X146.808 Y110.214 E0.02372
G1 X112.159 Y75.565 E2.27656
G1 X112.949 Y75.565 E0.03671
G1 X147.598 Y110.214 E2.27656
G1 X148.388 Y110.214 E0.03671
G1 X113.739 Y75.565 E2.27656
G1 X114.529 Y75.565 E0.03671
G1 X149.179 Y110.214 E2.27656
G1 X149.969 Y110.214 E0.03671
G1 X115.320 Y75.565 E2.27656
G1 X116.110 Y75.565 E0.03671
G1 X150.759 Y110.214 E2.27656
G1 X151.549 Y110.214 E0.03671
G1 X116.900 Y75.565 E2.27656
G1 X117.690 Y75.565 E0.03671
G1 X152.339 Y110.214 E2.27656
G1 X153.129 Y110.214 E0.03671
G1 X118.480 Y75.565 E2.27656
G1 X119.271 Y75.565 E0.03671
G1 X153.920 Y110.214 E2.27656
G1 X154.710 Y110.214 E0.03671
G1 X120.061 Y75.565 E2.27656
G1 X120.851 Y75.565 E0.03671
G1 X154.958 Y109.672 E2.24092
G1 X154.958 Y108.882 E0.03671
G1 X121.641 Y75.565 E2.18901
G1 X122.431 Y75.565 E0.03671
G1 X154.958 Y108.092 E2.13709
G1 X154.958 Y107.949 E0.00665
G1 X155.605 Y107.949 E0.03006
G1 X123.221 Y75.565 E2.12768
G1 X124.012 Y75.565 E0.03671
G1 X156.395 Y107.949 E2.12768
G1 X157.185 Y107.949 E0.03671
G1 X124.802 Y75.565 E2.12768
G1 X125.592 Y75.565 E0.03671
G1 X157.975 Y107.949 E2.12768
G1 X158.765 Y107.949 E0.03671
G1 X126.382 Y75.565 E2.12768
G1 X127.172 Y75.565 E0.03671
G1 X159.555 Y107.949 E2.12768
G1 X160.346 Y107.949 E0.03671
G1 X127.962 Y75.565 E2.12768
G1 X128.753 Y75.565 E0.03671
G1 X161.136 Y107.949 E2.12768
G1 X161.926 Y107.949 E0.03671
G1 X129.543 Y75.565 E2.12768
G1 X130.333 Y75.565 E0.03671
G1 X162.716 Y107.949 E2.12768
G1 X163.272 Y107.949 E0.02581
G1 X163.272 Y107.714 E0.01090
G1 X131.123 Y75.565 E2.11226
G1 X131.913 Y75.565 E0.03671
G1 X163.272 Y106.924 E2.06035
G1 X163.272 Y106.134 E0.03671
G1 X132.703 Y75.565 E2.00843
G1 X133.494 Y75.565 E0.03671
G1 X163.748 Y105.820 E1.98783
G1 X164.538 Y105.820 E0.03671
G1 X134.284 Y75.565 E1.98783
G1 X135.074 Y75.565 E0.03671
G1 X165.329 Y105.820 E1.98783
G1 X166.119 Y105.820 E0.03671
G1 X135.864 Y75.565 E1.98783
G1 X136.654 Y75.565 E0.03671
G1 X166.909 Y105.820 E1.98783
G1 X167.699 Y105.820 E0.03671
G1 X137.444 Y75.565 E1.98783
G1 X138.235 Y75.565 E0.03671
G1 X168.489 Y105.820 E1.98783
G1 X169.279 Y105.820 E0.03671
G1 X139.025 Y75.565 E1.98783
G1 X139.815 Y75.565 E0.03671
G1 X170.070 Y105.820 E1.98783
G1 X170.860 Y105.820 E0.03671
G1 X140.605 Y75.565 E1.98783
G1 X141.395 Y75.565 E0.03671
G1 X171.254 Y105.423 E1.96178
G1 X171.254 Y104.633 E0.03671
G1 X142.186 Y75.565 E1.90986
G1 X142.976 Y75.565 E0.03671
G1 X171.254 Y103.843 E1.85794
G1 X171.254 Y103.820 E0.00105
G1 X172.021 Y103.820 E0.03566
G1 X143.766 Y75.565 E1.85645
G1 X144.556 Y75.565 E0.03671
G1 X172.811 Y103.820 E1.85645
G1 X173.601 Y103.820 E0.03671
G1 X145.346 Y75.565 E1.85645
G1 X146.136 Y75.565 E0.03671
G1 X174.392 Y103.820 E1.85645
G1 X175.182 Y103.820 E0.03671
G1 X146.927 Y75.565 E1.85645
G1 X147.717 Y75.565 E0.03671
G1 X175.972 Y103.820 E1.85645
G1 X176.762 Y103.820 E0.03671
G1 X148.507 Y75.565 E1.85645
G1 X149.297 Y75.565 E0.03671
G1 X177.552 Y103.820 E1.85645
G1 X178.342 Y103.820 E0.03671
G1 X150.087 Y75.565 E1.85645
G1 X150.877 Y75.565 E0.03671
G1 X178.917 Y103.604 E1.84226
G1 X178.917 Y102.814 E0.03671
G1 X151.668 Y75.565 E1.79034
G1 X152.458 Y75.565 E0.03671
G1 X178.917 Y102.024 E1.73842
G1 X178.917 Y101.942 E0.00379
G1 X179.625 Y101.942 E0.03292
G1 X153.248 Y75.565 E1.73306
G1 X154.038 Y75.565 E0.03671
G1 X180.415 Y101.942 E1.73306
G1 X181.205 Y101.942 E0.03671
G1 X154.828 Y75.565 E1.73306
G1 X155.618 Y75.565 E0.03671
G1 X181.996 Y101.942 E1.73306
G1 X182.786 Y101.942 E0.03671
G1 X156.409 Y75.565 E1.73306
G1 X157.199 Y75.565 E0.03671
G1 X183.576 Y101.942 E1.73306
G1 X184.366 Y101.942 E0.03671
G1 X157.989 Y75.565 E1.73306
G1 X158.779 Y75.565 E0.03671
G1 X185.156 Y101.942 E1.73306
G1 X185.947 Y101.942 E0.03671
G1 X159.569 Y75.565 E1.73306
G1 X160.360 Y75.565 E0.03671
G1 X186.273 Y101.479 E1.70262
G1 X186.273 Y100.689 E0.03671
G1 X161.150 Y75.565 E1.65070
G1 X161.940 Y75.565 E0.03671
G1 X186.273 Y99.899 E1.59879
G1 X186.273 Y99.109 E0.03671
G1 X162.730 Y75.565 E1.54687
G1 X163.520 Y75.565 E0.03671
G1 X186.273 Y98.318 E1.49495
G1 X186.273 Y97.528 E0.03671
G1 X164.310 Y75.565 E1.44303
G1 X165.101 Y75.565 E0.03671
G1 X186.273 Y96.738 E1.39112
G1 X186.273 Y95.948 E0.03671
G1 X165.891 Y75.565 E1.33920
G1 X166.681 Y75.565 E0.03671
G1 X186.273 Y95.158 E1.28728
G1 X186.273 Y94.368 E0.03671
G1 X167.471 Y75.565 E1.23537
G1 X168.261 Y75.565 E0.03671
G1 X186.273 Y93.577 E1.18345
G1 X186.273 Y92.787 E0.03671
G1 X169.051 Y75.565 E1.13153
G1 X169.842 Y75.565 E0.03671
G1 X186.273 Y91.997 E1.07962
G1 X186.273 Y91.207 E0.03671
G1 X170.632 Y75.565 E1.02770
G1 X171.422 Y75.565 E0.03671
G1 X186.273 Y90.417 E0.97578
G1 X186.273 Y89.626 E0.03671
G1 X172.212 Y75.565 E0.92387
G1 X173.002 Y75.565 E0.03671
G1 X186.273 Y88.836 E0.87195
G1 X186.273 Y88.046 E0.03671
G1 X173.792 Y75.565 E0.82003
G1 X174.583 Y75.565 E0.03671
G1 X186.273 Y87.256 E0.76812
G1 X186.273 Y86.466 E0.03671
G1 X175.373 Y75.565 E0.71620
