; generated by Slic3r 1.37.2-prusa3d-win64 on 2017-12-13 at 04:15:35

; 

; external perimeters extrusion width = 0.31mm
; perimeters extrusion width = 0.31mm
; infill extrusion width = 0.50mm
; solid infill extrusion width = 0.60mm
; top infill extrusion width = 0.60mm
; first layer extrusion width = 0.60mm

M107
M115 U3.1.0 ; tell printer latest fw version
M83  ; extruder relative mode
M104 S150
M140 S65 ; set bed temp
G28 W ; home all without mesh bed level
G1 X125 Z80 F1000
M190 S65 ; wait for bed temp
M104 S225 ; set extruder temp
G80 ; mesh bed leveling
M109 S225 ; wait for extruder temp
G1 Y-3.0 F1000.0 ; go outside print area
G92 E0.0
G1 X60.0 E9.0  F1000.0 ; intro line
G1 X100.0 E12.5  F1000.0 ; intro line
G92 E0.0
M900 K30 ; Filament gcode
G21 ; set units to millimeters
G90 ; use absolute coordinates
M83 ; use relative distances for extrusion
;BEFORE_LAYER_CHANGE
;0.2


G1 E-0.80000 F2100.00000
G1 Z0.200 F7200.000
;AFTER_LAYER_CHANGE
;0.2
G1 X63.929 Y62.308 F7200.000
G1 E0.80000 F2100.00000
M204 S1000
G1 F6000
G1 X64.684 Y62.190 E0.04421
G1 X185.309 Y62.190 E6.98443
G1 X186.265 Y62.377 E0.05638
G1 X187.084 Y62.911 E0.05661
G1 X187.644 Y63.713 E0.05661
G1 X187.861 Y64.666 E0.05661
G1 X187.862 Y105.344 E2.35534
G1 X187.776 Y105.937 E0.03469
G1 X187.553 Y106.497 E0.03492
G1 X187.207 Y106.986 E0.03469
G1 X186.757 Y107.382 E0.03469
G1 X186.193 Y107.675 E0.03679
G1 X78.076 Y147.690 E6.67516
G1 X77.326 Y147.809 E0.04398
G1 X64.533 Y147.804 E0.74076
G1 X63.966 Y147.704 E0.03333
G1 X63.433 Y147.477 E0.03355
G1 X62.967 Y147.138 E0.03333
G1 X62.589 Y146.704 E0.03333
G1 X62.255 Y146.018 E0.04421
G1 X62.137 Y145.267 E0.04398
G1 X62.138 Y64.728 E4.66337
G1 X62.215 Y64.122 E0.03537
G1 X62.434 Y63.552 E0.03537
G1 X62.782 Y63.050 E0.03537
G1 X63.243 Y62.642 E0.03560
G1 X63.875 Y62.334 E0.04074
G1 F5760
G1 X64.684 Y62.190 E-0.28438
G1 F5760
G1 X66.057 Y62.190 E-0.47562
G1 E-0.04000 F2100.00000
G1 X64.995 Y65.048 F7200.000
G1 E0.80000 F2100.00000
G1 F6000
G1 X185.005 Y65.048 E6.94884
G1 X185.005 Y104.977 E2.31197
G1 X178.113 Y104.977 E0.39907
G1 X178.113 Y107.358 E0.13790
G1 X170.895 Y107.358 E0.41794
G1 X170.895 Y109.881 E0.14605
G1 X163.336 Y109.881 E0.43771
G1 X163.336 Y112.552 E0.15469
G1 X155.419 Y112.552 E0.45841
G1 X155.419 Y115.382 E0.16384
G1 X147.127 Y115.382 E0.48009
G1 X147.127 Y118.379 E0.17353
G1 X138.443 Y118.379 E0.50280
G1 X138.443 Y121.553 E0.18379
G1 X129.349 Y121.553 E0.52658
G1 X129.349 Y124.915 E0.19466
G1 X119.825 Y124.915 E0.55148
G1 X119.825 Y128.476 E0.20617
G1 X109.850 Y128.476 E0.57756
G1 X109.850 Y132.247 E0.21836
G1 X99.403 Y132.247 E0.60488
G1 X99.403 Y136.242 E0.23127
G1 X88.463 Y136.242 E0.63348
G1 X88.463 Y140.472 E0.24495
G1 X77.005 Y140.472 E0.66344
G1 X77.005 Y144.953 E0.25943
G1 X64.995 Y144.953 E0.69540
G1 X64.995 Y65.108 E4.62316
G1 F5760
G1 X67.189 Y65.106 E-0.76000
G1 E-0.04000 F2100.00000
G1 X65.162 Y143.659 F7200.000
G1 E0.80000 F2100.00000
G1 F6000
G1 X66.037 Y144.535 E0.07173
G1 X66.825 Y144.535 E0.04563
G1 X65.412 Y143.122 E0.11574
G1 X65.412 Y142.334 E0.04563
G1 X67.613 Y144.535 E0.18027
G1 X68.401 Y144.535 E0.04563
G1 X65.412 Y141.546 E0.24481
G1 X65.412 Y140.758 E0.04563
G1 X69.189 Y144.535 E0.30935
G1 X69.977 Y144.535 E0.04563
G1 X65.412 Y139.970 E0.37388
G1 X65.412 Y139.182 E0.04563
G1 X70.765 Y144.535 E0.43842
G1 X71.553 Y144.535 E0.04563
G1 X65.412 Y138.394 E0.50296
G1 X65.412 Y137.606 E0.04563
G1 X72.341 Y144.535 E0.56749
G1 X73.129 Y144.535 E0.04563
G1 X65.412 Y136.818 E0.63203
G1 X65.412 Y136.030 E0.04563
G1 X73.917 Y144.535 E0.69656
G1 X74.705 Y144.535 E0.04563
G1 X65.412 Y135.242 E0.76110
G1 X65.412 Y134.454 E0.04563
G1 X75.493 Y144.535 E0.82564
G1 X76.281 Y144.535 E0.04563
G1 X65.412 Y133.666 E0.89017
G1 X65.412 Y132.878 E0.04563
G1 X76.587 Y144.052 E0.91519
G1 X76.587 Y143.264 E0.04563
G1 X65.412 Y132.090 E0.91519
G1 X65.412 Y131.302 E0.04563
G1 X76.587 Y142.476 E0.91519
G1 X76.587 Y141.688 E0.04563
G1 X65.412 Y130.514 E0.91519
G1 X65.412 Y129.726 E0.04563
G1 X76.587 Y140.900 E0.91519
G1 X76.587 Y140.112 E0.04563
G1 X65.412 Y128.938 E0.91519
G1 X65.412 Y128.150 E0.04563
G1 X77.317 Y140.054 E0.97497
G1 X78.105 Y140.054 E0.04563
G1 X65.412 Y127.362 E1.03951
G1 X65.412 Y126.574 E0.04563
G1 X78.893 Y140.054 E1.10404
G1 X79.681 Y140.054 E0.04563
G1 X65.412 Y125.786 E1.16858
G1 X65.412 Y124.998 E0.04563
G1 X80.469 Y140.054 E1.23311
G1 X81.256 Y140.054 E0.04563
G1 X65.412 Y124.210 E1.29765
G1 X65.412 Y123.422 E0.04563
G1 X82.044 Y140.054 E1.36219
G1 X82.832 Y140.054 E0.04563
G1 X65.412 Y122.634 E1.42672
G1 X65.412 Y121.846 E0.04563
G1 X83.620 Y140.054 E1.49126
G1 X84.408 Y140.054 E0.04563
G1 X65.412 Y121.058 E1.55580
G1 X65.412 Y120.270 E0.04563
G1 X85.196 Y140.054 E1.62033
G1 X85.984 Y140.054 E0.04563
G1 X65.412 Y119.482 E1.68487
G1 X65.412 Y118.694 E0.04563
G1 X86.772 Y140.054 E1.74940
G1 X87.560 Y140.054 E0.04563
G1 X65.412 Y117.906 E1.81394
G1 X65.412 Y117.118 E0.04563
G1 X88.045 Y139.751 E1.85362
G1 X88.045 Y138.963 E0.04563
G1 X65.412 Y116.330 E1.85362
G1 X65.412 Y115.542 E0.04563
G1 X88.045 Y138.175 E1.85362
G1 X88.045 Y137.387 E0.04563
G1 X65.412 Y114.754 E1.85362
G1 X65.412 Y113.966 E0.04563
G1 X88.045 Y136.599 E1.85362
G1 X88.045 Y135.824 E0.04488
G1 X88.058 Y135.824 E0.00075
G1 X65.412 Y113.178 E1.85468
G1 X65.412 Y112.390 E0.04563
G1 X88.846 Y135.824 E1.91922
G1 X89.634 Y135.824 E0.04563
G1 X65.412 Y111.602 E1.98376
G1 X65.412 Y110.814 E0.04563
G1 X90.422 Y135.824 E2.04829
G1 X91.210 Y135.824 E0.04563
G1 X65.412 Y110.026 E2.11283
G1 X65.412 Y109.238 E0.04563
G1 X91.998 Y135.824 E2.17736
G1 X92.786 Y135.824 E0.04563
G1 X65.412 Y108.451 E2.24190
G1 X65.412 Y107.663 E0.04563
G1 X93.574 Y135.824 E2.30644
G1 X94.362 Y135.824 E0.04563
G1 X65.412 Y106.875 E2.37097
G1 X65.412 Y106.087 E0.04563
G1 X95.150 Y135.824 E2.43551
G1 X95.938 Y135.824 E0.04563
G1 X65.412 Y105.299 E2.50004
G1 X65.412 Y104.511 E0.04563
G1 X96.726 Y135.824 E2.56458
G1 X97.514 Y135.824 E0.04563
G1 X65.412 Y103.723 E2.62912
G1 X65.412 Y102.935 E0.04563
G1 X98.302 Y135.824 E2.69365
G1 X98.986 Y135.824 E0.03961
G1 X98.986 Y135.720 E0.00602
G1 X65.412 Y102.147 E2.74967
G1 X65.412 Y101.359 E0.04563
G1 X98.986 Y134.932 E2.74967
G1 X98.986 Y134.144 E0.04563
G1 X65.412 Y100.571 E2.74967
G1 X65.412 Y99.783 E0.04563
G1 X98.986 Y133.356 E2.74967
G1 X98.986 Y132.568 E0.04563
G1 X65.412 Y98.995 E2.74967
G1 X65.412 Y98.207 E0.04563
G1 X99.035 Y131.830 E2.75374
G1 X99.823 Y131.830 E0.04563
G1 X65.412 Y97.419 E2.81827
G1 X65.412 Y96.631 E0.04563
G1 X100.611 Y131.830 E2.88281
G1 X101.399 Y131.830 E0.04563
G1 X65.412 Y95.843 E2.94734
G1 X65.412 Y95.055 E0.04563
G1 X102.187 Y131.830 E3.01188
G1 X102.975 Y131.830 E0.04563
G1 X65.412 Y94.267 E3.07642
G1 X65.412 Y93.479 E0.04563
G1 X103.763 Y131.830 E3.14095
G1 X104.551 Y131.830 E0.04563
G1 X65.412 Y92.691 E3.20549
G1 X65.412 Y91.903 E0.04563
G1 X105.339 Y131.830 E3.27002
G1 X106.127 Y131.830 E0.04563
G1 X65.412 Y91.115 E3.33456
G1 X65.412 Y90.327 E0.04563
G1 X106.915 Y131.830 E3.39910
G1 X107.703 Y131.830 E0.04563
G1 X65.412 Y89.539 E3.46363
G1 X65.412 Y88.751 E0.04563
G1 X108.491 Y131.830 E3.52817
G1 X109.279 Y131.830 E0.04563
G1 X65.412 Y87.963 E3.59271
G1 X65.412 Y87.175 E0.04563
G1 X109.432 Y131.195 E3.60526
G1 X109.432 Y130.407 E0.04563
G1 X65.412 Y86.387 E3.60526
G1 X65.412 Y85.599 E0.04563
G1 X109.432 Y129.619 E3.60526
G1 X109.432 Y128.831 E0.04563
G1 X65.412 Y84.811 E3.60526
G1 X65.412 Y84.023 E0.04563
G1 X109.447 Y128.058 E3.60651
G1 X110.235 Y128.058 E0.04563
G1 X65.412 Y83.235 E3.67105
G1 X65.412 Y82.447 E0.04563
G1 X111.023 Y128.058 E3.73559
G1 X111.811 Y128.058 E0.04563
G1 X65.412 Y81.659 E3.80012
G1 X65.412 Y80.871 E0.04563
G1 X112.599 Y128.058 E3.86466
G1 X113.387 Y128.058 E0.04563
G1 X65.412 Y80.083 E3.92919
G1 X65.412 Y79.295 E0.04563
G1 X114.175 Y128.058 E3.99373
G1 X114.963 Y128.058 E0.04563
G1 X65.412 Y78.507 E4.05827
G1 X65.412 Y77.719 E0.04563
G1 X115.751 Y128.058 E4.12280
G1 X116.539 Y128.058 E0.04563
G1 X65.412 Y76.931 E4.18734
G1 X65.412 Y76.143 E0.04563
G1 X117.327 Y128.058 E4.25188
G1 X118.115 Y128.058 E0.04563
G1 X65.412 Y75.355 E4.31641
G1 X65.412 Y74.567 E0.04563
G1 X118.903 Y128.058 E4.38095
G1 X119.407 Y128.058 E0.02918
G1 X119.407 Y127.774 E0.01646
G1 X65.412 Y73.779 E4.42221
G1 X65.412 Y72.991 E0.04563
G1 X119.407 Y126.986 E4.42221
G1 X119.407 Y126.198 E0.04563
G1 X65.412 Y72.203 E4.42221
G1 X65.412 Y71.416 E0.04563
G1 X119.407 Y125.410 E4.42221
G1 X119.407 Y124.622 E0.04563
G1 X65.412 Y70.628 E4.42221
G1 X65.412 Y69.840 E0.04563
G1 X120.070 Y124.498 E4.47653
G1 X120.858 Y124.498 E0.04563
G1 X65.412 Y69.052 E4.54107
G1 X65.412 Y68.264 E0.04563
G1 X121.646 Y124.498 E4.60561
G1 X122.434 Y124.498 E0.04563
G1 X65.412 Y67.476 E4.67014
G1 X65.412 Y66.688 E0.04563
G1 X123.222 Y124.498 E4.73468
G1 X124.010 Y124.498 E0.04563
G1 X65.412 Y65.900 E4.79922
G1 X65.412 Y65.465 E0.02516
G1 X65.766 Y65.465 E0.02048
G1 X124.798 Y124.498 E4.83479
G1 X125.586 Y124.498 E0.04563
G1 X66.554 Y65.465 E4.83479
G1 X67.342 Y65.465 E0.04563
G1 X126.374 Y124.498 E4.83479
G1 X127.162 Y124.498 E0.04563
G1 X68.130 Y65.465 E4.83479
G1 X68.918 Y65.465 E0.04563
G1 X127.950 Y124.498 E4.83479
G1 X128.738 Y124.498 E0.04563
G1 X69.706 Y65.465 E4.83479
G1 X70.494 Y65.465 E0.04563
G1 X128.931 Y123.903 E4.78609
G1 X128.931 Y123.115 E0.04563
G1 X71.282 Y65.465 E4.72155
G1 X72.070 Y65.465 E0.04563
G1 X128.931 Y122.327 E4.65702
G1 X128.931 Y121.539 E0.04563
G1 X72.858 Y65.465 E4.59248
G1 X73.646 Y65.465 E0.04563
G1 X129.316 Y121.136 E4.55944
G1 X130.104 Y121.136 E0.04563
G1 X74.434 Y65.465 E4.55944
G1 X75.222 Y65.465 E0.04563
G1 X130.892 Y121.136 E4.55944
G1 X131.680 Y121.136 E0.04563
G1 X76.010 Y65.465 E4.55944
G1 X76.798 Y65.465 E0.04563
G1 X132.468 Y121.136 E4.55944
G1 X133.256 Y121.136 E0.04563
G1 X77.586 Y65.465 E4.55944
G1 X78.374 Y65.465 E0.04563
G1 X134.044 Y121.136 E4.55944
G1 X134.832 Y121.136 E0.04563
G1 X79.162 Y65.465 E4.55944
G1 X79.950 Y65.465 E0.04563
G1 X135.620 Y121.136 E4.55944
G1 X136.408 Y121.136 E0.04563
G1 X80.738 Y65.465 E4.55944
G1 X81.526 Y65.465 E0.04563
G1 X137.196 Y121.136 E4.55944
G1 X137.984 Y121.136 E0.04563
G1 X82.313 Y65.465 E4.55944
G1 X83.101 Y65.465 E0.04563
G1 X138.026 Y120.390 E4.49834
G1 X138.026 Y119.602 E0.04563
G1 X83.889 Y65.465 E4.43381
G1 X84.677 Y65.465 E0.04563
G1 X138.026 Y118.814 E4.36927
G1 X138.026 Y118.026 E0.04563
G1 X85.465 Y65.465 E4.30473
G1 X86.253 Y65.465 E0.04563
G1 X138.749 Y117.961 E4.29947
G1 X139.537 Y117.961 E0.04563
G1 X87.041 Y65.465 E4.29947
G1 X87.829 Y65.465 E0.04563
G1 X140.325 Y117.961 E4.29947
G1 X141.113 Y117.961 E0.04563
G1 X88.617 Y65.465 E4.29947
G1 X89.405 Y65.465 E0.04563
G1 X141.901 Y117.961 E4.29947
G1 X142.689 Y117.961 E0.04563
G1 X90.193 Y65.465 E4.29947
G1 X90.981 Y65.465 E0.04563
G1 X143.477 Y117.961 E4.29947
G1 X144.265 Y117.961 E0.04563
G1 X91.769 Y65.465 E4.29947
G1 X92.557 Y65.465 E0.04563
G1 X145.053 Y117.961 E4.29947
G1 X145.841 Y117.961 E0.04563
G1 X93.345 Y65.465 E4.29947
G1 X94.133 Y65.465 E0.04563
G1 X146.629 Y117.961 E4.29947
G1 X146.709 Y117.961 E0.00464
G1 X146.709 Y117.253 E0.04099
G1 X94.921 Y65.465 E4.24149
G1 X95.709 Y65.465 E0.04563
G1 X146.709 Y116.465 E4.17696
G1 X146.709 Y115.677 E0.04563
G1 X96.497 Y65.465 E4.11242
G1 X97.285 Y65.465 E0.04563
G1 X146.784 Y114.964 E4.05401
G1 X147.572 Y114.964 E0.04563
G1 X98.073 Y65.465 E4.05401
G1 X98.861 Y65.465 E0.04563
G1 X148.360 Y114.964 E4.05401
G1 X149.148 Y114.964 E0.04563
G1 X99.649 Y65.465 E4.05401
G1 X100.437 Y65.465 E0.04563
G1 X149.936 Y114.964 E4.05401
G1 X150.724 Y114.964 E0.04563
G1 X101.225 Y65.465 E4.05401
G1 X102.013 Y65.465 E0.04563
G1 X151.512 Y114.964 E4.05401
G1 X152.300 Y114.964 E0.04563
G1 X102.801 Y65.465 E4.05401
G1 X103.589 Y65.465 E0.04563
G1 X153.088 Y114.964 E4.05401
G1 X153.876 Y114.964 E0.04563
G1 X104.377 Y65.465 E4.05401
G1 X105.165 Y65.465 E0.04563
G1 X154.664 Y114.964 E4.05401
G1 X155.001 Y114.964 E0.01951
G1 X155.001 Y114.513 E0.02612
G1 X105.953 Y65.465 E4.01707
G1 X106.741 Y65.465 E0.04563
G1 X155.001 Y113.725 E3.95253
G1 X155.001 Y112.937 E0.04563
G1 X107.529 Y65.465 E3.88800
G1 X108.317 Y65.465 E0.04563
G1 X155.001 Y112.149 E3.82346
G1 X155.001 Y112.135 E0.00085
G1 X155.774 Y112.135 E0.04478
G1 X109.105 Y65.465 E3.82226
G1 X109.893 Y65.465 E0.04563
G1 X156.562 Y112.135 E3.82226
G1 X157.350 Y112.135 E0.04563
G1 X110.681 Y65.465 E3.82226
G1 X111.469 Y65.465 E0.04563
G1 X158.138 Y112.135 E3.82226
G1 X158.926 Y112.135 E0.04563
G1 X112.257 Y65.465 E3.82226
G1 X113.045 Y65.465 E0.04563
G1 X159.714 Y112.135 E3.82226
G1 X160.502 Y112.135 E0.04563
G1 X113.833 Y65.465 E3.82226
G1 X114.621 Y65.465 E0.04563
G1 X161.290 Y112.135 E3.82226
G1 X162.078 Y112.135 E0.04563
G1 X115.409 Y65.465 E3.82226
G1 X116.197 Y65.465 E0.04563
G1 X162.866 Y112.135 E3.82226
G1 X162.918 Y112.135 E0.00301
G1 X162.918 Y111.399 E0.04263
G1 X116.985 Y65.465 E3.76198
G1 X117.773 Y65.465 E0.04563
G1 X162.918 Y110.611 E3.69744
G1 X162.918 Y109.823 E0.04563
G1 X118.560 Y65.465 E3.63290
G1 X119.348 Y65.465 E0.04563
G1 X163.346 Y109.463 E3.60345
G1 X164.134 Y109.463 E0.04563
G1 X120.136 Y65.465 E3.60345
G1 X120.924 Y65.465 E0.04563
G1 X164.922 Y109.463 E3.60345
G1 X165.710 Y109.463 E0.04563
G1 X121.712 Y65.465 E3.60345
G1 X122.500 Y65.465 E0.04563
G1 X166.498 Y109.463 E3.60345
G1 X167.286 Y109.463 E0.04563
G1 X123.288 Y65.465 E3.60345
G1 X124.076 Y65.465 E0.04563
G1 X168.074 Y109.463 E3.60345
G1 X168.862 Y109.463 E0.04563
G1 X124.864 Y65.465 E3.60345
G1 X125.652 Y65.465 E0.04563
G1 X169.650 Y109.463 E3.60345
G1 X170.438 Y109.463 E0.04563
G1 X126.440 Y65.465 E3.60345
G1 X127.228 Y65.465 E0.04563
G1 X170.477 Y108.714 E3.54214
G1 X170.477 Y107.926 E0.04563
G1 X128.016 Y65.465 E3.47760
G1 X128.804 Y65.465 E0.04563
G1 X170.477 Y107.138 E3.41307
G1 X170.477 Y106.941 E0.01146
G1 X171.067 Y106.941 E0.03417
G1 X129.592 Y65.465 E3.39686
G1 X130.380 Y65.465 E0.04563
G1 X171.855 Y106.941 E3.39686
G1 X172.643 Y106.941 E0.04563
G1 X131.168 Y65.465 E3.39686
G1 X131.956 Y65.465 E0.04563
G1 X173.431 Y106.941 E3.39686
G1 X174.219 Y106.941 E0.04563
G1 X132.744 Y65.465 E3.39686
G1 X133.532 Y65.465 E0.04563
G1 X175.007 Y106.941 E3.39686
G1 X175.795 Y106.941 E0.04563
G1 X134.320 Y65.465 E3.39686
G1 X135.108 Y65.465 E0.04563
G1 X176.583 Y106.941 E3.39686
G1 X177.371 Y106.941 E0.04563
G1 X135.896 Y65.465 E3.39686
G1 X136.684 Y65.465 E0.04563
G1 X177.695 Y106.477 E3.35888
G1 X177.695 Y105.689 E0.04563
G1 X137.472 Y65.465 E3.29434
G1 X138.260 Y65.465 E0.04563
G1 X177.695 Y104.901 E3.22980
G1 X177.695 Y104.559 E0.01980
G1 X178.142 Y104.559 E0.02583
G1 X139.048 Y65.465 E3.20180
G1 X139.836 Y65.465 E0.04563
G1 X178.930 Y104.559 E3.20180
G1 X179.718 Y104.559 E0.04563
G1 X140.624 Y65.465 E3.20180
G1 X141.412 Y65.465 E0.04563
G1 X180.506 Y104.559 E3.20180
G1 X181.293 Y104.559 E0.04563
G1 X142.200 Y65.465 E3.20180
G1 X142.988 Y65.465 E0.04563
G1 X182.081 Y104.559 E3.20180
G1 X182.869 Y104.559 E0.04563
G1 X143.776 Y65.465 E3.20180
G1 X144.564 Y65.465 E0.04563
G1 X183.657 Y104.559 E3.20180
G1 X184.445 Y104.559 E0.04563
G1 X145.352 Y65.465 E3.20180
G1 X146.140 Y65.465 E0.04563
G1 X184.588 Y103.913 E3.14892
G1 X184.588 Y103.125 E0.04563
G1 X146.928 Y65.465 E3.08438
G1 X147.716 Y65.465 E0.04563
G1 X184.588 Y102.337 E3.01985
G1 X184.588 Y101.549 E0.04563
G1 X148.504 Y65.465 E2.95531
G1 X149.292 Y65.465 E0.04563
G1 X184.588 Y100.761 E2.89077
G1 X184.588 Y99.973 E0.04563
G1 X150.080 Y65.465 E2.82624
G1 X150.868 Y65.465 E0.04563
G1 X184.588 Y99.185 E2.76170
G1 X184.588 Y98.397 E0.04563
G1 X151.656 Y65.465 E2.69717
G1 X152.444 Y65.465 E0.04563
G1 X184.588 Y97.609 E2.63263
G1 X184.588 Y96.821 E0.04563
G1 X153.232 Y65.465 E2.56809
G1 X154.020 Y65.465 E0.04563
G1 X184.588 Y96.033 E2.50356
G1 X184.588 Y95.245 E0.04563
G1 X154.808 Y65.465 E2.43902
G1 X155.595 Y65.465 E0.04563
G1 X184.588 Y94.457 E2.37449
G1 X184.588 Y93.670 E0.04563
G1 X156.383 Y65.465 E2.30995
G1 X157.171 Y65.465 E0.04563
G1 X184.588 Y92.882 E2.24541
G1 X184.588 Y92.094 E0.04563
G1 X157.959 Y65.465 E2.18088
G1 X158.747 Y65.465 E0.04563
G1 X184.588 Y91.306 E2.11634
G1 X184.588 Y90.518 E0.04563
