; generated by Slic3r 1.37.2-prusa3d-win64 on 2017-12-11 at 23:30:51

; 

; external perimeters extrusion width = 0.45mm
; perimeters extrusion width = 0.45mm
; infill extrusion width = 0.45mm
; solid infill extrusion width = 0.45mm
; top infill extrusion width = 0.40mm
; first layer extrusion width = 0.42mm

M107
M115 U3.1.0 ; tell printer latest fw version
M83  ; extruder relative mode
M104 S150
M140 S65 ; set bed temp
G28 W ; home all without mesh bed level
G1 X125 Z80 F1000
M190 S65 ; wait for bed temp
M104 S220 ; set extruder temp
G80 ; mesh bed leveling
M109 S220 ; wait for extruder temp
G1 Y-3.0 F1000.0 ; go outside print area
G92 E0.0
G1 X60.0 E9.0  F1000.0 ; intro line
G1 X100.0 E12.5  F1000.0 ; intro line
G92 E0.0
M900 K30 ; Filament gcode
G21 ; set units to millimeters
G90 ; use absolute coordinates
M83 ; use relative distances for extrusion
;BEFORE_LAYER_CHANGE
;0.2


G1 E-0.80000 F2100.00000
G1 Z0.200 F7200.000
;AFTER_LAYER_CHANGE
;0.2
G1 X89.364 Y66.985 F7200.000
G1 E0.80000 F2100.00000
M204 S1000
G1 F1800
G1 X90.166 Y66.843 E0.02555
G1 X175.176 Y66.843 E2.66542
G1 X175.720 Y66.907 E0.01716
G1 X176.234 Y67.093 E0.01716
G1 X176.692 Y67.392 E0.01716
G1 X177.072 Y67.792 E0.01728
G1 X188.905 Y84.884 E0.65182
G1 X189.202 Y85.483 E0.02095
G1 X189.321 Y86.209 E0.02308
G1 X189.311 Y100.085 E0.43508
G1 X188.981 Y102.265 E0.06912
G1 X188.798 Y102.833 E0.01870
G1 X188.250 Y103.580 E0.02907
G1 X187.453 Y104.063 E0.02919
G1 X186.647 Y104.205 E0.02567
G1 X78.314 Y104.204 E3.39672
G1 X77.606 Y104.087 E0.02249
G1 X76.966 Y103.764 E0.02249
G1 X76.451 Y103.265 E0.02249
G1 X76.108 Y102.635 E0.02249
G1 X75.967 Y101.852 E0.02496
G1 X75.967 Y88.152 E0.42953
G1 X76.416 Y85.398 E0.08750
G1 X76.672 Y84.901 E0.01752
G1 X88.228 Y67.852 E0.64580
G1 X88.728 Y67.332 E0.02260
G1 X89.311 Y67.013 E0.02084
G1 F5760
G1 X90.166 Y66.843 E-0.30201
G1 F5760
G1 X91.489 Y66.843 E-0.45799
G1 E-0.04000 F2100.00000
G1 X90.382 Y69.430 F7200.000
G1 E0.80000 F2100.00000
G1 F1800
G1 X174.962 Y69.430 E2.65195
G1 X174.962 Y84.010 E0.45715
G1 X90.382 Y84.010 E2.65195
G1 X90.382 Y69.490 E0.45526
G1 F5760
G1 X92.576 Y69.488 E-0.76000
G1 E-0.04000 F2100.00000
G1 X90.495 Y83.134 F7200.000
G1 E0.80000 F2100.00000
G1 F1800
G1 X91.089 Y83.727 E0.02635
G1 X91.623 Y83.727 E0.01676
G1 X90.665 Y82.769 E0.04253
G1 X90.665 Y82.235 E0.01676
G1 X92.157 Y83.727 E0.06623
G1 X92.691 Y83.727 E0.01676
G1 X90.665 Y81.701 E0.08994
G1 X90.665 Y81.167 E0.01676
G1 X93.225 Y83.727 E0.11365
G1 X93.759 Y83.727 E0.01676
G1 X90.665 Y80.634 E0.13736
G1 X90.665 Y80.100 E0.01676
G1 X94.293 Y83.727 E0.16106
G1 X94.827 Y83.727 E0.01676
G1 X90.665 Y79.566 E0.18477
G1 X90.665 Y79.032 E0.01676
G1 X95.361 Y83.727 E0.20848
G1 X95.895 Y83.727 E0.01676
G1 X90.665 Y78.498 E0.23219
G1 X90.665 Y77.964 E0.01676
G1 X96.428 Y83.727 E0.25589
G1 X96.962 Y83.727 E0.01676
G1 X90.665 Y77.430 E0.27960
G1 X90.665 Y76.896 E0.01676
G1 X97.496 Y83.727 E0.30331
G1 X98.030 Y83.727 E0.01676
G1 X90.665 Y76.362 E0.32702
G1 X90.665 Y75.828 E0.01676
G1 X98.564 Y83.727 E0.35072
G1 X99.098 Y83.727 E0.01676
G1 X90.665 Y75.294 E0.37443
G1 X90.665 Y74.760 E0.01676
G1 X99.632 Y83.727 E0.39814
G1 X100.166 Y83.727 E0.01676
G1 X90.665 Y74.226 E0.42185
G1 X90.665 Y73.692 E0.01676
G1 X100.700 Y83.727 E0.44555
G1 X101.234 Y83.727 E0.01676
G1 X90.665 Y73.158 E0.46926
G1 X90.665 Y72.624 E0.01676
G1 X101.768 Y83.727 E0.49297
G1 X102.302 Y83.727 E0.01676
G1 X90.665 Y72.090 E0.51668
G1 X90.665 Y71.556 E0.01676
G1 X102.836 Y83.727 E0.54038
G1 X103.370 Y83.727 E0.01676
G1 X90.665 Y71.022 E0.56409
G1 X90.665 Y70.488 E0.01676
G1 X103.904 Y83.727 E0.58780
G1 X104.438 Y83.727 E0.01676
G1 X90.665 Y69.954 E0.61151
G1 X90.665 Y69.713 E0.00758
G1 X90.957 Y69.713 E0.00918
G1 X104.972 Y83.727 E0.62223
G1 X105.506 Y83.727 E0.01676
G1 X91.491 Y69.713 E0.62223
G1 X92.025 Y69.713 E0.01676
G1 X106.040 Y83.727 E0.62223
G1 X106.574 Y83.727 E0.01676
G1 X92.559 Y69.713 E0.62223
G1 X93.093 Y69.713 E0.01676
G1 X107.108 Y83.727 E0.62223
G1 X107.642 Y83.727 E0.01676
G1 X93.627 Y69.713 E0.62223
G1 X94.161 Y69.713 E0.01676
G1 X108.176 Y83.727 E0.62223
G1 X108.710 Y83.727 E0.01676
G1 X94.695 Y69.713 E0.62223
G1 X95.229 Y69.713 E0.01676
G1 X109.244 Y83.727 E0.62223
G1 X109.778 Y83.727 E0.01676
G1 X95.763 Y69.713 E0.62223
G1 X96.297 Y69.713 E0.01676
G1 X110.311 Y83.727 E0.62223
G1 X110.845 Y83.727 E0.01676
G1 X96.831 Y69.713 E0.62223
G1 X97.365 Y69.713 E0.01676
G1 X111.379 Y83.727 E0.62223
G1 X111.913 Y83.727 E0.01676
G1 X97.899 Y69.713 E0.62223
G1 X98.433 Y69.713 E0.01676
G1 X112.447 Y83.727 E0.62223
G1 X112.981 Y83.727 E0.01676
G1 X98.967 Y69.713 E0.62223
G1 X99.501 Y69.713 E0.01676
G1 X113.515 Y83.727 E0.62223
G1 X114.049 Y83.727 E0.01676
G1 X100.035 Y69.713 E0.62223
G1 X100.569 Y69.713 E0.01676
G1 X114.583 Y83.727 E0.62223
G1 X115.117 Y83.727 E0.01676
G1 X101.103 Y69.713 E0.62223
G1 X101.637 Y69.713 E0.01676
G1 X115.651 Y83.727 E0.62223
G1 X116.185 Y83.727 E0.01676
G1 X102.171 Y69.713 E0.62223
G1 X102.705 Y69.713 E0.01676
G1 X116.719 Y83.727 E0.62223
G1 X117.253 Y83.727 E0.01676
G1 X103.239 Y69.713 E0.62223
G1 X103.773 Y69.713 E0.01676
G1 X117.787 Y83.727 E0.62223
G1 X118.321 Y83.727 E0.01676
G1 X104.306 Y69.713 E0.62223
G1 X104.840 Y69.713 E0.01676
G1 X118.855 Y83.727 E0.62223
G1 X119.389 Y83.727 E0.01676
G1 X105.374 Y69.713 E0.62223
G1 X105.908 Y69.713 E0.01676
G1 X119.923 Y83.727 E0.62223
G1 X120.457 Y83.727 E0.01676
G1 X106.442 Y69.713 E0.62223
G1 X106.976 Y69.713 E0.01676
G1 X120.991 Y83.727 E0.62223
G1 X121.525 Y83.727 E0.01676
G1 X107.510 Y69.713 E0.62223
G1 X108.044 Y69.713 E0.01676
G1 X122.059 Y83.727 E0.62223
G1 X122.593 Y83.727 E0.01676
G1 X108.578 Y69.713 E0.62223
G1 X109.112 Y69.713 E0.01676
G1 X123.127 Y83.727 E0.62223
G1 X123.661 Y83.727 E0.01676
G1 X109.646 Y69.713 E0.62223
G1 X110.180 Y69.713 E0.01676
G1 X124.194 Y83.727 E0.62223
G1 X124.728 Y83.727 E0.01676
G1 X110.714 Y69.713 E0.62223
G1 X111.248 Y69.713 E0.01676
G1 X125.262 Y83.727 E0.62223
G1 X125.796 Y83.727 E0.01676
G1 X111.782 Y69.713 E0.62223
G1 X112.316 Y69.713 E0.01676
G1 X126.330 Y83.727 E0.62223
G1 X126.864 Y83.727 E0.01676
G1 X112.850 Y69.713 E0.62223
G1 X113.384 Y69.713 E0.01676
G1 X127.398 Y83.727 E0.62223
G1 X127.932 Y83.727 E0.01676
G1 X113.918 Y69.713 E0.62223
G1 X114.452 Y69.713 E0.01676
G1 X128.466 Y83.727 E0.62223
G1 X129.000 Y83.727 E0.01676
G1 X114.986 Y69.713 E0.62223
G1 X115.520 Y69.713 E0.01676
G1 X129.534 Y83.727 E0.62223
G1 X130.068 Y83.727 E0.01676
G1 X116.054 Y69.713 E0.62223
G1 X116.588 Y69.713 E0.01676
G1 X130.602 Y83.727 E0.62223
G1 X131.136 Y83.727 E0.01676
G1 X117.122 Y69.713 E0.62223
G1 X117.656 Y69.713 E0.01676
G1 X131.670 Y83.727 E0.62223
G1 X132.204 Y83.727 E0.01676
G1 X118.189 Y69.713 E0.62223
G1 X118.723 Y69.713 E0.01676
G1 X132.738 Y83.727 E0.62223
G1 X133.272 Y83.727 E0.01676
G1 X119.257 Y69.713 E0.62223
G1 X119.791 Y69.713 E0.01676
G1 X133.806 Y83.727 E0.62223
G1 X134.340 Y83.727 E0.01676
G1 X120.325 Y69.713 E0.62223
G1 X120.859 Y69.713 E0.01676
G1 X134.874 Y83.727 E0.62223
G1 X135.408 Y83.727 E0.01676
G1 X121.393 Y69.713 E0.62223
G1 X121.927 Y69.713 E0.01676
G1 X135.942 Y83.727 E0.62223
G1 X136.476 Y83.727 E0.01676
G1 X122.461 Y69.713 E0.62223
G1 X122.995 Y69.713 E0.01676
G1 X137.010 Y83.727 E0.62223
G1 X137.544 Y83.727 E0.01676
G1 X123.529 Y69.713 E0.62223
G1 X124.063 Y69.713 E0.01676
G1 X138.077 Y83.727 E0.62223
G1 X138.611 Y83.727 E0.01676
G1 X124.597 Y69.713 E0.62223
G1 X125.131 Y69.713 E0.01676
G1 X139.145 Y83.727 E0.62223
G1 X139.679 Y83.727 E0.01676
G1 X125.665 Y69.713 E0.62223
G1 X126.199 Y69.713 E0.01676
G1 X140.213 Y83.727 E0.62223
G1 X140.747 Y83.727 E0.01676
G1 X126.733 Y69.713 E0.62223
G1 X127.267 Y69.713 E0.01676
G1 X141.281 Y83.727 E0.62223
G1 X141.815 Y83.727 E0.01676
G1 X127.801 Y69.713 E0.62223
G1 X128.335 Y69.713 E0.01676
G1 X142.349 Y83.727 E0.62223
G1 X142.883 Y83.727 E0.01676
G1 X128.869 Y69.713 E0.62223
G1 X129.403 Y69.713 E0.01676
G1 X143.417 Y83.727 E0.62223
G1 X143.951 Y83.727 E0.01676
G1 X129.937 Y69.713 E0.62223
G1 X130.471 Y69.713 E0.01676
G1 X144.485 Y83.727 E0.62223
G1 X145.019 Y83.727 E0.01676
G1 X131.005 Y69.713 E0.62223
G1 X131.539 Y69.713 E0.01676
G1 X145.553 Y83.727 E0.62223
G1 X146.087 Y83.727 E0.01676
G1 X132.072 Y69.713 E0.62223
G1 X132.606 Y69.713 E0.01676
G1 X146.621 Y83.727 E0.62223
G1 X147.155 Y83.727 E0.01676
G1 X133.140 Y69.713 E0.62223
G1 X133.674 Y69.713 E0.01676
G1 X147.689 Y83.727 E0.62223
G1 X148.223 Y83.727 E0.01676
G1 X134.208 Y69.713 E0.62223
G1 X134.742 Y69.713 E0.01676
G1 X148.757 Y83.727 E0.62223
G1 X149.291 Y83.727 E0.01676
G1 X135.276 Y69.713 E0.62223
G1 X135.810 Y69.713 E0.01676
G1 X149.825 Y83.727 E0.62223
G1 X150.359 Y83.727 E0.01676
G1 X136.344 Y69.713 E0.62223
G1 X136.878 Y69.713 E0.01676
G1 X150.893 Y83.727 E0.62223
G1 X151.427 Y83.727 E0.01676
G1 X137.412 Y69.713 E0.62223
G1 X137.946 Y69.713 E0.01676
G1 X151.960 Y83.727 E0.62223
G1 X152.494 Y83.727 E0.01676
G1 X138.480 Y69.713 E0.62223
G1 X139.014 Y69.713 E0.01676
G1 X153.028 Y83.727 E0.62223
G1 X153.562 Y83.727 E0.01676
G1 X139.548 Y69.713 E0.62223
G1 X140.082 Y69.713 E0.01676
G1 X154.096 Y83.727 E0.62223
G1 X154.630 Y83.727 E0.01676
G1 X140.616 Y69.713 E0.62223
G1 X141.150 Y69.713 E0.01676
G1 X155.164 Y83.727 E0.62223
G1 X155.698 Y83.727 E0.01676
G1 X141.684 Y69.713 E0.62223
G1 X142.218 Y69.713 E0.01676
G1 X156.232 Y83.727 E0.62223
G1 X156.766 Y83.727 E0.01676
G1 X142.752 Y69.713 E0.62223
G1 X143.286 Y69.713 E0.01676
G1 X157.300 Y83.727 E0.62223
G1 X157.834 Y83.727 E0.01676
G1 X143.820 Y69.713 E0.62223
G1 X144.354 Y69.713 E0.01676
G1 X158.368 Y83.727 E0.62223
G1 X158.902 Y83.727 E0.01676
G1 X144.888 Y69.713 E0.62223
G1 X145.422 Y69.713 E0.01676
G1 X159.436 Y83.727 E0.62223
G1 X159.970 Y83.727 E0.01676
G1 X145.955 Y69.713 E0.62223
G1 X146.489 Y69.713 E0.01676
G1 X160.504 Y83.727 E0.62223
G1 X161.038 Y83.727 E0.01676
G1 X147.023 Y69.713 E0.62223
G1 X147.557 Y69.713 E0.01676
G1 X161.572 Y83.727 E0.62223
G1 X162.106 Y83.727 E0.01676
G1 X148.091 Y69.713 E0.62223
G1 X148.625 Y69.713 E0.01676
G1 X162.640 Y83.727 E0.62223
G1 X163.174 Y83.727 E0.01676
G1 X149.159 Y69.713 E0.62223
G1 X149.693 Y69.713 E0.01676
G1 X163.708 Y83.727 E0.62223
G1 X164.242 Y83.727 E0.01676
G1 X150.227 Y69.713 E0.62223
G1 X150.761 Y69.713 E0.01676
G1 X164.776 Y83.727 E0.62223
G1 X165.310 Y83.727 E0.01676
G1 X151.295 Y69.713 E0.62223
G1 X151.829 Y69.713 E0.01676
G1 X165.844 Y83.727 E0.62223
G1 X166.377 Y83.727 E0.01676
G1 X152.363 Y69.713 E0.62223
G1 X152.897 Y69.713 E0.01676
G1 X166.911 Y83.727 E0.62223
G1 X167.445 Y83.727 E0.01676
G1 X153.431 Y69.713 E0.62223
G1 X153.965 Y69.713 E0.01676
G1 X167.979 Y83.727 E0.62223
G1 X168.513 Y83.727 E0.01676
G1 X154.499 Y69.713 E0.62223
G1 X155.033 Y69.713 E0.01676
G1 X169.047 Y83.727 E0.62223
G1 X169.581 Y83.727 E0.01676
G1 X155.567 Y69.713 E0.62223
G1 X156.101 Y69.713 E0.01676
G1 X170.115 Y83.727 E0.62223
G1 X170.649 Y83.727 E0.01676
G1 X156.635 Y69.713 E0.62223
G1 X157.169 Y69.713 E0.01676
G1 X171.183 Y83.727 E0.62223
G1 X171.717 Y83.727 E0.01676
G1 X157.703 Y69.713 E0.62223
G1 X158.237 Y69.713 E0.01676
G1 X172.251 Y83.727 E0.62223
G1 X172.785 Y83.727 E0.01676
G1 X158.771 Y69.713 E0.62223
G1 X159.305 Y69.713 E0.01676
G1 X173.319 Y83.727 E0.62223
G1 X173.853 Y83.727 E0.01676
G1 X159.839 Y69.713 E0.62223
G1 X160.372 Y69.713 E0.01676
G1 X174.387 Y83.727 E0.62223
G1 X174.679 Y83.727 E0.00918
G1 X174.679 Y83.486 E0.00758
G1 X160.906 Y69.713 E0.61151
G1 X161.440 Y69.713 E0.01676
G1 X174.679 Y82.952 E0.58780
G1 X174.679 Y82.418 E0.01676
G1 X161.974 Y69.713 E0.56409
G1 X162.508 Y69.713 E0.01676
G1 X174.679 Y81.884 E0.54039
G1 X174.679 Y81.350 E0.01676
G1 X163.042 Y69.713 E0.51668
G1 X163.576 Y69.713 E0.01676
G1 X174.679 Y80.816 E0.49297
G1 X174.679 Y80.282 E0.01676
G1 X164.110 Y69.713 E0.46926
G1 X164.644 Y69.713 E0.01676
G1 X174.679 Y79.748 E0.44556
G1 X174.679 Y79.214 E0.01676
G1 X165.178 Y69.713 E0.42185
G1 X165.712 Y69.713 E0.01676
G1 X174.679 Y78.680 E0.39814
G1 X174.679 Y78.146 E0.01676
G1 X166.246 Y69.713 E0.37443
G1 X166.780 Y69.713 E0.01676
G1 X174.679 Y77.612 E0.35073
G1 X174.679 Y77.078 E0.01676
G1 X167.314 Y69.713 E0.32702
G1 X167.848 Y69.713 E0.01676
G1 X174.679 Y76.544 E0.30331
G1 X174.679 Y76.010 E0.01676
G1 X168.382 Y69.713 E0.27960
G1 X168.916 Y69.713 E0.01676
G1 X174.679 Y75.476 E0.25590
G1 X174.679 Y74.942 E0.01676
G1 X169.450 Y69.713 E0.23219
G1 X169.984 Y69.713 E0.01676
G1 X174.679 Y74.408 E0.20848
G1 X174.679 Y73.874 E0.01676
G1 X170.518 Y69.713 E0.18477
G1 X171.052 Y69.713 E0.01676
G1 X174.679 Y73.340 E0.16107
G1 X174.679 Y72.807 E0.01676
G1 X171.586 Y69.713 E0.13736
G1 X172.120 Y69.713 E0.01676
G1 X174.679 Y72.273 E0.11365
G1 X174.679 Y71.739 E0.01676
G1 X172.654 Y69.713 E0.08994
G1 X173.188 Y69.713 E0.01676
G1 X174.679 Y71.205 E0.06624
G1 X174.679 Y70.671 E0.01676
G1 X173.722 Y69.713 E0.04253
G1 X174.255 Y69.713 E0.01676
G1 X174.849 Y70.306 E0.02636
G1 F5760
G1 X174.255 Y69.713 E-0.29077
G1 F5760
G1 X173.722 Y69.713 E-0.18494
G1 F5760
G1 X174.302 Y70.293 E-0.28429
G1 E-0.04000 F2100.00000
G1 X186.434 Y99.651 F7200.000
G1 E0.80000 F2100.00000
G1 F1800
G1 X186.434 Y101.618 E0.06166
G1 X78.554 Y101.618 E3.38250
G1 X78.554 Y88.404 E0.41429
G1 X78.854 Y88.404 E0.00941
G1 X78.854 Y86.438 E0.06166
G1 X186.734 Y86.438 E3.38250
G1 X186.734 Y99.651 E0.41429
G1 X186.494 Y99.651 E0.00753
G1 F5760
G1 X186.434 Y101.618 E-0.68148
G1 F5760
G1 X186.207 Y101.618 E-0.07852
G1 E-0.04000 F2100.00000
G1 X186.621 Y87.315 F7200.000
G1 E0.80000 F2100.00000
G1 F1800
G1 X186.026 Y86.720 E0.02644
G1 X185.492 Y86.720 E0.01681
G1 X186.451 Y87.680 E0.04267
G1 X186.451 Y88.215 E0.01681
G1 X184.957 Y86.720 E0.06645
G1 X184.422 Y86.720 E0.01681
G1 X186.451 Y88.750 E0.09022
G1 X186.451 Y89.284 E0.01681
G1 X183.887 Y86.720 E0.11399
G1 X183.353 Y86.720 E0.01681
G1 X186.451 Y89.819 E0.13777
G1 X186.451 Y90.354 E0.01681
G1 X182.818 Y86.720 E0.16154
G1 X182.283 Y86.720 E0.01681
G1 X186.451 Y90.888 E0.18531
G1 X186.451 Y91.423 E0.01681
G1 X181.749 Y86.720 E0.20909
G1 X181.214 Y86.720 E0.01681
G1 X186.451 Y91.958 E0.23286
G1 X186.451 Y92.492 E0.01681
G1 X180.679 Y86.720 E0.25664
G1 X180.144 Y86.720 E0.01681
G1 X186.451 Y93.027 E0.28041
G1 X186.451 Y93.562 E0.01681
G1 X179.610 Y86.720 E0.30418
G1 X179.075 Y86.720 E0.01681
G1 X186.451 Y94.097 E0.32796
G1 X186.451 Y94.631 E0.01681
G1 X178.540 Y86.720 E0.35173
G1 X178.006 Y86.720 E0.01681
G1 X186.451 Y95.166 E0.37551
G1 X186.451 Y95.701 E0.01681
G1 X177.471 Y86.720 E0.39928
G1 X176.936 Y86.720 E0.01681
G1 X186.451 Y96.235 E0.42305
G1 X186.451 Y96.770 E0.01681
G1 X176.401 Y86.720 E0.44683
G1 X175.867 Y86.720 E0.01681
G1 X186.451 Y97.305 E0.47060
G1 X186.451 Y97.840 E0.01681
G1 X175.332 Y86.720 E0.49437
G1 X174.797 Y86.720 E0.01681
G1 X186.451 Y98.374 E0.51815
G1 X186.451 Y98.909 E0.01681
G1 X174.263 Y86.720 E0.54192
G1 X173.728 Y86.720 E0.01681
G1 X186.376 Y99.368 E0.56233
G1 X186.151 Y99.368 E0.00706
G1 X186.151 Y99.678 E0.00976
G1 X173.193 Y86.720 E0.57613
G1 X172.659 Y86.720 E0.01681
G1 X186.151 Y100.213 E0.59990
G1 X186.151 Y100.748 E0.01681
G1 X172.124 Y86.720 E0.62368
G1 X171.589 Y86.720 E0.01681
G1 X186.151 Y101.283 E0.64745
G1 X186.151 Y101.335 E0.00164
G1 X185.669 Y101.335 E0.01517
G1 X171.054 Y86.720 E0.64977
G1 X170.520 Y86.720 E0.01681
G1 X185.134 Y101.335 E0.64977
G1 X184.599 Y101.335 E0.01681
G1 X169.985 Y86.720 E0.64977
G1 X169.450 Y86.720 E0.01681
G1 X184.065 Y101.335 E0.64977
G1 X183.530 Y101.335 E0.01681
G1 X168.916 Y86.720 E0.64977
G1 X168.381 Y86.720 E0.01681
G1 X182.995 Y101.335 E0.64977
G1 X182.461 Y101.335 E0.01681
G1 X167.846 Y86.720 E0.64977
G1 X167.311 Y86.720 E0.01681
G1 X181.926 Y101.335 E0.64977
G1 X181.391 Y101.335 E0.01681
G1 X166.777 Y86.720 E0.64977
G1 X166.242 Y86.720 E0.01681
G1 X180.856 Y101.335 E0.64977
G1 X180.322 Y101.335 E0.01681
G1 X165.707 Y86.720 E0.64977
G1 X165.173 Y86.720 E0.01681
G1 X179.787 Y101.335 E0.64977
G1 X179.252 Y101.335 E0.01681
G1 X164.638 Y86.720 E0.64977
G1 X164.103 Y86.720 E0.01681
G1 X178.718 Y101.335 E0.64977
G1 X178.183 Y101.335 E0.01681
G1 X163.568 Y86.720 E0.64977
G1 X163.034 Y86.720 E0.01681
