; generated by Slic3r 1.37.2-prusa3d-win64 on 2017-12-21 at 20:50:22

; 

; external perimeters extrusion width = 0.60mm
; perimeters extrusion width = 0.43mm
; infill extrusion width = 0.70mm
; solid infill extrusion width = 0.70mm
; top infill extrusion width = 0.43mm
; first layer extrusion width = 0.42mm

M107
M115 U3.1.0 ; tell printer latest fw version
M83  ; extruder relative mode
M104 S150
M140 S65 ; set bed temp
G28 W ; home all without mesh bed level
G1 X125 Z80 F1000
M190 S65 ; wait for bed temp
M104 S220 ; set extruder temp
G80 ; mesh bed leveling
M109 S220 ; wait for extruder temp
G1 Y-3.0 F1000.0 ; go outside print area
G92 E0.0
G1 X60.0 E9.0  F1000.0 ; intro line
G1 X100.0 E12.5  F1000.0 ; intro line
G92 E0.0
M900 K30 ; Filament gcode
G21 ; set units to millimeters
G90 ; use absolute coordinates
M83 ; use relative distances for extrusion
;BEFORE_LAYER_CHANGE
;0.2


G1 E-0.80000 F2100.00000
G1 Z0.200 F7200.000
;AFTER_LAYER_CHANGE
;0.2
G1 X62.670 Y102.104 F7200.000
G1 E0.80000 F2100.00000
M204 S1000
G1 F3600
G1 X62.858 Y101.546 E0.01846
G1 X63.180 Y101.048 E0.01858
G1 X63.615 Y100.646 E0.01858
G1 X64.132 Y100.364 E0.01846
G1 X99.717 Y93.140 E1.13850
G1 X185.004 Y93.123 E2.67411
G1 X185.906 Y93.302 E0.02884
G1 X186.672 Y93.811 E0.02884
G1 X187.188 Y94.572 E0.02884
G1 X187.377 Y95.472 E0.02884
G1 X187.366 Y114.732 E0.60388
G1 X187.153 Y115.507 E0.02520
G1 X186.697 Y116.164 E0.02508
G1 X186.049 Y116.633 E0.02508
G1 X185.282 Y116.860 E0.02508
G1 X99.821 Y116.870 E2.67957
G1 X64.432 Y109.731 E1.13195
G1 X63.770 Y109.457 E0.02249
G1 X63.219 Y108.997 E0.02249
G1 X62.831 Y108.394 E0.02249
G1 X62.640 Y107.703 E0.02249
G1 X62.670 Y102.164 E0.17367
G1 F5760
G1 X62.858 Y101.546 E-0.22379
G1 F5760
G1 X63.180 Y101.048 E-0.20527
G1 F5760
G1 X63.615 Y100.646 E-0.20527
G1 F5760
G1 X63.933 Y100.472 E-0.12567
G1 E-0.04000 F2100.00000
G1 X65.587 Y103.525 F7200.000
G1 E0.80000 F2100.00000
G1 F3600
G1 X100.587 Y103.525 E1.09740
G1 X100.587 Y96.087 E0.23321
G1 X184.413 Y96.087 E2.62830
G1 X184.413 Y100.913 E0.15131
G1 X109.413 Y100.913 E2.35157
G1 X109.413 Y109.087 E0.25629
G1 X184.413 Y109.087 E2.35157
G1 X184.413 Y113.913 E0.15131
G1 X100.587 Y113.913 E2.62830
G1 X100.587 Y106.475 E0.23321
G1 X65.587 Y106.475 E1.09740
G1 X65.587 Y103.585 E0.09061
G1 F5760
G1 X67.781 Y103.581 E-0.76000
G1 E-0.04000 F2100.00000
G1 X109.790 Y101.290 F7200.000
G1 E0.80000 F2100.00000
G1 F3600
G1 X109.790 Y108.710 E0.23265
G1 X184.790 Y108.710 E2.35157
G1 X184.790 Y114.290 E0.17496
G1 X100.210 Y114.290 E2.65195
G1 X100.210 Y106.852 E0.23321
G1 X65.210 Y106.852 E1.09740
G1 X65.210 Y103.148 E0.11614
G1 X100.210 Y103.148 E1.09740
G1 X100.210 Y95.710 E0.23321
G1 X184.790 Y95.710 E2.65195
G1 X184.790 Y101.290 E0.17496
G1 X109.850 Y101.290 E2.34969
G1 X109.390 Y101.300 F7200.000
G1 F5760
G1 X109.832 Y103.484 E-0.76000
G1 E-0.04000 F2100.00000
G1 X100.678 Y106.362 F7200.000
G1 E0.80000 F2100.00000
G1 F3600
G1 X98.124 Y103.808 E0.11353
G1 X97.590 Y103.808 E0.01680
G1 X99.974 Y106.192 E0.10599
G1 X99.439 Y106.192 E0.01680
G1 X97.055 Y103.808 E0.10599
G1 X96.521 Y103.808 E0.01680
G1 X98.905 Y106.192 E0.10599
G1 X98.370 Y106.192 E0.01680
G1 X95.986 Y103.808 E0.10599
G1 X95.451 Y103.808 E0.01680
G1 X97.836 Y106.192 E0.10599
G1 X97.301 Y106.192 E0.01680
G1 X94.917 Y103.808 E0.10599
G1 X94.382 Y103.808 E0.01680
G1 X96.767 Y106.192 E0.10599
G1 X96.232 Y106.192 E0.01680
G1 X93.848 Y103.808 E0.10599
G1 X93.313 Y103.808 E0.01680
G1 X95.697 Y106.192 E0.10599
G1 X95.163 Y106.192 E0.01680
G1 X92.778 Y103.808 E0.10599
G1 X92.244 Y103.808 E0.01680
G1 X94.628 Y106.192 E0.10599
G1 X94.094 Y106.192 E0.01680
G1 X91.709 Y103.808 E0.10599
G1 X91.175 Y103.808 E0.01680
G1 X93.559 Y106.192 E0.10599
G1 X93.024 Y106.192 E0.01680
G1 X90.640 Y103.808 E0.10599
G1 X90.106 Y103.808 E0.01680
G1 X92.490 Y106.192 E0.10599
G1 X91.955 Y106.192 E0.01680
G1 X89.571 Y103.808 E0.10599
G1 X89.036 Y103.808 E0.01680
G1 X91.421 Y106.192 E0.10599
G1 X90.886 Y106.192 E0.01680
G1 X88.502 Y103.808 E0.10599
G1 X87.967 Y103.808 E0.01680
G1 X90.351 Y106.192 E0.10599
G1 X89.817 Y106.192 E0.01680
G1 X87.433 Y103.808 E0.10599
G1 X86.898 Y103.808 E0.01680
G1 X89.282 Y106.192 E0.10599
G1 X88.748 Y106.192 E0.01680
G1 X86.363 Y103.808 E0.10599
G1 X85.829 Y103.808 E0.01680
G1 X88.213 Y106.192 E0.10599
G1 X87.678 Y106.192 E0.01680
G1 X85.294 Y103.808 E0.10599
G1 X84.760 Y103.808 E0.01680
G1 X87.144 Y106.192 E0.10599
G1 X86.609 Y106.192 E0.01680
G1 X84.225 Y103.808 E0.10599
G1 X83.690 Y103.808 E0.01680
G1 X86.075 Y106.192 E0.10599
G1 X85.540 Y106.192 E0.01680
G1 X83.156 Y103.808 E0.10599
G1 X82.621 Y103.808 E0.01680
G1 X85.006 Y106.192 E0.10599
G1 X84.471 Y106.192 E0.01680
G1 X82.087 Y103.808 E0.10599
G1 X81.552 Y103.808 E0.01680
G1 X83.936 Y106.192 E0.10599
G1 X83.402 Y106.192 E0.01680
G1 X81.017 Y103.808 E0.10599
G1 X80.483 Y103.808 E0.01680
G1 X82.867 Y106.192 E0.10599
G1 X82.333 Y106.192 E0.01680
G1 X79.948 Y103.808 E0.10599
G1 X79.414 Y103.808 E0.01680
G1 X81.798 Y106.192 E0.10599
G1 X81.263 Y106.192 E0.01680
G1 X78.879 Y103.808 E0.10599
G1 X78.345 Y103.808 E0.01680
G1 X80.729 Y106.192 E0.10599
G1 X80.194 Y106.192 E0.01680
G1 X77.810 Y103.808 E0.10599
G1 X77.275 Y103.808 E0.01680
G1 X79.660 Y106.192 E0.10599
G1 X79.125 Y106.192 E0.01680
G1 X76.741 Y103.808 E0.10599
G1 X76.206 Y103.808 E0.01680
G1 X78.590 Y106.192 E0.10599
G1 X78.056 Y106.192 E0.01680
G1 X75.672 Y103.808 E0.10599
G1 X75.137 Y103.808 E0.01680
G1 X77.521 Y106.192 E0.10599
G1 X76.987 Y106.192 E0.01680
G1 X74.602 Y103.808 E0.10599
G1 X74.068 Y103.808 E0.01680
G1 X76.452 Y106.192 E0.10599
G1 X75.917 Y106.192 E0.01680
G1 X73.533 Y103.808 E0.10599
G1 X72.999 Y103.808 E0.01680
G1 X75.383 Y106.192 E0.10599
G1 X74.848 Y106.192 E0.01680
G1 X72.464 Y103.808 E0.10599
G1 X71.929 Y103.808 E0.01680
G1 X74.314 Y106.192 E0.10599
G1 X73.779 Y106.192 E0.01680
G1 X71.395 Y103.808 E0.10599
G1 X70.860 Y103.808 E0.01680
G1 X73.245 Y106.192 E0.10599
G1 X72.710 Y106.192 E0.01680
G1 X70.326 Y103.808 E0.10599
G1 X69.791 Y103.808 E0.01680
G1 X72.175 Y106.192 E0.10599
G1 X71.641 Y106.192 E0.01680
G1 X69.256 Y103.808 E0.10599
G1 X68.722 Y103.808 E0.01680
G1 X71.106 Y106.192 E0.10599
G1 X70.572 Y106.192 E0.01680
G1 X68.187 Y103.808 E0.10599
G1 X67.653 Y103.808 E0.01680
G1 X70.037 Y106.192 E0.10599
G1 X69.502 Y106.192 E0.01680
G1 X67.118 Y103.808 E0.10599
G1 X66.584 Y103.808 E0.01680
G1 X68.968 Y106.192 E0.10599
G1 X68.433 Y106.192 E0.01680
G1 X66.049 Y103.808 E0.10599
G1 X65.870 Y103.808 E0.00563
G1 X65.870 Y104.163 E0.01118
G1 X67.899 Y106.192 E0.09018
G1 X67.364 Y106.192 E0.01680
G1 X65.870 Y104.698 E0.06642
G1 X65.870 Y105.233 E0.01680
G1 X66.829 Y106.192 E0.04265
G1 X66.295 Y106.192 E0.01680
G1 X65.700 Y105.597 E0.02643
G1 F5760
G1 X66.295 Y106.192 E-0.29128
G1 F5760
G1 X66.829 Y106.192 E-0.18516
G1 F5760
G1 X66.251 Y105.613 E-0.28356
G1 E-0.04000 F2100.00000
G1 X101.167 Y113.800 F7200.000
G1 E0.80000 F2100.00000
G1 F3600
G1 X100.870 Y113.503 E0.01319
G1 X100.870 Y112.968 E0.01680
G1 X101.532 Y113.630 E0.02941
G1 X102.066 Y113.630 E0.01680
G1 X100.870 Y112.434 E0.05318
G1 X100.870 Y111.899 E0.01680
G1 X102.601 Y113.630 E0.07694
G1 X103.135 Y113.630 E0.01680
G1 X100.870 Y111.365 E0.10070
G1 X100.870 Y110.830 E0.01680
G1 X103.670 Y113.630 E0.12447
G1 X104.205 Y113.630 E0.01680
G1 X100.870 Y110.295 E0.14823
G1 X100.870 Y109.761 E0.01680
G1 X104.739 Y113.630 E0.17199
G1 X105.274 Y113.630 E0.01680
G1 X100.870 Y109.226 E0.19576
G1 X100.870 Y108.692 E0.01680
G1 X105.808 Y113.630 E0.21952
G1 X106.343 Y113.630 E0.01680
G1 X100.870 Y108.157 E0.24328
G1 X100.870 Y107.623 E0.01680
G1 X106.877 Y113.630 E0.26705
G1 X107.412 Y113.630 E0.01680
G1 X100.870 Y107.088 E0.29081
G1 X100.870 Y106.553 E0.01680
G1 X107.947 Y113.630 E0.31457
G1 X108.481 Y113.630 E0.01680
G1 X98.659 Y103.808 E0.43661
G1 X99.194 Y103.808 E0.01680
G1 X109.016 Y113.630 E0.43661
G1 X109.550 Y113.630 E0.01680
G1 X99.728 Y103.808 E0.43661
G1 X100.263 Y103.808 E0.01680
G1 X110.085 Y113.630 E0.43661
G1 X110.620 Y113.630 E0.01680
G1 X100.797 Y103.808 E0.43661
G1 X100.870 Y103.808 E0.00228
G1 X100.870 Y103.346 E0.01452
G1 X111.154 Y113.630 E0.45715
G1 X111.689 Y113.630 E0.01680
G1 X100.870 Y102.811 E0.48092
G1 X100.870 Y102.277 E0.01680
G1 X112.223 Y113.630 E0.50468
G1 X112.758 Y113.630 E0.01680
G1 X100.870 Y101.742 E0.52844
G1 X100.870 Y101.207 E0.01680
G1 X113.462 Y113.800 E0.55975
G1 F5760
G1 X111.911 Y112.248 E-0.76000
G1 E-0.04000 F2100.00000
G1 X183.705 Y109.200 F7200.000
G1 E0.80000 F2100.00000
G1 F3600
G1 X184.130 Y109.625 E0.01888
G1 X184.130 Y110.160 E0.01680
G1 X183.340 Y109.370 E0.03510
G1 X182.806 Y109.370 E0.01680
G1 X184.130 Y110.694 E0.05886
G1 X184.130 Y111.229 E0.01680
G1 X182.271 Y109.370 E0.08263
G1 X181.737 Y109.370 E0.01680
G1 X184.130 Y111.763 E0.10639
G1 X184.130 Y112.298 E0.01680
G1 X181.202 Y109.370 E0.13015
G1 X180.668 Y109.370 E0.01680
G1 X184.130 Y112.832 E0.15392
G1 X184.130 Y113.367 E0.01680
G1 X180.133 Y109.370 E0.17768
G1 X179.598 Y109.370 E0.01680
G1 X183.859 Y113.630 E0.18938
G1 X183.324 Y113.630 E0.01680
G1 X179.064 Y109.370 E0.18938
G1 X178.529 Y109.370 E0.01680
G1 X182.789 Y113.630 E0.18938
G1 X182.255 Y113.630 E0.01680
G1 X177.995 Y109.370 E0.18938
G1 X177.460 Y109.370 E0.01680
G1 X181.720 Y113.630 E0.18938
G1 X181.186 Y113.630 E0.01680
G1 X176.925 Y109.370 E0.18938
G1 X176.391 Y109.370 E0.01680
G1 X180.651 Y113.630 E0.18938
G1 X180.116 Y113.630 E0.01680
G1 X175.856 Y109.370 E0.18938
G1 X175.322 Y109.370 E0.01680
G1 X179.582 Y113.630 E0.18938
G1 X179.047 Y113.630 E0.01680
G1 X174.787 Y109.370 E0.18938
G1 X174.252 Y109.370 E0.01680
G1 X178.513 Y113.630 E0.18938
G1 X177.978 Y113.630 E0.01680
G1 X173.718 Y109.370 E0.18938
G1 X173.183 Y109.370 E0.01680
G1 X177.444 Y113.630 E0.18938
G1 X176.909 Y113.630 E0.01680
G1 X172.649 Y109.370 E0.18938
G1 X172.114 Y109.370 E0.01680
G1 X176.374 Y113.630 E0.18938
G1 X175.840 Y113.630 E0.01680
G1 X171.579 Y109.370 E0.18938
G1 X171.045 Y109.370 E0.01680
G1 X175.305 Y113.630 E0.18938
G1 X174.771 Y113.630 E0.01680
G1 X170.510 Y109.370 E0.18938
G1 X169.976 Y109.370 E0.01680
G1 X174.236 Y113.630 E0.18938
G1 X173.701 Y113.630 E0.01680
G1 X169.441 Y109.370 E0.18938
G1 X168.907 Y109.370 E0.01680
G1 X173.167 Y113.630 E0.18938
G1 X172.632 Y113.630 E0.01680
G1 X168.372 Y109.370 E0.18938
G1 X167.837 Y109.370 E0.01680
G1 X172.098 Y113.630 E0.18938
G1 X171.563 Y113.630 E0.01680
G1 X167.303 Y109.370 E0.18938
G1 X166.768 Y109.370 E0.01680
G1 X171.028 Y113.630 E0.18938
G1 X170.494 Y113.630 E0.01680
G1 X166.234 Y109.370 E0.18938
G1 X165.699 Y109.370 E0.01680
G1 X169.959 Y113.630 E0.18938
G1 X169.425 Y113.630 E0.01680
G1 X165.164 Y109.370 E0.18938
G1 X164.630 Y109.370 E0.01680
G1 X168.890 Y113.630 E0.18938
G1 X168.355 Y113.630 E0.01680
G1 X164.095 Y109.370 E0.18938
G1 X163.561 Y109.370 E0.01680
G1 X167.821 Y113.630 E0.18938
G1 X167.286 Y113.630 E0.01680
G1 X163.026 Y109.370 E0.18938
G1 X162.491 Y109.370 E0.01680
G1 X166.752 Y113.630 E0.18938
G1 X166.217 Y113.630 E0.01680
G1 X161.957 Y109.370 E0.18938
G1 X161.422 Y109.370 E0.01680
G1 X165.683 Y113.630 E0.18938
G1 X165.148 Y113.630 E0.01680
G1 X160.888 Y109.370 E0.18938
G1 X160.353 Y109.370 E0.01680
G1 X164.613 Y113.630 E0.18938
G1 X164.079 Y113.630 E0.01680
G1 X159.818 Y109.370 E0.18938
G1 X159.284 Y109.370 E0.01680
G1 X163.544 Y113.630 E0.18938
G1 X163.010 Y113.630 E0.01680
G1 X158.749 Y109.370 E0.18938
G1 X158.215 Y109.370 E0.01680
G1 X162.475 Y113.630 E0.18938
G1 X161.940 Y113.630 E0.01680
G1 X157.680 Y109.370 E0.18938
G1 X157.146 Y109.370 E0.01680
G1 X161.406 Y113.630 E0.18938
G1 X160.871 Y113.630 E0.01680
G1 X156.611 Y109.370 E0.18938
G1 X156.076 Y109.370 E0.01680
G1 X160.337 Y113.630 E0.18938
G1 X159.802 Y113.630 E0.01680
G1 X155.542 Y109.370 E0.18938
G1 X155.007 Y109.370 E0.01680
G1 X159.267 Y113.630 E0.18938
G1 X158.733 Y113.630 E0.01680
G1 X154.473 Y109.370 E0.18938
G1 X153.938 Y109.370 E0.01680
G1 X158.198 Y113.630 E0.18938
G1 X157.664 Y113.630 E0.01680
G1 X153.403 Y109.370 E0.18938
G1 X152.869 Y109.370 E0.01680
G1 X157.129 Y113.630 E0.18938
G1 X156.594 Y113.630 E0.01680
G1 X152.334 Y109.370 E0.18938
G1 X151.800 Y109.370 E0.01680
G1 X156.060 Y113.630 E0.18938
G1 X155.525 Y113.630 E0.01680
G1 X151.265 Y109.370 E0.18938
G1 X150.730 Y109.370 E0.01680
G1 X154.991 Y113.630 E0.18938
G1 X154.456 Y113.630 E0.01680
G1 X150.196 Y109.370 E0.18938
G1 X149.661 Y109.370 E0.01680
G1 X153.922 Y113.630 E0.18938
G1 X153.387 Y113.630 E0.01680
G1 X149.127 Y109.370 E0.18938
G1 X148.592 Y109.370 E0.01680
G1 X152.852 Y113.630 E0.18938
G1 X152.318 Y113.630 E0.01680
G1 X148.057 Y109.370 E0.18938
G1 X147.523 Y109.370 E0.01680
G1 X151.783 Y113.630 E0.18938
G1 X151.249 Y113.630 E0.01680
G1 X146.988 Y109.370 E0.18938
G1 X146.454 Y109.370 E0.01680
G1 X150.714 Y113.630 E0.18938
G1 X150.179 Y113.630 E0.01680
G1 X145.919 Y109.370 E0.18938
G1 X145.385 Y109.370 E0.01680
G1 X149.645 Y113.630 E0.18938
G1 X149.110 Y113.630 E0.01680
G1 X144.850 Y109.370 E0.18938
G1 X144.315 Y109.370 E0.01680
G1 X148.576 Y113.630 E0.18938
G1 X148.041 Y113.630 E0.01680
G1 X143.781 Y109.370 E0.18938
G1 X143.246 Y109.370 E0.01680
G1 X147.506 Y113.630 E0.18938
G1 X146.972 Y113.630 E0.01680
G1 X142.712 Y109.370 E0.18938
G1 X142.177 Y109.370 E0.01680
G1 X146.437 Y113.630 E0.18938
G1 X145.903 Y113.630 E0.01680
G1 X141.642 Y109.370 E0.18938
G1 X141.108 Y109.370 E0.01680
G1 X145.368 Y113.630 E0.18938
G1 X144.833 Y113.630 E0.01680
G1 X140.573 Y109.370 E0.18938
G1 X140.039 Y109.370 E0.01680
G1 X144.299 Y113.630 E0.18938
G1 X143.764 Y113.630 E0.01680
G1 X139.504 Y109.370 E0.18938
G1 X138.969 Y109.370 E0.01680
G1 X143.230 Y113.630 E0.18938
G1 X142.695 Y113.630 E0.01680
G1 X138.435 Y109.370 E0.18938
G1 X137.900 Y109.370 E0.01680
G1 X142.160 Y113.630 E0.18938
G1 X141.626 Y113.630 E0.01680
G1 X137.366 Y109.370 E0.18938
G1 X136.831 Y109.370 E0.01680
G1 X141.091 Y113.630 E0.18938
G1 X140.557 Y113.630 E0.01680
G1 X136.296 Y109.370 E0.18938
G1 X135.762 Y109.370 E0.01680
G1 X140.022 Y113.630 E0.18938
G1 X139.488 Y113.630 E0.01680
G1 X135.227 Y109.370 E0.18938
G1 X134.693 Y109.370 E0.01680
G1 X138.953 Y113.630 E0.18938
G1 X138.418 Y113.630 E0.01680
G1 X134.158 Y109.370 E0.18938
G1 X133.624 Y109.370 E0.01680
G1 X137.884 Y113.630 E0.18938
G1 X137.349 Y113.630 E0.01680
G1 X133.089 Y109.370 E0.18938
G1 X132.554 Y109.370 E0.01680
G1 X136.815 Y113.630 E0.18938
G1 X136.280 Y113.630 E0.01680
G1 X132.020 Y109.370 E0.18938
G1 X131.485 Y109.370 E0.01680
G1 X135.745 Y113.630 E0.18938
G1 X135.211 Y113.630 E0.01680
G1 X130.951 Y109.370 E0.18938
G1 X130.416 Y109.370 E0.01680
G1 X134.676 Y113.630 E0.18938
G1 X134.142 Y113.630 E0.01680
G1 X129.881 Y109.370 E0.18938
G1 X129.347 Y109.370 E0.01680
G1 X133.607 Y113.630 E0.18938
G1 X133.072 Y113.630 E0.01680
G1 X128.812 Y109.370 E0.18938
G1 X128.278 Y109.370 E0.01680
G1 X132.538 Y113.630 E0.18938
G1 X132.003 Y113.630 E0.01680
G1 X127.743 Y109.370 E0.18938
G1 X127.208 Y109.370 E0.01680
G1 X131.469 Y113.630 E0.18938
G1 X130.934 Y113.630 E0.01680
G1 X126.674 Y109.370 E0.18938
G1 X126.139 Y109.370 E0.01680
G1 X130.399 Y113.630 E0.18938
G1 X129.865 Y113.630 E0.01680
G1 X125.605 Y109.370 E0.18938
G1 X125.070 Y109.370 E0.01680
G1 X129.330 Y113.630 E0.18938
G1 X128.796 Y113.630 E0.01680
G1 X124.535 Y109.370 E0.18938
G1 X124.001 Y109.370 E0.01680
G1 X128.261 Y113.630 E0.18938
G1 X127.727 Y113.630 E0.01680
G1 X123.466 Y109.370 E0.18938
G1 X122.932 Y109.370 E0.01680
G1 X127.192 Y113.630 E0.18938
G1 X126.657 Y113.630 E0.01680
G1 X122.397 Y109.370 E0.18938
G1 X121.862 Y109.370 E0.01680
G1 X126.123 Y113.630 E0.18938
G1 X125.588 Y113.630 E0.01680
G1 X121.328 Y109.370 E0.18938
G1 X120.793 Y109.370 E0.01680
G1 X125.054 Y113.630 E0.18938
G1 X124.519 Y113.630 E0.01680
G1 X120.259 Y109.370 E0.18938
G1 X119.724 Y109.370 E0.01680
G1 X123.984 Y113.630 E0.18938
G1 X123.450 Y113.630 E0.01680
G1 X119.190 Y109.370 E0.18938
G1 X118.655 Y109.370 E0.01680
G1 X122.915 Y113.630 E0.18938
G1 X122.381 Y113.630 E0.01680
G1 X118.120 Y109.370 E0.18938
G1 X117.586 Y109.370 E0.01680
G1 X121.846 Y113.630 E0.18938
G1 X121.311 Y113.630 E0.01680
G1 X117.051 Y109.370 E0.18938
