; generated by Slic3r 1.37.2-prusa3d-win64 on 2017-12-23 at 21:02:58

; 

; external perimeters extrusion width = 0.60mm
; perimeters extrusion width = 0.43mm
; infill extrusion width = 0.70mm
; solid infill extrusion width = 0.70mm
; top infill extrusion width = 0.43mm
; first layer extrusion width = 0.42mm

M107
M115 U3.1.0 ; tell printer latest fw version
M83  ; extruder relative mode
M104 S150
M140 S65 ; set bed temp
G28 W ; home all without mesh bed level
G1 X125 Z80 F1000
M190 S65 ; wait for bed temp
M104 S220 ; set extruder temp
G80 ; mesh bed leveling
M109 S220 ; wait for extruder temp
G1 Y-3.0 F1000.0 ; go outside print area
G92 E0.0
G1 X60.0 E9.0  F1000.0 ; intro line
G1 X100.0 E12.5  F1000.0 ; intro line
G92 E0.0
M900 K30 ; Filament gcode
G21 ; set units to millimeters
G90 ; use absolute coordinates
M83 ; use relative distances for extrusion
;BEFORE_LAYER_CHANGE
;0.2


G1 E-0.80000 F2100.00000
G1 Z0.200 F7200.000
;AFTER_LAYER_CHANGE
;0.2
G1 X67.296 Y128.688 F7200.000
G1 E0.80000 F2100.00000
M204 S1000
G1 F3600
G1 X66.880 Y127.842 E0.02954
G1 X66.802 Y127.247 E0.01882
G1 X66.802 Y103.227 E0.75315
G1 X66.862 Y102.709 E0.01633
G1 X67.031 Y102.221 E0.01621
G1 X67.404 Y101.658 E0.02119
G1 X67.924 Y101.220 E0.02130
G1 X83.423 Y91.915 E0.56681
G1 X84.032 Y91.660 E0.02071
G1 X84.636 Y91.582 E0.01910
G1 X205.140 Y91.582 E3.77830
G1 X205.713 Y91.653 E0.01811
G1 X206.255 Y91.862 E0.01823
G1 X221.768 Y100.463 E0.55615
G1 X222.231 Y100.833 E0.01858
G1 X222.590 Y101.310 E0.01870
G1 X222.819 Y101.860 E0.01870
G1 X222.903 Y102.451 E0.01870
G1 X222.904 Y126.513 E0.75446
G1 X222.842 Y127.030 E0.01633
G1 X222.669 Y127.521 E0.01633
G1 X222.292 Y128.082 E0.02119
G1 X221.773 Y128.515 E0.02119
G1 X206.489 Y137.584 E0.55723
G1 X205.889 Y137.833 E0.02036
G1 X205.286 Y137.911 E0.01908
G1 X84.615 Y137.905 E3.78355
G1 X83.694 Y137.645 E0.03001
G1 X68.007 Y129.306 E0.55703
G1 X67.341 Y128.728 E0.02766
G1 F5760
G1 X66.880 Y127.842 E-0.34557
G1 F5760
G1 X66.802 Y127.247 E-0.20789
G1 F5760
G1 X66.802 Y126.651 E-0.20655
G1 E-0.04000 F2100.00000
G1 X86.444 Y117.193 F7200.000
G1 E0.80000 F2100.00000
G1 F3600
G1 X113.127 Y117.193 E0.83661
G1 X113.127 Y133.876 E0.52307
G1 X86.444 Y133.876 E0.83661
G1 X86.444 Y117.253 E0.52119
G1 X86.822 Y117.571 F7200.000
G1 F3600
G1 X112.750 Y117.571 E0.81296
G1 X112.750 Y133.499 E0.49942
G1 X86.822 Y133.499 E0.81296
G1 X86.822 Y117.631 E0.49754
G1 X87.199 Y117.948 F7200.000
G1 F3600
G1 X112.373 Y117.948 E0.78932
G1 X112.373 Y133.122 E0.47578
G1 X87.199 Y133.122 E0.78932
G1 X87.199 Y118.008 E0.47389
G1 X87.576 Y118.325 F7200.000
G1 F3600
G1 X111.996 Y118.325 E0.76567
G1 X111.996 Y132.745 E0.45213
G1 X87.576 Y132.745 E0.76567
G1 X87.576 Y118.385 E0.45025
G1 X87.440 Y117.948 F7200.000
G1 F5760
G1 X89.770 Y118.379 E-0.76000
G1 E-0.04000 F2100.00000
G1 X113.444 Y117.204 F7200.000
G1 E0.80000 F2100.00000
G1 F3600
G1 X175.627 Y117.204 E1.94968
G1 X175.627 Y133.864 E0.52235
G1 X113.444 Y133.864 E1.94968
G1 X113.444 Y117.264 E0.52047
G1 X113.822 Y117.581 F7200.000
G1 F3600
G1 X175.250 Y117.581 E1.92603
G1 X175.250 Y133.487 E0.49870
G1 X113.822 Y133.487 E1.92603
G1 X113.822 Y117.641 E0.49682
G1 X114.199 Y117.958 F7200.000
G1 F3600
G1 X174.872 Y117.958 E1.90239
G1 X174.872 Y133.110 E0.47506
G1 X114.199 Y133.110 E1.90239
G1 X114.199 Y118.018 E0.47317
G1 X114.576 Y118.335 F7200.000
G1 F3600
G1 X174.495 Y118.335 E1.87874
G1 X174.495 Y132.733 E0.45141
G1 X114.576 Y132.733 E1.87874
G1 X114.576 Y118.395 E0.44953
G1 X114.404 Y117.974 F7200.000
G1 F5760
G1 X116.770 Y118.393 E-0.76000
G1 E-0.04000 F2100.00000
G1 X86.127 Y116.876 F7200.000
G1 E0.80000 F2100.00000
G1 F3600
G1 X203.944 Y116.876 E3.69407
G1 X203.944 Y134.193 E0.54296
G1 X86.127 Y134.193 E3.69407
G1 X86.127 Y116.936 E0.54108
G1 X85.750 Y116.499 F7200.000
G1 F3600
G1 X204.321 Y116.499 E3.71772
G1 X204.321 Y134.570 E0.56661
G1 X85.750 Y134.570 E3.71772
G1 X85.750 Y116.559 E0.56472
G1 X85.373 Y116.122 F7200.000
G1 F3600
G1 X204.699 Y116.122 E3.74137
G1 X204.699 Y134.947 E0.59025
G1 X85.373 Y134.947 E3.74137
G1 X85.373 Y116.182 E0.58837
G1 X84.996 Y115.745 F7200.000
G1 F3600
G1 X205.076 Y115.745 E3.76501
G1 X205.076 Y135.324 E0.61390
G1 X84.996 Y135.324 E3.76501
G1 X84.996 Y115.805 E0.61202
G1 X85.395 Y115.766 F7200.000
G1 F5760
G1 X87.190 Y115.804 E-0.76000
G1 E-0.04000 F2100.00000
G1 X176.510 Y134.080 F7200.000
G1 E0.80000 F2100.00000
G1 F3600
G1 X175.909 Y133.479 E0.02691
G1 X175.909 Y132.940 E0.01707
G1 X176.879 Y133.910 E0.04345
G1 X177.418 Y133.910 E0.01707
G1 X175.909 Y132.402 E0.06759
G1 X175.909 Y131.863 E0.01707
G1 X177.957 Y133.910 E0.09172
G1 X178.496 Y133.910 E0.01707
G1 X175.909 Y131.324 E0.11586
G1 X175.909 Y130.785 E0.01707
G1 X179.034 Y133.910 E0.14000
G1 X179.573 Y133.910 E0.01707
G1 X175.909 Y130.246 E0.16414
G1 X175.909 Y129.708 E0.01707
G1 X180.112 Y133.910 E0.18827
G1 X180.651 Y133.910 E0.01707
G1 X175.909 Y129.169 E0.21241
G1 X175.909 Y128.630 E0.01707
G1 X181.190 Y133.910 E0.23655
G1 X181.728 Y133.910 E0.01707
G1 X175.909 Y128.091 E0.26068
G1 X175.909 Y127.553 E0.01707
G1 X182.267 Y133.910 E0.28482
G1 X182.806 Y133.910 E0.01707
G1 X175.909 Y127.014 E0.30896
G1 X175.909 Y126.475 E0.01707
G1 X183.345 Y133.910 E0.33310
G1 X183.883 Y133.910 E0.01707
G1 X175.909 Y125.936 E0.35723
G1 X175.909 Y125.397 E0.01707
G1 X184.422 Y133.910 E0.38137
G1 X184.961 Y133.910 E0.01707
G1 X175.909 Y124.859 E0.40551
G1 X175.909 Y124.320 E0.01707
G1 X185.500 Y133.910 E0.42965
G1 X186.039 Y133.910 E0.01707
G1 X175.909 Y123.781 E0.45378
G1 X175.909 Y123.242 E0.01707
G1 X186.577 Y133.910 E0.47792
G1 X187.116 Y133.910 E0.01707
G1 X175.909 Y122.703 E0.50206
G1 X175.909 Y122.165 E0.01707
G1 X187.655 Y133.910 E0.52620
G1 X188.194 Y133.910 E0.01707
G1 X175.909 Y121.626 E0.55033
G1 X175.909 Y121.087 E0.01707
G1 X188.732 Y133.910 E0.57447
G1 X189.271 Y133.910 E0.01707
G1 X175.909 Y120.548 E0.59861
G1 X175.909 Y120.010 E0.01707
G1 X189.810 Y133.910 E0.62274
G1 X190.349 Y133.910 E0.01707
G1 X175.909 Y119.471 E0.64688
G1 X175.909 Y118.932 E0.01707
G1 X190.888 Y133.910 E0.67102
G1 X191.426 Y133.910 E0.01707
G1 X175.909 Y118.393 E0.69516
G1 X175.909 Y117.854 E0.01707
G1 X191.965 Y133.910 E0.71929
G1 X192.504 Y133.910 E0.01707
G1 X175.909 Y117.316 E0.74343
G1 X175.909 Y117.159 E0.00497
G1 X176.291 Y117.159 E0.01210
G1 X193.043 Y133.910 E0.75046
G1 X193.581 Y133.910 E0.01707
G1 X176.830 Y117.159 E0.75046
G1 X177.369 Y117.159 E0.01707
G1 X194.120 Y133.910 E0.75046
G1 X194.659 Y133.910 E0.01707
G1 X177.908 Y117.159 E0.75046
G1 X178.446 Y117.159 E0.01707
G1 X195.198 Y133.910 E0.75046
G1 X195.737 Y133.910 E0.01707
G1 X178.985 Y117.159 E0.75046
G1 X179.524 Y117.159 E0.01707
G1 X196.275 Y133.910 E0.75046
G1 X196.814 Y133.910 E0.01707
G1 X180.063 Y117.159 E0.75046
G1 X180.602 Y117.159 E0.01707
G1 X197.353 Y133.910 E0.75046
G1 X197.892 Y133.910 E0.01707
G1 X181.140 Y117.159 E0.75046
G1 X181.679 Y117.159 E0.01707
G1 X198.431 Y133.910 E0.75046
G1 X198.969 Y133.910 E0.01707
G1 X182.218 Y117.159 E0.75046
G1 X182.757 Y117.159 E0.01707
G1 X199.508 Y133.910 E0.75046
G1 X200.047 Y133.910 E0.01707
G1 X183.296 Y117.159 E0.75046
G1 X183.834 Y117.159 E0.01707
G1 X200.586 Y133.910 E0.75046
G1 X201.124 Y133.910 E0.01707
G1 X184.373 Y117.159 E0.75046
G1 X184.912 Y117.159 E0.01707
G1 X201.663 Y133.910 E0.75046
G1 X202.202 Y133.910 E0.01707
G1 X185.451 Y117.159 E0.75046
G1 X185.989 Y117.159 E0.01707
G1 X202.741 Y133.910 E0.75046
G1 X203.280 Y133.910 E0.01707
G1 X186.528 Y117.159 E0.75046
G1 X187.067 Y117.159 E0.01707
G1 X203.662 Y133.753 E0.74344
G1 X203.662 Y133.215 E0.01707
G1 X187.606 Y117.159 E0.71930
G1 X188.145 Y117.159 E0.01707
G1 X203.662 Y132.676 E0.69516
G1 X203.662 Y132.137 E0.01707
G1 X188.683 Y117.159 E0.67102
G1 X189.222 Y117.159 E0.01707
G1 X203.662 Y131.598 E0.64689
G1 X203.662 Y131.060 E0.01707
G1 X189.761 Y117.159 E0.62275
G1 X190.300 Y117.159 E0.01707
G1 X203.662 Y130.521 E0.59861
G1 X203.662 Y129.982 E0.01707
G1 X190.838 Y117.159 E0.57447
G1 X191.377 Y117.159 E0.01707
G1 X203.662 Y129.443 E0.55034
G1 X203.662 Y128.904 E0.01707
G1 X191.916 Y117.159 E0.52620
G1 X192.455 Y117.159 E0.01707
G1 X203.662 Y128.366 E0.50206
G1 X203.662 Y127.827 E0.01707
G1 X192.994 Y117.159 E0.47792
G1 X193.532 Y117.159 E0.01707
G1 X203.662 Y127.288 E0.45379
G1 X203.662 Y126.749 E0.01707
G1 X194.071 Y117.159 E0.42965
G1 X194.610 Y117.159 E0.01707
G1 X203.662 Y126.210 E0.40551
G1 X203.662 Y125.672 E0.01707
G1 X195.149 Y117.159 E0.38138
G1 X195.687 Y117.159 E0.01707
G1 X203.662 Y125.133 E0.35724
G1 X203.662 Y124.594 E0.01707
G1 X196.226 Y117.159 E0.33310
G1 X196.765 Y117.159 E0.01707
G1 X203.662 Y124.055 E0.30896
G1 X203.662 Y123.517 E0.01707
G1 X197.304 Y117.159 E0.28483
G1 X197.843 Y117.159 E0.01707
G1 X203.662 Y122.978 E0.26069
G1 X203.662 Y122.439 E0.01707
G1 X198.381 Y117.159 E0.23655
G1 X198.920 Y117.159 E0.01707
G1 X203.662 Y121.900 E0.21241
G1 X203.662 Y121.361 E0.01707
G1 X199.459 Y117.159 E0.18828
G1 X199.998 Y117.159 E0.01707
G1 X203.662 Y120.823 E0.16414
G1 X203.662 Y120.284 E0.01707
G1 X200.536 Y117.159 E0.14000
G1 X201.075 Y117.159 E0.01707
G1 X203.662 Y119.745 E0.11587
G1 X203.662 Y119.206 E0.01707
G1 X201.614 Y117.159 E0.09173
G1 X202.153 Y117.159 E0.01707
G1 X203.662 Y118.668 E0.06759
G1 X203.662 Y118.129 E0.01707
G1 X202.692 Y117.159 E0.04345
G1 X203.230 Y117.159 E0.01707
G1 X203.831 Y117.760 E0.02692
G1 F5760
G1 X203.230 Y117.159 E-0.29431
G1 F5760
G1 X202.692 Y117.159 E-0.18661
G1 F5760
G1 X203.261 Y117.729 E-0.27908
G1 E-0.04000 F2100.00000
G1 X112.977 Y112.300 F7200.000
G1 E0.80000 F2100.00000
G1 F3600
G1 X86.295 Y112.300 E0.83661
G1 X86.295 Y95.618 E0.52307
G1 X112.977 Y95.618 E0.83661
G1 X112.977 Y112.240 E0.52119
G1 X112.600 Y111.923 F7200.000
G1 F3600
G1 X86.672 Y111.923 E0.81296
G1 X86.672 Y95.995 E0.49942
G1 X112.600 Y95.995 E0.81296
G1 X112.600 Y111.863 E0.49754
G1 X112.223 Y111.546 F7200.000
G1 F3600
G1 X87.049 Y111.546 E0.78932
G1 X87.049 Y96.372 E0.47578
G1 X112.223 Y96.372 E0.78932
G1 X112.223 Y111.486 E0.47389
G1 X111.846 Y111.169 F7200.000
G1 F3600
G1 X87.426 Y111.169 E0.76567
G1 X87.426 Y96.749 E0.45213
G1 X111.846 Y96.749 E0.76567
G1 X111.846 Y111.109 E0.45025
G1 X111.982 Y111.545 F7200.000
G1 F5760
G1 X109.652 Y111.114 E-0.76000
G1 E-0.04000 F2100.00000
G1 X113.295 Y95.628 F7200.000
G1 E0.80000 F2100.00000
G1 F3600
G1 X175.477 Y95.628 E1.94968
G1 X175.477 Y112.288 E0.52235
G1 X113.295 Y112.288 E1.94968
G1 X113.295 Y95.688 E0.52047
G1 X113.672 Y96.006 F7200.000
G1 F3600
G1 X175.100 Y96.006 E1.92603
G1 X175.100 Y111.911 E0.49870
G1 X113.672 Y111.911 E1.92603
G1 X113.672 Y96.066 E0.49682
G1 X114.049 Y96.383 F7200.000
G1 F3600
G1 X174.723 Y96.383 E1.90239
G1 X174.723 Y111.534 E0.47506
G1 X114.049 Y111.534 E1.90239
G1 X114.049 Y96.443 E0.47317
G1 X114.426 Y96.760 F7200.000
G1 F3600
G1 X174.346 Y96.760 E1.87874
G1 X174.346 Y111.157 E0.45141
G1 X114.426 Y111.157 E1.87874
G1 X114.426 Y96.820 E0.44953
G1 X114.254 Y96.399 F7200.000
G1 F5760
G1 X116.620 Y96.818 E-0.76000
G1 E-0.04000 F2100.00000
G1 X85.978 Y95.300 F7200.000
G1 E0.80000 F2100.00000
G1 F3600
G1 X203.795 Y95.300 E3.69407
G1 X203.795 Y112.617 E0.54296
G1 X85.978 Y112.617 E3.69407
G1 X85.978 Y95.360 E0.54108
G1 X85.601 Y94.923 F7200.000
G1 F3600
G1 X204.172 Y94.923 E3.71772
G1 X204.172 Y112.994 E0.56661
G1 X85.601 Y112.994 E3.71772
G1 X85.601 Y94.983 E0.56472
G1 X85.224 Y94.546 F7200.000
G1 F3600
G1 X204.549 Y94.546 E3.74137
G1 X204.549 Y113.371 E0.59025
G1 X85.224 Y113.371 E3.74137
G1 X85.224 Y94.606 E0.58837
G1 X84.846 Y94.169 F7200.000
G1 F3600
G1 X204.926 Y94.169 E3.76501
G1 X204.926 Y113.748 E0.61390
G1 X84.846 Y113.748 E3.76501
G1 X84.846 Y94.229 E0.61202
G1 X85.246 Y94.191 F7200.000
G1 F5760
G1 X87.041 Y94.228 E-0.76000
G1 E-0.04000 F2100.00000
G1 X176.361 Y112.504 F7200.000
G1 E0.80000 F2100.00000
G1 F3600
G1 X175.760 Y111.903 E0.02691
G1 X175.760 Y111.365 E0.01707
G1 X176.730 Y112.334 E0.04345
G1 X177.269 Y112.334 E0.01707
G1 X175.760 Y110.826 E0.06759
G1 X175.760 Y110.287 E0.01707
G1 X177.807 Y112.334 E0.09172
G1 X178.346 Y112.334 E0.01707
G1 X175.760 Y109.748 E0.11586
G1 X175.760 Y109.209 E0.01707
G1 X178.885 Y112.334 E0.14000
G1 X179.424 Y112.334 E0.01707
G1 X175.760 Y108.671 E0.16414
G1 X175.760 Y108.132 E0.01707
G1 X179.962 Y112.334 E0.18827
G1 X180.501 Y112.334 E0.01707
G1 X175.760 Y107.593 E0.21241
G1 X175.760 Y107.054 E0.01707
G1 X181.040 Y112.334 E0.23655
G1 X181.579 Y112.334 E0.01707
G1 X175.760 Y106.516 E0.26068
G1 X175.760 Y105.977 E0.01707
G1 X182.118 Y112.334 E0.28482
G1 X182.656 Y112.334 E0.01707
G1 X175.760 Y105.438 E0.30896
G1 X175.760 Y104.899 E0.01707
G1 X183.195 Y112.334 E0.33310
G1 X183.734 Y112.334 E0.01707
G1 X175.760 Y104.360 E0.35723
G1 X175.760 Y103.822 E0.01707
G1 X184.273 Y112.334 E0.38137
G1 X184.811 Y112.334 E0.01707
G1 X175.760 Y103.283 E0.40551
G1 X175.760 Y102.744 E0.01707
G1 X185.350 Y112.334 E0.42965
G1 X185.889 Y112.334 E0.01707
G1 X175.760 Y102.205 E0.45378
G1 X175.760 Y101.667 E0.01707
G1 X186.428 Y112.334 E0.47792
G1 X186.967 Y112.334 E0.01707
G1 X175.760 Y101.128 E0.50206
G1 X175.760 Y100.589 E0.01707
G1 X187.505 Y112.334 E0.52620
G1 X188.044 Y112.334 E0.01707
G1 X175.760 Y100.050 E0.55033
G1 X175.760 Y99.511 E0.01707
G1 X188.583 Y112.334 E0.57447
G1 X189.122 Y112.334 E0.01707
G1 X175.760 Y98.973 E0.59861
G1 X175.760 Y98.434 E0.01707
G1 X189.660 Y112.334 E0.62274
G1 X190.199 Y112.334 E0.01707
G1 X175.760 Y97.895 E0.64688
G1 X175.760 Y97.356 E0.01707
G1 X190.738 Y112.334 E0.67102
G1 X191.277 Y112.334 E0.01707
G1 X175.760 Y96.818 E0.69516
G1 X175.760 Y96.279 E0.01707
G1 X191.816 Y112.334 E0.71929
G1 X192.354 Y112.334 E0.01707
G1 X175.760 Y95.740 E0.74343
G1 X175.760 Y95.583 E0.00497
G1 X176.142 Y95.583 E0.01210
G1 X192.893 Y112.334 E0.75046
G1 X193.432 Y112.334 E0.01707
G1 X176.681 Y95.583 E0.75046
G1 X177.219 Y95.583 E0.01707
G1 X193.971 Y112.334 E0.75046
G1 X194.510 Y112.334 E0.01707
G1 X177.758 Y95.583 E0.75046
G1 X178.297 Y95.583 E0.01707
G1 X195.048 Y112.334 E0.75046
G1 X195.587 Y112.334 E0.01707
G1 X178.836 Y95.583 E0.75046
G1 X179.375 Y95.583 E0.01707
G1 X196.126 Y112.334 E0.75046
G1 X196.665 Y112.334 E0.01707
G1 X179.913 Y95.583 E0.75046
G1 X180.452 Y95.583 E0.01707
G1 X197.203 Y112.334 E0.75046
G1 X197.742 Y112.334 E0.01707
G1 X180.991 Y95.583 E0.75046
G1 X181.530 Y95.583 E0.01707
G1 X198.281 Y112.334 E0.75046
G1 X198.820 Y112.334 E0.01707
G1 X182.068 Y95.583 E0.75046
G1 X182.607 Y95.583 E0.01707
G1 X199.359 Y112.334 E0.75046
G1 X199.897 Y112.334 E0.01707
G1 X183.146 Y95.583 E0.75046
G1 X183.685 Y95.583 E0.01707
G1 X200.436 Y112.334 E0.75046
G1 X200.975 Y112.334 E0.01707
G1 X184.224 Y95.583 E0.75046
G1 X184.762 Y95.583 E0.01707
G1 X201.514 Y112.334 E0.75046
G1 X202.052 Y112.334 E0.01707
G1 X185.301 Y95.583 E0.75046
G1 X185.840 Y95.583 E0.01707
G1 X202.591 Y112.334 E0.75046
G1 X203.130 Y112.334 E0.01707
G1 X186.379 Y95.583 E0.75046
G1 X186.917 Y95.583 E0.01707
G1 X203.512 Y112.178 E0.74344
G1 X203.512 Y111.639 E0.01707
G1 X187.456 Y95.583 E0.71930
G1 X187.995 Y95.583 E0.01707
G1 X203.512 Y111.100 E0.69516
G1 X203.512 Y110.561 E0.01707
G1 X188.534 Y95.583 E0.67102
G1 X189.073 Y95.583 E0.01707
G1 X203.512 Y110.023 E0.64689
G1 X203.512 Y109.484 E0.01707
G1 X189.611 Y95.583 E0.62275
G1 X190.150 Y95.583 E0.01707
G1 X203.512 Y108.945 E0.59861
G1 X203.512 Y108.406 E0.01707
G1 X190.689 Y95.583 E0.57447
G1 X191.228 Y95.583 E0.01707
G1 X203.512 Y107.867 E0.55034
G1 X203.512 Y107.329 E0.01707
G1 X191.766 Y95.583 E0.52620
G1 X192.305 Y95.583 E0.01707
G1 X203.512 Y106.790 E0.50206
G1 X203.512 Y106.251 E0.01707
G1 X192.844 Y95.583 E0.47792
G1 X193.383 Y95.583 E0.01707
G1 X203.512 Y105.712 E0.45379
G1 X203.512 Y105.174 E0.01707
G1 X193.922 Y95.583 E0.42965
G1 X194.460 Y95.583 E0.01707
G1 X203.512 Y104.635 E0.40551
G1 X203.512 Y104.096 E0.01707
G1 X194.999 Y95.583 E0.38138
G1 X195.538 Y95.583 E0.01707
G1 X203.512 Y103.557 E0.35724
G1 X203.512 Y103.018 E0.01707
G1 X196.077 Y95.583 E0.33310
G1 X196.615 Y95.583 E0.01707
G1 X203.512 Y102.480 E0.30896
G1 X203.512 Y101.941 E0.01707
G1 X197.154 Y95.583 E0.28483
G1 X197.693 Y95.583 E0.01707
G1 X203.512 Y101.402 E0.26069
