; generated by Slic3r 1.37.2-prusa3d-win64 on 2017-12-21 at 21:59:25

; 

; external perimeters extrusion width = 0.60mm
; perimeters extrusion width = 0.43mm
; infill extrusion width = 0.70mm
; solid infill extrusion width = 0.70mm
; top infill extrusion width = 0.43mm
; first layer extrusion width = 0.42mm

M107
M115 U3.1.0 ; tell printer latest fw version
M83  ; extruder relative mode
M104 S150
M140 S100 ; set bed temp
G28 W ; home all without mesh bed level
G1 X125 Z80 F1000
M190 S100 ; wait for bed temp
M104 S265 ; set extruder temp
G80 ; mesh bed leveling
M109 S265 ; wait for extruder temp
G1 Y-3.0 F1000.0 ; go outside print area
G92 E0.0
G1 X60.0 E9.0  F1000.0 ; intro line
G1 X100.0 E12.5  F1000.0 ; intro line
G92 E0.0
M900 K30 ; Filament gcode
G21 ; set units to millimeters
G90 ; use absolute coordinates
M83 ; use relative distances for extrusion
;BEFORE_LAYER_CHANGE
;0.2


G1 E-0.80000 F2100.00000
G1 Z0.200 F7200.000
;AFTER_LAYER_CHANGE
;0.2
G1 X62.840 Y109.275 F7200.000
G1 E0.80000 F2100.00000
M204 S1000
G1 F3600
G1 X62.644 Y108.597 E0.02213
G1 X62.650 Y101.358 E0.22699
G1 X62.813 Y100.788 E0.01858
G1 X63.113 Y100.272 E0.01870
G1 X63.529 Y99.851 E0.01858
G1 X64.041 Y99.543 E0.01870
G1 X64.522 Y99.390 E0.01585
G1 X99.684 Y92.244 E1.12501
G1 X185.004 Y92.223 E2.67514
G1 X185.902 Y92.401 E0.02872
G1 X186.670 Y92.908 E0.02884
G1 X187.187 Y93.669 E0.02884
G1 X187.377 Y94.568 E0.02884
G1 X187.368 Y115.609 E0.65972
G1 X187.166 Y116.379 E0.02496
G1 X186.719 Y117.042 E0.02508
G1 X186.080 Y117.518 E0.02496
G1 X185.316 Y117.756 E0.02508
G1 X99.821 Y117.770 E2.68064
G1 X64.430 Y110.589 E1.13229
G1 X63.777 Y110.320 E0.02213
G1 X63.230 Y109.868 E0.02225
G1 X62.873 Y109.325 E0.02037
G1 F5760
G1 X62.644 Y108.597 E-0.26441
G1 F5760
G1 X62.645 Y107.166 E-0.49559
G1 E-0.04000 F2100.00000
G1 X65.587 Y107.334 F7200.000
G1 E0.80000 F2100.00000
G1 F3600
G1 X65.587 Y102.666 E0.14636
G1 X100.587 Y102.666 E1.09740
G1 X100.587 Y95.187 E0.23450
G1 X184.413 Y95.187 E2.62830
G1 X184.413 Y100.913 E0.17953
G1 X109.413 Y100.913 E2.35157
G1 X109.413 Y109.087 E0.25629
G1 X184.413 Y109.087 E2.35157
G1 X184.413 Y114.813 E0.17953
G1 X100.587 Y114.813 E2.62830
G1 X100.587 Y107.334 E0.23450
G1 X65.647 Y107.334 E1.09552
G1 F5760
G1 X65.619 Y105.140 E-0.76000
G1 E-0.04000 F2100.00000
G1 X109.790 Y101.290 F7200.000
G1 E0.80000 F2100.00000
G1 F3600
G1 X109.790 Y108.710 E0.23265
G1 X184.790 Y108.710 E2.35157
G1 X184.790 Y115.190 E0.20318
G1 X100.210 Y115.190 E2.65195
G1 X100.210 Y107.711 E0.23450
G1 X65.210 Y107.711 E1.09740
G1 X65.210 Y102.289 E0.17000
G1 X100.210 Y102.289 E1.09740
G1 X100.210 Y94.810 E0.23450
G1 X184.790 Y94.810 E2.65195
G1 X184.790 Y101.290 E0.20318
G1 X109.850 Y101.290 E2.34969
G1 X109.390 Y101.301 F7200.000
G1 F5760
G1 X109.832 Y103.484 E-0.76000
G1 E-0.04000 F2100.00000
G1 X100.185 Y107.221 F7200.000
G1 E0.80000 F2100.00000
G1 F3600
G1 X95.913 Y102.949 E0.19012
G1 X95.378 Y102.949 E0.01684
G1 X99.480 Y107.051 E0.18257
G1 X98.945 Y107.051 E0.01684
G1 X94.842 Y102.949 E0.18257
G1 X94.307 Y102.949 E0.01684
G1 X98.409 Y107.051 E0.18257
G1 X97.874 Y107.051 E0.01684
G1 X93.772 Y102.949 E0.18257
G1 X93.237 Y102.949 E0.01684
G1 X97.339 Y107.051 E0.18257
G1 X96.804 Y107.051 E0.01684
G1 X92.701 Y102.949 E0.18257
G1 X92.166 Y102.949 E0.01684
G1 X96.268 Y107.051 E0.18257
G1 X95.733 Y107.051 E0.01684
G1 X91.631 Y102.949 E0.18257
G1 X91.096 Y102.949 E0.01684
G1 X95.198 Y107.051 E0.18257
G1 X94.663 Y107.051 E0.01684
G1 X90.561 Y102.949 E0.18257
G1 X90.025 Y102.949 E0.01684
G1 X94.128 Y107.051 E0.18257
G1 X93.592 Y107.051 E0.01684
G1 X89.490 Y102.949 E0.18257
G1 X88.955 Y102.949 E0.01684
G1 X93.057 Y107.051 E0.18257
G1 X92.522 Y107.051 E0.01684
G1 X88.420 Y102.949 E0.18257
G1 X87.884 Y102.949 E0.01684
G1 X91.987 Y107.051 E0.18257
G1 X91.451 Y107.051 E0.01684
G1 X87.349 Y102.949 E0.18257
G1 X86.814 Y102.949 E0.01684
G1 X90.916 Y107.051 E0.18257
G1 X90.381 Y107.051 E0.01684
G1 X86.279 Y102.949 E0.18257
G1 X85.743 Y102.949 E0.01684
G1 X89.846 Y107.051 E0.18257
G1 X89.311 Y107.051 E0.01684
G1 X85.208 Y102.949 E0.18257
G1 X84.673 Y102.949 E0.01684
G1 X88.775 Y107.051 E0.18257
G1 X88.240 Y107.051 E0.01684
G1 X84.138 Y102.949 E0.18257
G1 X83.603 Y102.949 E0.01684
G1 X87.705 Y107.051 E0.18257
G1 X87.170 Y107.051 E0.01684
G1 X83.067 Y102.949 E0.18257
G1 X82.532 Y102.949 E0.01684
G1 X86.634 Y107.051 E0.18257
G1 X86.099 Y107.051 E0.01684
G1 X81.997 Y102.949 E0.18257
G1 X81.462 Y102.949 E0.01684
G1 X85.564 Y107.051 E0.18257
G1 X85.029 Y107.051 E0.01684
G1 X80.926 Y102.949 E0.18257
G1 X80.391 Y102.949 E0.01684
G1 X84.493 Y107.051 E0.18257
G1 X83.958 Y107.051 E0.01684
G1 X79.856 Y102.949 E0.18257
G1 X79.321 Y102.949 E0.01684
G1 X83.423 Y107.051 E0.18257
G1 X82.888 Y107.051 E0.01684
G1 X78.786 Y102.949 E0.18257
G1 X78.250 Y102.949 E0.01684
G1 X82.353 Y107.051 E0.18257
G1 X81.817 Y107.051 E0.01684
G1 X77.715 Y102.949 E0.18257
G1 X77.180 Y102.949 E0.01684
G1 X81.282 Y107.051 E0.18257
G1 X80.747 Y107.051 E0.01684
G1 X76.645 Y102.949 E0.18257
G1 X76.109 Y102.949 E0.01684
G1 X80.212 Y107.051 E0.18257
G1 X79.676 Y107.051 E0.01684
G1 X75.574 Y102.949 E0.18257
G1 X75.039 Y102.949 E0.01684
G1 X79.141 Y107.051 E0.18257
G1 X78.606 Y107.051 E0.01684
G1 X74.504 Y102.949 E0.18257
G1 X73.968 Y102.949 E0.01684
G1 X78.071 Y107.051 E0.18257
G1 X77.535 Y107.051 E0.01684
G1 X73.433 Y102.949 E0.18257
G1 X72.898 Y102.949 E0.01684
G1 X77.000 Y107.051 E0.18257
G1 X76.465 Y107.051 E0.01684
G1 X72.363 Y102.949 E0.18257
G1 X71.828 Y102.949 E0.01684
G1 X75.930 Y107.051 E0.18257
G1 X75.395 Y107.051 E0.01684
G1 X71.292 Y102.949 E0.18257
G1 X70.757 Y102.949 E0.01684
G1 X74.859 Y107.051 E0.18257
G1 X74.324 Y107.051 E0.01684
G1 X70.222 Y102.949 E0.18257
G1 X69.687 Y102.949 E0.01684
G1 X73.789 Y107.051 E0.18257
G1 X73.254 Y107.051 E0.01684
G1 X69.151 Y102.949 E0.18257
G1 X68.616 Y102.949 E0.01684
G1 X72.718 Y107.051 E0.18257
G1 X72.183 Y107.051 E0.01684
G1 X68.081 Y102.949 E0.18257
G1 X67.546 Y102.949 E0.01684
G1 X71.648 Y107.051 E0.18257
G1 X71.113 Y107.051 E0.01684
G1 X67.011 Y102.949 E0.18257
G1 X66.475 Y102.949 E0.01684
G1 X70.578 Y107.051 E0.18257
G1 X70.042 Y107.051 E0.01684
G1 X65.940 Y102.949 E0.18257
G1 X65.870 Y102.949 E0.00221
G1 X65.870 Y103.414 E0.01463
G1 X69.507 Y107.051 E0.16187
G1 X68.972 Y107.051 E0.01684
G1 X65.870 Y103.949 E0.13805
G1 X65.870 Y104.484 E0.01684
G1 X68.437 Y107.051 E0.11423
G1 X67.901 Y107.051 E0.01684
G1 X65.870 Y105.020 E0.09041
G1 X65.870 Y105.555 E0.01684
G1 X67.366 Y107.051 E0.06659
G1 X66.831 Y107.051 E0.01684
G1 X65.870 Y106.090 E0.04277
G1 X65.870 Y106.625 E0.01684
G1 X66.465 Y107.221 E0.02650
G1 F5760
G1 X65.870 Y106.625 E-0.29171
G1 F5760
G1 X65.870 Y106.090 E-0.18538
G1 F5760
G1 X66.447 Y106.668 E-0.28291
G1 E-0.04000 F2100.00000
G1 X100.700 Y114.159 F7200.000
G1 E0.80000 F2100.00000
G1 F3600
G1 X101.071 Y114.530 E0.01652
G1 X101.607 Y114.530 E0.01684
G1 X100.870 Y113.793 E0.03279
G1 X100.870 Y113.258 E0.01684
G1 X102.142 Y114.530 E0.05661
G1 X102.677 Y114.530 E0.01684
G1 X100.870 Y112.723 E0.08043
G1 X100.870 Y112.188 E0.01684
G1 X103.212 Y114.530 E0.10425
G1 X103.747 Y114.530 E0.01684
G1 X100.870 Y111.653 E0.12807
G1 X100.870 Y111.117 E0.01684
G1 X104.283 Y114.530 E0.15189
G1 X104.818 Y114.530 E0.01684
G1 X100.870 Y110.582 E0.17571
G1 X100.870 Y110.047 E0.01684
G1 X105.353 Y114.530 E0.19953
G1 X105.888 Y114.530 E0.01684
G1 X100.870 Y109.512 E0.22335
G1 X100.870 Y108.976 E0.01684
G1 X106.424 Y114.530 E0.24717
G1 X106.959 Y114.530 E0.01684
G1 X100.870 Y108.441 E0.27099
G1 X100.870 Y107.906 E0.01684
G1 X107.494 Y114.530 E0.29481
G1 X108.029 Y114.530 E0.01684
G1 X96.448 Y102.949 E0.51542
G1 X96.983 Y102.949 E0.01684
G1 X108.565 Y114.530 E0.51542
G1 X109.100 Y114.530 E0.01684
G1 X97.518 Y102.949 E0.51542
G1 X98.054 Y102.949 E0.01684
G1 X109.635 Y114.530 E0.51542
G1 X110.170 Y114.530 E0.01684
G1 X98.589 Y102.949 E0.51542
G1 X99.124 Y102.949 E0.01684
G1 X110.705 Y114.530 E0.51542
G1 X111.241 Y114.530 E0.01684
G1 X99.659 Y102.949 E0.51542
G1 X100.195 Y102.949 E0.01684
G1 X111.776 Y114.530 E0.51542
G1 X112.311 Y114.530 E0.01684
G1 X100.730 Y102.949 E0.51542
G1 X100.870 Y102.949 E0.00441
G1 X100.870 Y102.554 E0.01244
G1 X112.846 Y114.530 E0.53301
G1 X113.382 Y114.530 E0.01684
G1 X100.870 Y102.018 E0.55683
G1 X100.870 Y101.483 E0.01684
G1 X114.086 Y114.700 E0.58820
G1 F5760
G1 X112.535 Y113.148 E-0.76000
G1 E-0.04000 F2100.00000
G1 X183.519 Y109.200 F7200.000
G1 E0.80000 F2100.00000
G1 F3600
G1 X184.130 Y109.812 E0.02721
G1 X184.130 Y110.347 E0.01684
G1 X183.153 Y109.370 E0.04348
G1 X182.618 Y109.370 E0.01684
G1 X184.130 Y110.882 E0.06730
G1 X184.130 Y111.417 E0.01684
G1 X182.083 Y109.370 E0.09112
G1 X181.547 Y109.370 E0.01684
G1 X184.130 Y111.953 E0.11494
G1 X184.130 Y112.488 E0.01684
G1 X181.012 Y109.370 E0.13876
G1 X180.477 Y109.370 E0.01684
G1 X184.130 Y113.023 E0.16258
G1 X184.130 Y113.558 E0.01684
G1 X179.942 Y109.370 E0.18640
G1 X179.407 Y109.370 E0.01684
G1 X184.130 Y114.093 E0.21022
G1 X184.130 Y114.530 E0.01374
G1 X184.032 Y114.530 E0.00310
G1 X178.871 Y109.370 E0.22965
G1 X178.336 Y109.370 E0.01684
G1 X183.496 Y114.530 E0.22965
G1 X182.961 Y114.530 E0.01684
G1 X177.801 Y109.370 E0.22965
G1 X177.266 Y109.370 E0.01684
G1 X182.426 Y114.530 E0.22965
G1 X181.891 Y114.530 E0.01684
G1 X176.730 Y109.370 E0.22965
G1 X176.195 Y109.370 E0.01684
G1 X181.355 Y114.530 E0.22965
G1 X180.820 Y114.530 E0.01684
G1 X175.660 Y109.370 E0.22965
G1 X175.125 Y109.370 E0.01684
G1 X180.285 Y114.530 E0.22965
G1 X179.750 Y114.530 E0.01684
G1 X174.590 Y109.370 E0.22965
G1 X174.054 Y109.370 E0.01684
G1 X179.215 Y114.530 E0.22965
G1 X178.679 Y114.530 E0.01684
G1 X173.519 Y109.370 E0.22965
G1 X172.984 Y109.370 E0.01684
G1 X178.144 Y114.530 E0.22965
G1 X177.609 Y114.530 E0.01684
G1 X172.449 Y109.370 E0.22965
G1 X171.913 Y109.370 E0.01684
G1 X177.074 Y114.530 E0.22965
G1 X176.538 Y114.530 E0.01684
G1 X171.378 Y109.370 E0.22965
G1 X170.843 Y109.370 E0.01684
G1 X176.003 Y114.530 E0.22965
G1 X175.468 Y114.530 E0.01684
G1 X170.308 Y109.370 E0.22965
G1 X169.772 Y109.370 E0.01684
G1 X174.933 Y114.530 E0.22965
G1 X174.398 Y114.530 E0.01684
G1 X169.237 Y109.370 E0.22965
G1 X168.702 Y109.370 E0.01684
G1 X173.862 Y114.530 E0.22965
G1 X173.327 Y114.530 E0.01684
G1 X168.167 Y109.370 E0.22965
G1 X167.632 Y109.370 E0.01684
G1 X172.792 Y114.530 E0.22965
G1 X172.257 Y114.530 E0.01684
G1 X167.096 Y109.370 E0.22965
G1 X166.561 Y109.370 E0.01684
G1 X171.721 Y114.530 E0.22965
G1 X171.186 Y114.530 E0.01684
G1 X166.026 Y109.370 E0.22965
G1 X165.491 Y109.370 E0.01684
G1 X170.651 Y114.530 E0.22965
G1 X170.116 Y114.530 E0.01684
G1 X164.955 Y109.370 E0.22965
G1 X164.420 Y109.370 E0.01684
G1 X169.580 Y114.530 E0.22965
G1 X169.045 Y114.530 E0.01684
G1 X163.885 Y109.370 E0.22965
G1 X163.350 Y109.370 E0.01684
G1 X168.510 Y114.530 E0.22965
G1 X167.975 Y114.530 E0.01684
G1 X162.815 Y109.370 E0.22965
G1 X162.279 Y109.370 E0.01684
G1 X167.440 Y114.530 E0.22965
G1 X166.904 Y114.530 E0.01684
G1 X161.744 Y109.370 E0.22965
G1 X161.209 Y109.370 E0.01684
G1 X166.369 Y114.530 E0.22965
G1 X165.834 Y114.530 E0.01684
G1 X160.674 Y109.370 E0.22965
G1 X160.138 Y109.370 E0.01684
G1 X165.299 Y114.530 E0.22965
G1 X164.763 Y114.530 E0.01684
G1 X159.603 Y109.370 E0.22965
G1 X159.068 Y109.370 E0.01684
G1 X164.228 Y114.530 E0.22965
G1 X163.693 Y114.530 E0.01684
G1 X158.533 Y109.370 E0.22965
G1 X157.997 Y109.370 E0.01684
G1 X163.158 Y114.530 E0.22965
G1 X162.623 Y114.530 E0.01684
G1 X157.462 Y109.370 E0.22965
G1 X156.927 Y109.370 E0.01684
G1 X162.087 Y114.530 E0.22965
G1 X161.552 Y114.530 E0.01684
G1 X156.392 Y109.370 E0.22965
G1 X155.857 Y109.370 E0.01684
G1 X161.017 Y114.530 E0.22965
G1 X160.482 Y114.530 E0.01684
G1 X155.321 Y109.370 E0.22965
G1 X154.786 Y109.370 E0.01684
G1 X159.946 Y114.530 E0.22965
G1 X159.411 Y114.530 E0.01684
G1 X154.251 Y109.370 E0.22965
G1 X153.716 Y109.370 E0.01684
G1 X158.876 Y114.530 E0.22965
G1 X158.341 Y114.530 E0.01684
G1 X153.180 Y109.370 E0.22965
G1 X152.645 Y109.370 E0.01684
G1 X157.805 Y114.530 E0.22965
G1 X157.270 Y114.530 E0.01684
G1 X152.110 Y109.370 E0.22965
G1 X151.575 Y109.370 E0.01684
G1 X156.735 Y114.530 E0.22965
G1 X156.200 Y114.530 E0.01684
G1 X151.040 Y109.370 E0.22965
G1 X150.504 Y109.370 E0.01684
G1 X155.665 Y114.530 E0.22965
G1 X155.129 Y114.530 E0.01684
G1 X149.969 Y109.370 E0.22965
G1 X149.434 Y109.370 E0.01684
G1 X154.594 Y114.530 E0.22965
G1 X154.059 Y114.530 E0.01684
G1 X148.899 Y109.370 E0.22965
G1 X148.363 Y109.370 E0.01684
G1 X153.524 Y114.530 E0.22965
G1 X152.988 Y114.530 E0.01684
G1 X147.828 Y109.370 E0.22965
G1 X147.293 Y109.370 E0.01684
G1 X152.453 Y114.530 E0.22965
G1 X151.918 Y114.530 E0.01684
G1 X146.758 Y109.370 E0.22965
G1 X146.222 Y109.370 E0.01684
G1 X151.383 Y114.530 E0.22965
G1 X150.847 Y114.530 E0.01684
G1 X145.687 Y109.370 E0.22965
G1 X145.152 Y109.370 E0.01684
G1 X150.312 Y114.530 E0.22965
G1 X149.777 Y114.530 E0.01684
G1 X144.617 Y109.370 E0.22965
G1 X144.082 Y109.370 E0.01684
G1 X149.242 Y114.530 E0.22965
G1 X148.707 Y114.530 E0.01684
G1 X143.546 Y109.370 E0.22965
G1 X143.011 Y109.370 E0.01684
G1 X148.171 Y114.530 E0.22965
G1 X147.636 Y114.530 E0.01684
G1 X142.476 Y109.370 E0.22965
G1 X141.941 Y109.370 E0.01684
G1 X147.101 Y114.530 E0.22965
G1 X146.566 Y114.530 E0.01684
G1 X141.405 Y109.370 E0.22965
G1 X140.870 Y109.370 E0.01684
G1 X146.030 Y114.530 E0.22965
G1 X145.495 Y114.530 E0.01684
G1 X140.335 Y109.370 E0.22965
G1 X139.800 Y109.370 E0.01684
G1 X144.960 Y114.530 E0.22965
G1 X144.425 Y114.530 E0.01684
G1 X139.265 Y109.370 E0.22965
G1 X138.729 Y109.370 E0.01684
G1 X143.890 Y114.530 E0.22965
G1 X143.354 Y114.530 E0.01684
G1 X138.194 Y109.370 E0.22965
G1 X137.659 Y109.370 E0.01684
G1 X142.819 Y114.530 E0.22965
G1 X142.284 Y114.530 E0.01684
G1 X137.124 Y109.370 E0.22965
G1 X136.588 Y109.370 E0.01684
G1 X141.749 Y114.530 E0.22965
G1 X141.213 Y114.530 E0.01684
G1 X136.053 Y109.370 E0.22965
G1 X135.518 Y109.370 E0.01684
G1 X140.678 Y114.530 E0.22965
G1 X140.143 Y114.530 E0.01684
G1 X134.983 Y109.370 E0.22965
G1 X134.447 Y109.370 E0.01684
G1 X139.608 Y114.530 E0.22965
G1 X139.072 Y114.530 E0.01684
G1 X133.912 Y109.370 E0.22965
G1 X133.377 Y109.370 E0.01684
G1 X138.537 Y114.530 E0.22965
G1 X138.002 Y114.530 E0.01684
G1 X132.842 Y109.370 E0.22965
G1 X132.307 Y109.370 E0.01684
G1 X137.467 Y114.530 E0.22965
G1 X136.932 Y114.530 E0.01684
G1 X131.771 Y109.370 E0.22965
G1 X131.236 Y109.370 E0.01684
G1 X136.396 Y114.530 E0.22965
G1 X135.861 Y114.530 E0.01684
G1 X130.701 Y109.370 E0.22965
G1 X130.166 Y109.370 E0.01684
G1 X135.326 Y114.530 E0.22965
G1 X134.791 Y114.530 E0.01684
G1 X129.630 Y109.370 E0.22965
G1 X129.095 Y109.370 E0.01684
G1 X134.255 Y114.530 E0.22965
G1 X133.720 Y114.530 E0.01684
G1 X128.560 Y109.370 E0.22965
G1 X128.025 Y109.370 E0.01684
G1 X133.185 Y114.530 E0.22965
G1 X132.650 Y114.530 E0.01684
G1 X127.489 Y109.370 E0.22965
G1 X126.954 Y109.370 E0.01684
G1 X132.115 Y114.530 E0.22965
G1 X131.579 Y114.530 E0.01684
G1 X126.419 Y109.370 E0.22965
G1 X125.884 Y109.370 E0.01684
G1 X131.044 Y114.530 E0.22965
G1 X130.509 Y114.530 E0.01684
G1 X125.349 Y109.370 E0.22965
G1 X124.813 Y109.370 E0.01684
G1 X129.974 Y114.530 E0.22965
G1 X129.438 Y114.530 E0.01684
G1 X124.278 Y109.370 E0.22965
G1 X123.743 Y109.370 E0.01684
G1 X128.903 Y114.530 E0.22965
G1 X128.368 Y114.530 E0.01684
G1 X123.208 Y109.370 E0.22965
G1 X122.672 Y109.370 E0.01684
G1 X127.833 Y114.530 E0.22965
G1 X127.297 Y114.530 E0.01684
G1 X122.137 Y109.370 E0.22965
G1 X121.602 Y109.370 E0.01684
G1 X126.762 Y114.530 E0.22965
G1 X126.227 Y114.530 E0.01684
G1 X121.067 Y109.370 E0.22965
G1 X120.532 Y109.370 E0.01684
G1 X125.692 Y114.530 E0.22965
G1 X125.157 Y114.530 E0.01684
G1 X119.996 Y109.370 E0.22965
G1 X119.461 Y109.370 E0.01684
G1 X124.621 Y114.530 E0.22965
G1 X124.086 Y114.530 E0.01684
G1 X118.926 Y109.370 E0.22965
G1 X118.391 Y109.370 E0.01684
G1 X123.551 Y114.530 E0.22965
G1 X123.016 Y114.530 E0.01684
G1 X117.855 Y109.370 E0.22965
G1 X117.320 Y109.370 E0.01684
G1 X122.480 Y114.530 E0.22965
G1 X121.945 Y114.530 E0.01684
G1 X116.785 Y109.370 E0.22965
