; generated by Slic3r 1.37.2-prusa3d-win64 on 2018-04-08 at 23:41:56

; 

; external perimeters extrusion width = 0.50mm
; perimeters extrusion width = 0.50mm
; infill extrusion width = 0.60mm
; solid infill extrusion width = 0.50mm
; top infill extrusion width = 0.45mm

M107
M115 U3.1.0 ; tell printer latest fw version
M83  ; extruder relative mode
M104 S150
M140 S75 ; set bed temp
G28 W ; home all without mesh bed level
G1 X125 Z80 F1000
M190 S75 ; wait for bed temp
M104 S230 ; set extruder temp
G80 ; mesh bed leveling
M109 S230 ; wait for extruder temp
G1 Y-3.0 F1000.0 ; go outside print area
G92 E0.0
G1 X60.0 E9.0  F1000.0 ; intro line
G1 X100.0 E12.5  F1000.0 ; intro line
G92 E0.0
M900 K45 ; Filament gcode
G21 ; set units to millimeters
G90 ; use absolute coordinates
M83 ; use relative distances for extrusion
;BEFORE_LAYER_CHANGE
;0.2


G1 E-0.80000 F2100.00000
G1 Z0.200 F7200.000
;AFTER_LAYER_CHANGE
;0.2
G1 X99.496 Y119.233 F7200.000
G1 E0.80000 F2100.00000
M204 S1000
G1 F1800
G1 X100.390 Y118.542 E0.03824
G1 X101.696 Y117.744 E0.05180
G1 X103.125 Y117.104 E0.05300
G1 X104.624 Y116.654 E0.05300
G1 X106.152 Y116.402 E0.05240
G1 X125.428 Y115.967 E0.65263
G1 X127.701 Y116.158 E0.07723
G1 X129.639 Y116.632 E0.06752
G1 X131.745 Y117.512 E0.07725
G1 X133.665 Y118.723 E0.07684
G1 X135.180 Y120.048 E0.06812
G1 X136.635 Y121.790 E0.07685
G1 X137.636 Y123.454 E0.06571
G1 X138.495 Y125.555 E0.07685
G1 X138.997 Y127.782 E0.07726
G1 X139.128 Y129.772 E0.06752
G1 X138.920 Y132.051 E0.07744
G1 X138.342 Y134.246 E0.07685
G1 X137.536 Y136.084 E0.06792
G1 X136.308 Y138.000 E0.07705
G1 X134.775 Y139.690 E0.07725
G1 X133.261 Y140.915 E0.06591
G1 X131.319 Y142.044 E0.07604
G1 X129.523 Y142.750 E0.06531
G1 X127.314 Y143.246 E0.07665
G1 X125.335 Y143.377 E0.06712
G1 X123.553 Y143.249 E0.06048
G1 X105.595 Y140.491 E0.61499
G1 X104.231 Y140.209 E0.04712
G1 X103.127 Y139.858 E0.03924
G1 X102.061 Y139.402 E0.03924
G1 X100.864 Y138.735 E0.04636
G1 X99.915 Y138.069 E0.03924
G1 X99.039 Y137.319 E0.03904
G1 X98.093 Y136.320 E0.04656
G1 X97.387 Y135.401 E0.03924
G1 X96.778 Y134.428 E0.03884
G1 X96.183 Y133.214 E0.04576
G1 X95.785 Y132.138 E0.03884
G1 X95.504 Y131.087 E0.03683
G1 X95.312 Y129.956 E0.03884
G1 X95.222 Y128.601 E0.04596
G1 X95.265 Y127.454 E0.03884
G1 X95.406 Y126.369 E0.03703
G1 X95.656 Y125.262 E0.03844
G1 X96.089 Y123.975 E0.04596
G1 X96.564 Y122.930 E0.03884
G1 X97.108 Y121.981 E0.03703
G1 X97.764 Y121.047 E0.03864
G1 X98.659 Y120.017 E0.04616
G1 X99.452 Y119.274 E0.03681
G1 X99.730 Y119.577 F7200.000
G1 F1800
G1 X99.838 Y119.478 E0.00495
G1 X100.901 Y118.688 E0.04482
G1 X101.971 Y118.060 E0.04200
G1 X103.352 Y117.455 E0.05103
G1 X104.748 Y117.043 E0.04929
G1 X106.243 Y116.802 E0.05123
G1 X125.426 Y116.374 E0.64949
G1 X127.633 Y116.559 E0.07496
G1 X129.512 Y117.019 E0.06547
G1 X131.561 Y117.875 E0.07517
G1 X133.429 Y119.055 E0.07478
G1 X134.889 Y120.332 E0.06567
G1 X136.305 Y122.028 E0.07478
G1 X137.272 Y123.637 E0.06355
G1 X138.112 Y125.692 E0.07516
G1 X138.594 Y127.843 E0.07459
G1 X138.720 Y129.773 E0.06547
G1 X138.519 Y131.984 E0.07516
G1 X137.951 Y134.131 E0.07517
G1 X137.174 Y135.896 E0.06528
G1 X135.975 Y137.766 E0.07517
G1 X134.481 Y139.408 E0.07517
G1 X132.977 Y140.616 E0.06528
G1 X131.129 Y141.684 E0.07226
G1 X129.386 Y142.366 E0.06334
G1 X127.247 Y142.845 E0.07421
G1 X125.317 Y142.970 E0.06547
G1 X123.610 Y142.846 E0.05791
G1 X105.645 Y140.087 E0.61523
G1 X104.326 Y139.813 E0.04559
G1 X103.264 Y139.475 E0.03772
G1 X102.240 Y139.036 E0.03773
G1 X101.064 Y138.380 E0.04560
G1 X100.157 Y137.741 E0.03753
G1 X99.307 Y137.011 E0.03792
G1 X98.389 Y136.041 E0.04521
G1 X97.683 Y135.113 E0.03947
G1 X97.126 Y134.215 E0.03578
G1 X96.547 Y133.030 E0.04463
G1 X96.169 Y132.000 E0.03714
G1 X95.895 Y130.967 E0.03617
G1 X95.715 Y129.896 E0.03675
G1 X95.629 Y128.563 E0.04521
G1 X95.673 Y127.461 E0.03734
G1 X95.824 Y126.351 E0.03792
G1 X96.132 Y125.081 E0.04424
G1 X96.486 Y124.079 E0.03598
G1 X96.944 Y123.082 E0.03714
G1 X97.507 Y122.114 E0.03788
G1 X98.280 Y121.052 E0.04447
G1 X99.022 Y120.228 E0.03753
G1 X99.686 Y119.617 E0.03055
G1 F5760
G1 X99.838 Y119.478 E-0.07147
G1 F5760
G1 X100.901 Y118.688 E-0.45863
G1 F5760
G1 X101.473 Y118.352 E-0.22990
G1 E-0.04000 F2100.00000
G1 X114.958 Y135.869 F7200.000
G1 E0.80000 F2100.00000
G1 F1800
G1 X114.087 Y136.673 E0.04013
G1 X113.308 Y137.254 E0.03290
G1 X112.471 Y137.766 E0.03319
G1 X111.404 Y138.278 E0.04006
G1 X110.396 Y138.636 E0.03621
G1 X109.462 Y138.870 E0.03258
G1 X108.528 Y139.015 E0.03201
G1 X107.326 Y139.080 E0.04074
G1 X106.334 Y139.030 E0.03363
G1 X105.336 Y138.885 E0.03414
G1 X104.398 Y138.657 E0.03268
G1 X103.324 Y138.281 E0.03852
G1 X102.401 Y137.848 E0.03448
G1 X101.527 Y137.330 E0.03442
G1 X100.730 Y136.749 E0.03337
G1 X99.868 Y135.978 E0.03915
G1 X99.246 Y135.300 E0.03114
G1 X98.684 Y134.568 E0.03124
G1 X98.128 Y133.686 E0.03530
G1 X97.622 Y132.664 E0.03859
G1 X97.274 Y131.739 E0.03347
G1 X97.016 Y130.790 E0.03328
G1 X96.847 Y129.824 E0.03319
G1 X96.763 Y128.624 E0.04075
G1 X96.793 Y127.655 E0.03280
G1 X96.915 Y126.682 E0.03320
G1 X97.126 Y125.724 E0.03318
G1 X97.505 Y124.582 E0.04075
G1 X97.903 Y123.694 E0.03293
G1 X98.452 Y122.739 E0.03728
G1 X99.108 Y121.830 E0.03794
G1 X99.774 Y121.079 E0.03399
G1 X100.497 Y120.404 E0.03347
G1 X101.274 Y119.803 E0.03323
G1 X102.108 Y119.275 E0.03341
G1 X103.124 Y118.766 E0.03848
G1 X104.024 Y118.420 E0.03263
G1 X104.967 Y118.155 E0.03317
G1 X105.932 Y117.978 E0.03323
G1 X107.109 Y117.885 E0.03995
G1 X108.097 Y117.907 E0.03346
G1 X109.094 Y118.024 E0.03395
G1 X110.078 Y118.236 E0.03407
G1 X111.163 Y118.588 E0.03864
G1 X112.088 Y118.994 E0.03418
G1 X112.947 Y119.473 E0.03327
G1 X113.773 Y120.042 E0.03396
G1 X114.675 Y120.810 E0.04011
G1 X115.384 Y121.555 E0.03479
G1 X115.860 Y122.167 E0.02625
G1 X116.528 Y121.394 E0.03457
G1 X117.196 Y120.729 E0.03190
G1 X118.006 Y120.047 E0.03585
G1 X118.914 Y119.411 E0.03754
G1 X119.771 Y118.915 E0.03352
G1 X120.372 Y118.620 E0.02265
G1 X121.263 Y118.255 E0.03261
G1 X122.275 Y117.936 E0.03589
G1 X123.305 Y117.707 E0.03572
G1 X124.348 Y117.568 E0.03562
G1 X125.010 Y117.528 E0.02246
G1 X125.863 Y117.529 E0.02886
G1 X126.923 Y117.614 E0.03599
G1 X127.988 Y117.795 E0.03658
G1 X128.683 Y117.967 E0.02423
G1 X129.593 Y118.259 E0.03234
G1 X130.567 Y118.663 E0.03571
G1 X131.513 Y119.157 E0.03611
G1 X132.403 Y119.725 E0.03575
G1 X133.240 Y120.369 E0.03576
G1 X133.920 Y120.986 E0.03107
G1 X134.401 Y121.484 E0.02345
G1 X135.082 Y122.299 E0.03593
G1 X135.676 Y123.150 E0.03515
G1 X135.992 Y123.677 E0.02078
G1 X136.442 Y124.551 E0.03330
G1 X136.858 Y125.563 E0.03701
G1 X137.177 Y126.588 E0.03634
G1 X137.398 Y127.606 E0.03527
G1 X137.530 Y128.626 E0.03480
G1 X137.567 Y129.261 E0.02155
G1 X137.565 Y130.145 E0.02992
G1 X137.476 Y131.214 E0.03631
G1 X137.300 Y132.240 E0.03524
G1 X137.128 Y132.932 E0.02414
G1 X136.836 Y133.842 E0.03232
G1 X136.455 Y134.767 E0.03387
G1 X135.967 Y135.713 E0.03605
G1 X135.393 Y136.619 E0.03631
G1 X134.751 Y137.460 E0.03581
G1 X134.091 Y138.188 E0.03324
G1 X133.587 Y138.673 E0.02369
G1 X132.836 Y139.301 E0.03315
G1 X131.978 Y139.904 E0.03548
G1 X131.429 Y140.235 E0.02169
G1 X130.563 Y140.683 E0.03300
G1 X129.641 Y141.069 E0.03385
G1 X128.598 Y141.402 E0.03704
G1 X127.541 Y141.638 E0.03666
G1 X126.497 Y141.776 E0.03565
G1 X125.835 Y141.816 E0.02246
G1 X124.969 Y141.816 E0.02930
G1 X123.882 Y141.726 E0.03691
G1 X122.826 Y141.543 E0.03629
G1 X122.189 Y141.385 E0.02221
G1 X121.288 Y141.099 E0.03199
G1 X120.281 Y140.682 E0.03690
G1 X119.317 Y140.179 E0.03682
G1 X118.434 Y139.613 E0.03550
G1 X117.705 Y139.058 E0.03100
G1 X117.193 Y138.613 E0.02296
G1 X116.507 Y137.929 E0.03280
G1 X115.794 Y137.085 E0.03740
G1 X114.992 Y135.918 E0.04791
G1 X115.037 Y135.172 F7200.000
G1 F1800
G1 X114.694 Y135.558 E0.01745
G1 X113.834 Y136.353 E0.03965
G1 X113.072 Y136.923 E0.03222
G1 X112.268 Y137.413 E0.03187
G1 X111.238 Y137.906 E0.03865
G1 X110.288 Y138.244 E0.03414
G1 X109.390 Y138.469 E0.03131
G1 X108.476 Y138.611 E0.03133
G1 X107.316 Y138.673 E0.03932
G1 X106.364 Y138.624 E0.03224
G1 X105.422 Y138.487 E0.03222
G1 X104.522 Y138.269 E0.03135
G1 X103.487 Y137.908 E0.03713
G1 X102.600 Y137.493 E0.03313
G1 X101.758 Y136.995 E0.03310
G1 X100.994 Y136.439 E0.03201
G1 X100.161 Y135.695 E0.03778
G1 X99.552 Y135.032 E0.03049
G1 X99.012 Y134.328 E0.03001
G1 X98.478 Y133.478 E0.03398
G1 X97.992 Y132.493 E0.03718
G1 X97.659 Y131.605 E0.03212
G1 X97.411 Y130.693 E0.03199
G1 X97.250 Y129.765 E0.03187
G1 X97.170 Y128.606 E0.03933
G1 X97.200 Y127.678 E0.03144
G1 X97.318 Y126.742 E0.03193
G1 X97.521 Y125.823 E0.03187
G1 X97.888 Y124.720 E0.03933
G1 X98.270 Y123.870 E0.03154
G1 X98.799 Y122.951 E0.03589
G1 X99.432 Y122.077 E0.03652
G1 X100.072 Y121.356 E0.03264
G1 X100.767 Y120.708 E0.03218
G1 X101.515 Y120.132 E0.03195
G1 X102.316 Y119.625 E0.03210
G1 X103.297 Y119.134 E0.03711
G1 X104.160 Y118.804 E0.03129
G1 X105.067 Y118.550 E0.03189
G1 X105.995 Y118.381 E0.03193
G1 X107.111 Y118.292 E0.03788
G1 X108.060 Y118.312 E0.03214
G1 X109.018 Y118.424 E0.03264
G1 X109.962 Y118.626 E0.03269
G1 X111.028 Y118.972 E0.03793
G1 X111.915 Y119.363 E0.03280
G1 X112.740 Y119.823 E0.03198
G1 X113.517 Y120.358 E0.03194
G1 X114.403 Y121.113 E0.03939
G1 X115.082 Y121.827 E0.03335
G1 X115.870 Y122.845 E0.04358
G1 X116.422 Y122.128 E0.03064
G1 X116.827 Y121.670 E0.02072
G1 X117.477 Y121.024 E0.03100
G1 X118.261 Y120.364 E0.03469
G1 X119.126 Y119.759 E0.03574
G1 X119.969 Y119.271 E0.03298
G1 X120.545 Y118.989 E0.02171
G1 X121.394 Y118.640 E0.03107
G1 X122.389 Y118.326 E0.03530
G1 X123.384 Y118.106 E0.03451
G1 X124.380 Y117.974 E0.03401
G1 X125.016 Y117.935 E0.02158
G1 X125.854 Y117.936 E0.02837
G1 X126.881 Y118.019 E0.03485
G1 X127.912 Y118.195 E0.03541
G1 X128.565 Y118.356 E0.02278
G1 X129.445 Y118.638 E0.03126
G1 X130.387 Y119.028 E0.03452
G1 X131.301 Y119.505 E0.03489
G1 X132.176 Y120.063 E0.03514
G1 X132.985 Y120.686 E0.03457
G1 X133.641 Y121.283 E0.03001
G1 X134.094 Y121.751 E0.02205
G1 X134.753 Y122.539 E0.03479
G1 X135.331 Y123.366 E0.03414
G1 X135.633 Y123.869 E0.01987
G1 X136.069 Y124.715 E0.03220
G1 X136.472 Y125.692 E0.03580
G1 X136.781 Y126.683 E0.03513
G1 X136.995 Y127.668 E0.03409
G1 X137.124 Y128.657 E0.03378
G1 X137.160 Y129.267 E0.02067
G1 X137.158 Y130.136 E0.02942
G1 X137.071 Y131.171 E0.03516
G1 X136.900 Y132.164 E0.03409
G1 X136.739 Y132.815 E0.02271
G1 X136.457 Y133.694 E0.03125
G1 X136.082 Y134.603 E0.03329
G1 X135.609 Y135.518 E0.03485
G1 X135.054 Y136.394 E0.03510
G1 X134.433 Y137.206 E0.03462
G1 X133.794 Y137.909 E0.03214
G1 X133.320 Y138.365 E0.02228
G1 X132.581 Y138.983 E0.03261
G1 X131.750 Y139.567 E0.03437
G1 X131.225 Y139.883 E0.02075
G1 X130.399 Y140.310 E0.03149
G1 X129.492 Y140.689 E0.03326
G1 X128.484 Y141.011 E0.03583
G1 X127.462 Y141.239 E0.03543
G1 X126.451 Y141.372 E0.03450
G1 X125.829 Y141.409 E0.02110
G1 X124.978 Y141.409 E0.02881
G1 X123.925 Y141.321 E0.03575
G1 X122.903 Y141.143 E0.03513
G1 X122.294 Y140.992 E0.02125
G1 X121.436 Y140.719 E0.03048
G1 X120.461 Y140.317 E0.03568
G1 X119.513 Y139.822 E0.03620
G1 X118.674 Y139.284 E0.03375
G1 X117.957 Y138.738 E0.03050
G1 X117.465 Y138.310 E0.02206
G1 X116.800 Y137.647 E0.03180
G1 X116.121 Y136.842 E0.03564
G1 X115.522 Y135.990 E0.03527
G1 X115.067 Y135.224 E0.03015
G1 X115.134 Y134.444 F7200.000
G1 F1800
G1 X114.410 Y135.266 E0.03708
G1 X113.566 Y136.047 E0.03892
G1 X112.851 Y136.580 E0.03019
G1 X112.083 Y137.051 E0.03049
G1 X111.072 Y137.534 E0.03792
G1 X110.161 Y137.857 E0.03272
G1 X109.301 Y138.072 E0.03001
G1 X108.424 Y138.207 E0.03004
G1 X107.305 Y138.266 E0.03792
G1 X106.395 Y138.218 E0.03085
G1 X105.509 Y138.089 E0.03032
G1 X104.646 Y137.881 E0.03002
G1 X103.649 Y137.534 E0.03574
G1 X102.798 Y137.137 E0.03178
G1 X101.989 Y136.660 E0.03179
G1 X101.257 Y136.128 E0.03065
G1 X100.454 Y135.412 E0.03641
G1 X99.870 Y134.776 E0.02922
G1 X99.341 Y134.088 E0.02937
G1 X98.829 Y133.271 E0.03265
G1 X98.362 Y132.323 E0.03578
G1 X98.044 Y131.471 E0.03077
G1 X97.807 Y130.596 E0.03071
G1 X97.653 Y129.706 E0.03056
G1 X97.577 Y128.589 E0.03791
G1 X97.606 Y127.701 E0.03007
G1 X97.720 Y126.803 E0.03065
G1 X97.916 Y125.922 E0.03056
G1 X98.271 Y124.859 E0.03791
G1 X98.637 Y124.047 E0.03015
G1 X99.146 Y123.164 E0.03451
G1 X99.755 Y122.325 E0.03509
G1 X100.370 Y121.634 E0.03129
G1 X101.038 Y121.013 E0.03088
G1 X101.755 Y120.460 E0.03067
G1 X102.525 Y119.975 E0.03080
G1 X103.469 Y119.503 E0.03574
G1 X104.296 Y119.188 E0.02995
G1 X105.168 Y118.944 E0.03062
G1 X106.058 Y118.783 E0.03062
G1 X107.132 Y118.699 E0.03648
G1 X108.041 Y118.719 E0.03077
G1 X108.961 Y118.827 E0.03134
G1 X109.866 Y119.022 E0.03135
G1 X110.892 Y119.356 E0.03652
G1 X111.741 Y119.731 E0.03143
G1 X112.532 Y120.174 E0.03069
G1 X113.277 Y120.688 E0.03063
G1 X114.115 Y121.402 E0.03727
G1 X114.768 Y122.087 E0.03203
G1 X115.329 Y122.801 E0.03073
G1 X115.853 Y123.610 E0.03262
G1 X116.150 Y123.148 E0.01859
G1 X116.731 Y122.392 E0.03228
G1 X117.119 Y121.953 E0.01982
G1 X117.745 Y121.330 E0.02991
G1 X118.516 Y120.681 E0.03409
G1 X119.337 Y120.107 E0.03393
G1 X120.167 Y119.627 E0.03243
G1 X120.718 Y119.358 E0.02076
G1 X121.525 Y119.026 E0.02953
G1 X122.502 Y118.717 E0.03470
G1 X123.463 Y118.506 E0.03330
G1 X124.412 Y118.380 E0.03241
G1 X125.023 Y118.342 E0.02070
G1 X125.846 Y118.343 E0.02787
G1 X126.839 Y118.424 E0.03371
G1 X127.836 Y118.595 E0.03424
G1 X128.448 Y118.746 E0.02135
G1 X129.297 Y119.018 E0.03017
G1 X130.223 Y119.401 E0.03392
G1 X131.105 Y119.861 E0.03367
G1 X131.949 Y120.401 E0.03392
G1 X132.730 Y121.004 E0.03338
G1 X133.362 Y121.580 E0.02895
G1 X133.787 Y122.018 E0.02066
G1 X134.425 Y122.780 E0.03364
G1 X134.986 Y123.582 E0.03312
G1 X135.275 Y124.062 E0.01897
G1 X135.696 Y124.878 E0.03109
G1 X136.087 Y125.822 E0.03458
G1 X136.385 Y126.779 E0.03393
G1 X136.592 Y127.729 E0.03291
G1 X136.718 Y128.689 E0.03276
G1 X136.753 Y129.272 E0.01979
G1 X136.751 Y130.127 E0.02892
G1 X136.666 Y131.128 E0.03400
G1 X136.500 Y132.087 E0.03295
G1 X136.349 Y132.697 E0.02129
G1 X136.077 Y133.547 E0.03018
G1 X135.709 Y134.440 E0.03270
G1 X135.252 Y135.323 E0.03365
G1 X134.715 Y136.168 E0.03389
G1 X134.115 Y136.951 E0.03342
G1 X133.498 Y137.630 E0.03104
G1 X133.053 Y138.057 E0.02088
G1 X132.326 Y138.666 E0.03208
G1 X131.522 Y139.229 E0.03324
G1 X131.021 Y139.531 E0.01981
G1 X130.234 Y139.938 E0.02999
G1 X129.343 Y140.310 E0.03268
G1 X128.369 Y140.620 E0.03461
G1 X127.382 Y140.839 E0.03420
G1 X126.406 Y140.967 E0.03335
G1 X125.823 Y141.002 E0.01974
G1 X124.987 Y141.002 E0.02831
G1 X123.969 Y140.916 E0.03459
G1 X122.980 Y140.744 E0.03396
G1 X122.398 Y140.599 E0.02030
G1 X121.583 Y140.339 E0.02897
G1 X120.641 Y139.952 E0.03446
G1 X119.725 Y139.474 E0.03496
G1 X118.901 Y138.946 E0.03316
G1 X118.209 Y138.418 E0.02943
G1 X117.748 Y138.017 E0.02070
G1 X117.094 Y137.365 E0.03127
G1 X116.438 Y136.587 E0.03444
G1 X115.859 Y135.762 E0.03413
G1 X115.571 Y135.282 E0.01893
G1 X115.162 Y134.497 E0.02996
G1 X115.225 Y133.590 F7200.000
G1 F1800
G1 X114.682 Y134.342 E0.03139
G1 X114.126 Y134.975 E0.02852
G1 X113.298 Y135.740 E0.03818
G1 X112.616 Y136.248 E0.02878
G1 X111.897 Y136.688 E0.02851
G1 X110.926 Y137.154 E0.03648
G1 X110.052 Y137.464 E0.03137
G1 X109.229 Y137.671 E0.02874
G1 X108.392 Y137.801 E0.02868
G1 X107.315 Y137.858 E0.03649
G1 X106.444 Y137.814 E0.02954
G1 X105.594 Y137.691 E0.02906
G1 X104.770 Y137.493 E0.02868
G1 X103.811 Y137.161 E0.03436
G1 X102.996 Y136.781 E0.03044
G1 X102.220 Y136.325 E0.03047
G1 X101.520 Y135.817 E0.02929
G1 X100.747 Y135.129 E0.03503
G1 X100.175 Y134.508 E0.02856
G1 X99.670 Y133.848 E0.02812
G1 X99.179 Y133.064 E0.03132
G1 X98.732 Y132.153 E0.03437
G1 X98.428 Y131.338 E0.02941
G1 X98.202 Y130.499 E0.02942
G1 X98.056 Y129.648 E0.02924
G1 X97.983 Y128.572 E0.03649
G1 X98.013 Y127.725 E0.02870
G1 X98.123 Y126.864 E0.02938
G1 X98.311 Y126.021 E0.02924
G1 X98.653 Y124.999 E0.03649
G1 X99.004 Y124.224 E0.02876
G1 X99.493 Y123.377 E0.03313
G1 X100.078 Y122.572 E0.03367
G1 X100.654 Y121.925 E0.02931
G1 X101.294 Y121.329 E0.02960
G1 X101.981 Y120.799 E0.02938
G1 X102.716 Y120.334 E0.02943
