; generated by Slic3r 1.37.2-prusa3d-win64 on 2018-04-15 at 20:21:21

; 

; external perimeters extrusion width = 0.45mm
; perimeters extrusion width = 0.45mm
; infill extrusion width = 0.45mm
; solid infill extrusion width = 0.45mm
; top infill extrusion width = 0.45mm
; first layer extrusion width = 0.42mm

M107
M115 U3.1.0 ; tell printer latest fw version
M83  ; extruder relative mode
M104 S150
M140 S75 ; set bed temp
G28 W ; home all without mesh bed level
G1 X125 Z80 F1000
M190 S75 ; wait for bed temp
M104 S230 ; set extruder temp
G80 ; mesh bed leveling
M109 S230 ; wait for extruder temp
G1 Y-3.0 F1000.0 ; go outside print area
G92 E0.0
G1 X60.0 E9.0  F1000.0 ; intro line
G1 X100.0 E12.5  F1000.0 ; intro line
G92 E0.0
M900 K45 ; Filament gcode
G21 ; set units to millimeters
G90 ; use absolute coordinates
M83 ; use relative distances for extrusion
;BEFORE_LAYER_CHANGE
;0.2


G1 E-0.80000 F2100.00000
G1 Z0.200 F7200.000
;AFTER_LAYER_CHANGE
;0.2
G1 X115.225 Y98.676 F7200.000
G1 E0.80000 F2100.00000
M204 S1000
G1 F1800
G1 X116.038 Y97.568 E0.04307
G1 X116.767 Y96.768 E0.03395
G1 X118.389 Y95.416 E0.06621
G1 X119.560 Y94.707 E0.04293
G1 X120.544 Y94.243 E0.03409
G1 X121.567 Y93.875 E0.03410
G1 X122.898 Y93.549 E0.04296
G1 X125.004 Y93.357 E0.06632
G1 X126.086 Y93.408 E0.03395
G1 X127.440 Y93.616 E0.04296
G1 X129.455 Y94.243 E0.06617
G1 X131.324 Y95.225 E0.06621
G1 X132.428 Y96.035 E0.04292
G1 X133.233 Y96.767 E0.03410
G1 X134.584 Y98.389 E0.06620
G1 X135.296 Y99.564 E0.04307
G1 X135.757 Y100.544 E0.03395
G1 X136.384 Y102.560 E0.06621
G1 X136.592 Y103.918 E0.04307
G1 X136.643 Y104.999 E0.03394
G1 X136.451 Y107.102 E0.06621
G1 X136.125 Y108.432 E0.04293
G1 X135.757 Y109.455 E0.03409
G1 X134.775 Y111.324 E0.06621
G1 X133.965 Y112.428 E0.04292
G1 X133.233 Y113.233 E0.03410
G1 X131.611 Y114.584 E0.06621
G1 X130.440 Y115.293 E0.04292
G1 X129.456 Y115.757 E0.03410
G1 X127.440 Y116.384 E0.06621
G1 X126.082 Y116.592 E0.04307
G1 X125.001 Y116.643 E0.03394
G1 X122.898 Y116.451 E0.06621
G1 X121.568 Y116.125 E0.04293
G1 X120.545 Y115.757 E0.03409
G1 X118.676 Y114.775 E0.06621
G1 X117.572 Y113.965 E0.04292
G1 X116.768 Y113.233 E0.03409
G1 X115.416 Y111.611 E0.06621
G1 X114.704 Y110.436 E0.04307
G1 X114.243 Y109.456 E0.03394
G1 X113.616 Y107.440 E0.06621
G1 X113.408 Y106.082 E0.04307
G1 X113.357 Y105.001 E0.03395
G1 X113.549 Y102.898 E0.06621
G1 X113.875 Y101.568 E0.04292
G1 X114.243 Y100.545 E0.03410
G1 X115.197 Y98.729 E0.06432
G1 X115.529 Y98.903 F7200.000
G1 F1800
G1 X116.329 Y97.808 E0.04251
G1 X117.033 Y97.035 E0.03281
G1 X118.599 Y95.730 E0.06390
G1 X119.741 Y95.037 E0.04188
G1 X120.688 Y94.592 E0.03280
G1 X121.672 Y94.237 E0.03281
G1 X122.971 Y93.919 E0.04194
G1 X125.003 Y93.734 E0.06398
G1 X126.044 Y93.783 E0.03266
G1 X127.366 Y93.986 E0.04194
G1 X129.310 Y94.591 E0.06384
G1 X131.115 Y95.539 E0.06390
G1 X132.192 Y96.329 E0.04188
G1 X132.966 Y97.033 E0.03281
G1 X134.270 Y98.599 E0.06390
G1 X134.963 Y99.741 E0.04188
G1 X135.408 Y100.688 E0.03281
G1 X136.014 Y102.634 E0.06391
G1 X136.217 Y103.954 E0.04188
G1 X136.266 Y104.999 E0.03281
G1 X136.081 Y107.029 E0.06390
G1 X135.763 Y108.326 E0.04188
G1 X135.409 Y109.310 E0.03280
G1 X134.461 Y111.115 E0.06390
G1 X133.671 Y112.192 E0.04188
G1 X132.967 Y112.966 E0.03281
G1 X131.401 Y114.270 E0.06390
G1 X130.259 Y114.963 E0.04188
G1 X129.312 Y115.408 E0.03281
G1 X127.366 Y116.014 E0.06391
G1 X126.046 Y116.217 E0.04188
G1 X125.001 Y116.266 E0.03281
G1 X122.971 Y116.081 E0.06390
G1 X121.674 Y115.763 E0.04188
G1 X120.690 Y115.409 E0.03280
G1 X118.885 Y114.461 E0.06390
G1 X117.808 Y113.671 E0.04188
G1 X117.035 Y112.967 E0.03281
G1 X115.730 Y111.401 E0.06391
G1 X115.037 Y110.259 E0.04188
G1 X114.592 Y109.312 E0.03281
G1 X113.986 Y107.366 E0.06390
G1 X113.783 Y106.046 E0.04188
G1 X113.734 Y105.001 E0.03281
G1 X113.919 Y102.971 E0.06390
G1 X114.237 Y101.674 E0.04188
G1 X114.591 Y100.690 E0.03281
G1 X115.501 Y98.956 E0.06139
G1 X116.282 Y99.463 F7200.000
G1 F1800
G1 X116.820 Y98.694 E0.02941
G1 X117.130 Y98.312 E0.01545
G1 X117.658 Y97.735 E0.02452
G1 X118.324 Y97.119 E0.02843
G1 X119.094 Y96.526 E0.03048
G1 X119.505 Y96.255 E0.01543
G1 X120.171 Y95.870 E0.02412
G1 X120.992 Y95.481 E0.02848
G1 X121.839 Y95.167 E0.02831
G1 X122.751 Y94.920 E0.02963
G1 X123.674 Y94.757 E0.02941
G1 X124.164 Y94.706 E0.01545
G1 X124.946 Y94.672 E0.02451
G1 X125.843 Y94.706 E0.02815
G1 X126.816 Y94.832 E0.03077
G1 X127.298 Y94.931 E0.01544
G1 X128.041 Y95.130 E0.02412
G1 X128.897 Y95.435 E0.02849
G1 X129.726 Y95.816 E0.02860
G1 X130.569 Y96.301 E0.03049
G1 X130.976 Y96.577 E0.01543
G1 X131.587 Y97.045 E0.02412
G1 X132.261 Y97.654 E0.02848
G1 X132.875 Y98.317 E0.02832
G1 X133.474 Y99.094 E0.03077
G1 X133.745 Y99.506 E0.01546
G1 X134.136 Y100.183 E0.02451
G1 X134.520 Y100.993 E0.02813
G1 X134.833 Y101.839 E0.02827
G1 X135.089 Y102.786 E0.03077
G1 X135.182 Y103.270 E0.01544
G1 X135.283 Y104.033 E0.02412
G1 X135.328 Y104.940 E0.02848
G1 X135.294 Y105.842 E0.02832
G1 X135.168 Y106.816 E0.03077
G1 X135.069 Y107.298 E0.01544
G1 X134.870 Y108.041 E0.02412
G1 X134.565 Y108.897 E0.02848
G1 X134.188 Y109.718 E0.02832
G1 X133.699 Y110.568 E0.03077
G1 X133.423 Y110.976 E0.01544
G1 X132.955 Y111.587 E0.02412
G1 X132.346 Y112.261 E0.02848
G1 X131.683 Y112.875 E0.02832
G1 X130.906 Y113.474 E0.03077
G1 X130.494 Y113.745 E0.01546
G1 X129.817 Y114.136 E0.02451
G1 X129.007 Y114.520 E0.02813
G1 X128.161 Y114.833 E0.02827
G1 X127.214 Y115.089 E0.03077
G1 X126.730 Y115.182 E0.01544
G1 X125.967 Y115.283 E0.02412
G1 X125.060 Y115.328 E0.02848
G1 X124.158 Y115.294 E0.02832
G1 X123.184 Y115.168 E0.03077
G1 X122.702 Y115.069 E0.01544
G1 X121.959 Y114.870 E0.02412
G1 X121.103 Y114.565 E0.02848
G1 X120.282 Y114.188 E0.02832
G1 X119.432 Y113.699 E0.03077
G1 X119.024 Y113.423 E0.01544
G1 X118.413 Y112.955 E0.02412
G1 X117.739 Y112.345 E0.02849
G1 X117.120 Y111.676 E0.02859
G1 X116.537 Y110.920 E0.02993
G1 X116.028 Y110.117 E0.02979
G1 X115.667 Y109.423 E0.02453
G1 X115.467 Y108.974 E0.01543
G1 X115.167 Y108.160 E0.02720
G1 X114.920 Y107.250 E0.02958
G1 X114.757 Y106.326 E0.02941
G1 X114.706 Y105.836 E0.01545
G1 X114.672 Y105.054 E0.02451
G1 X114.706 Y104.158 E0.02814
G1 X114.829 Y103.202 E0.03020
G1 X115.037 Y102.275 E0.02979
G1 X115.269 Y101.541 E0.02414
G1 X115.448 Y101.071 E0.01578
G1 X115.812 Y100.282 E0.02726
G1 X116.252 Y99.515 E0.02771
G1 X116.578 Y99.702 F7200.000
G1 F1800
G1 X117.117 Y98.926 E0.02960
G1 X117.412 Y98.562 E0.01470
G1 X117.931 Y97.996 E0.02409
G1 X118.574 Y97.402 E0.02743
G1 X119.308 Y96.837 E0.02905
G1 X119.699 Y96.579 E0.01469
G1 X120.353 Y96.201 E0.02370
G1 X121.146 Y95.826 E0.02749
G1 X121.961 Y95.524 E0.02727
G1 X122.825 Y95.289 E0.02805
G1 X123.720 Y95.131 E0.02852
G1 X124.187 Y95.082 E0.01470
G1 X124.954 Y95.049 E0.02409
G1 X125.819 Y95.082 E0.02715
G1 X126.747 Y95.203 E0.02933
G1 X127.206 Y95.297 E0.01469
G1 X127.936 Y95.492 E0.02370
G1 X128.762 Y95.787 E0.02750
G1 X129.560 Y96.155 E0.02755
G1 X130.363 Y96.617 E0.02906
G1 X130.752 Y96.879 E0.01469
G1 X131.351 Y97.339 E0.02370
G1 X132.001 Y97.928 E0.02749
G1 X132.592 Y98.566 E0.02727
G1 X133.163 Y99.308 E0.02934
G1 X133.422 Y99.699 E0.01471
G1 X133.806 Y100.364 E0.02409
G1 X134.175 Y101.147 E0.02713
G1 X134.476 Y101.962 E0.02723
G1 X134.720 Y102.865 E0.02933
G1 X134.809 Y103.325 E0.01469
G1 X134.908 Y104.074 E0.02370
G1 X134.951 Y104.950 E0.02749
G1 X134.918 Y105.819 E0.02727
G1 X134.797 Y106.747 E0.02933
G1 X134.703 Y107.206 E0.01469
G1 X134.508 Y107.936 E0.02370
G1 X134.213 Y108.762 E0.02749
G1 X133.849 Y109.552 E0.02727
G1 X133.383 Y110.363 E0.02933
G1 X133.121 Y110.752 E0.01469
G1 X132.661 Y111.351 E0.02370
G1 X132.072 Y112.001 E0.02749
G1 X131.434 Y112.592 E0.02727
G1 X130.692 Y113.163 E0.02934
G1 X130.301 Y113.422 E0.01471
G1 X129.636 Y113.806 E0.02409
G1 X128.853 Y114.175 E0.02713
G1 X128.038 Y114.476 E0.02723
G1 X127.135 Y114.720 E0.02933
G1 X126.675 Y114.809 E0.01469
G1 X125.926 Y114.908 E0.02370
G1 X125.050 Y114.951 E0.02749
G1 X124.181 Y114.918 E0.02727
G1 X123.253 Y114.797 E0.02933
G1 X122.794 Y114.703 E0.01469
G1 X122.064 Y114.508 E0.02370
G1 X121.238 Y114.213 E0.02749
G1 X120.448 Y113.849 E0.02727
G1 X119.637 Y113.383 E0.02934
G1 X119.248 Y113.121 E0.01469
G1 X118.649 Y112.661 E0.02370
G1 X117.999 Y112.072 E0.02750
G1 X117.402 Y111.427 E0.02755
G1 X116.851 Y110.711 E0.02833
G1 X116.359 Y109.936 E0.02877
G1 X116.004 Y109.254 E0.02409
G1 X115.814 Y108.827 E0.01469
G1 X115.524 Y108.038 E0.02635
G1 X115.289 Y107.176 E0.02802
G1 X115.131 Y106.280 E0.02852
G1 X115.082 Y105.813 E0.01470
G1 X115.049 Y105.046 E0.02409
G1 X115.082 Y104.181 E0.02714
G1 X115.199 Y103.276 E0.02860
G1 X115.400 Y102.381 E0.02877
G1 X115.627 Y101.660 E0.02370
G1 X115.798 Y101.212 E0.01504
G1 X116.151 Y100.447 E0.02640
G1 X116.548 Y99.754 E0.02506
G1 X116.875 Y99.941 F7200.000
G1 F1800
G1 X117.414 Y99.159 E0.02979
G1 X117.694 Y98.813 E0.01395
G1 X118.204 Y98.256 E0.02366
G1 X118.823 Y97.685 E0.02642
G1 X119.522 Y97.148 E0.02764
G1 X119.892 Y96.902 E0.01394
G1 X120.535 Y96.531 E0.02327
G1 X121.299 Y96.170 E0.02650
G1 X122.084 Y95.881 E0.02622
G1 X122.915 Y95.656 E0.02700
G1 X123.766 Y95.505 E0.02711
G1 X124.209 Y95.459 E0.01395
G1 X124.963 Y95.426 E0.02365
G1 X125.796 Y95.459 E0.02614
G1 X126.678 Y95.574 E0.02791
G1 X127.114 Y95.662 E0.01394
G1 X127.831 Y95.854 E0.02327
G1 X128.627 Y96.139 E0.02650
G1 X129.394 Y96.494 E0.02650
G1 X130.158 Y96.934 E0.02764
G1 X130.527 Y97.182 E0.01394
G1 X131.116 Y97.634 E0.02327
G1 X131.742 Y98.202 E0.02650
G1 X132.309 Y98.816 E0.02623
G1 X132.852 Y99.522 E0.02791
G1 X133.098 Y99.893 E0.01396
G1 X133.475 Y100.546 E0.02365
G1 X133.830 Y101.300 E0.02613
G1 X134.119 Y102.084 E0.02620
G1 X134.351 Y102.943 E0.02791
G1 X134.436 Y103.380 E0.01394
G1 X134.533 Y104.116 E0.02327
G1 X134.574 Y104.960 E0.02650
G1 X134.541 Y105.796 E0.02623
G1 X134.426 Y106.678 E0.02791
G1 X134.338 Y107.114 E0.01394
G1 X134.146 Y107.831 E0.02327
G1 X133.861 Y108.627 E0.02650
G1 X133.510 Y109.386 E0.02623
G1 X133.066 Y110.158 E0.02791
G1 X132.818 Y110.527 E0.01394
G1 X132.366 Y111.116 E0.02327
G1 X131.798 Y111.742 E0.02650
G1 X131.184 Y112.309 E0.02623
G1 X130.478 Y112.852 E0.02791
G1 X130.107 Y113.098 E0.01396
G1 X129.454 Y113.475 E0.02365
G1 X128.700 Y113.830 E0.02613
G1 X127.916 Y114.119 E0.02620
G1 X127.057 Y114.351 E0.02791
G1 X126.620 Y114.436 E0.01394
G1 X125.884 Y114.533 E0.02327
G1 X125.040 Y114.574 E0.02650
G1 X124.204 Y114.541 E0.02623
G1 X123.322 Y114.426 E0.02791
G1 X122.886 Y114.338 E0.01394
G1 X122.169 Y114.146 E0.02327
G1 X121.373 Y113.861 E0.02650
G1 X120.614 Y113.510 E0.02623
G1 X119.842 Y113.066 E0.02791
G1 X119.473 Y112.818 E0.01394
G1 X118.884 Y112.366 E0.02327
G1 X118.258 Y111.798 E0.02650
G1 X117.685 Y111.177 E0.02650
G1 X117.155 Y110.488 E0.02727
G1 X116.690 Y109.755 E0.02721
G1 X116.342 Y109.086 E0.02366
G1 X116.161 Y108.679 E0.01395
G1 X115.881 Y107.916 E0.02550
G1 X115.656 Y107.085 E0.02698
G1 X115.505 Y106.234 E0.02711
G1 X115.459 Y105.791 E0.01395
G1 X115.426 Y105.037 E0.02365
G1 X115.459 Y104.204 E0.02614
G1 X115.572 Y103.333 E0.02754
G1 X115.762 Y102.486 E0.02721
G1 X115.985 Y101.779 E0.02327
G1 X116.148 Y101.353 E0.01430
G1 X116.490 Y100.613 E0.02554
G1 X116.846 Y99.993 E0.02241
G1 X117.172 Y100.181 F7200.000
G1 F1800
G1 X117.711 Y99.390 E0.03001
G1 X117.976 Y99.063 E0.01320
G1 X118.476 Y98.517 E0.02322
G1 X119.072 Y97.968 E0.02540
G1 X119.736 Y97.458 E0.02623
G1 X120.086 Y97.226 E0.01319
G1 X120.717 Y96.861 E0.02284
G1 X121.452 Y96.515 E0.02549
G1 X122.206 Y96.238 E0.02518
G1 X123.005 Y96.022 E0.02595
G1 X123.813 Y95.880 E0.02571
G1 X124.231 Y95.835 E0.01320
G1 X124.971 Y95.803 E0.02322
G1 X125.772 Y95.835 E0.02513
G1 X126.610 Y95.945 E0.02650
G1 X127.023 Y96.028 E0.01319
G1 X127.726 Y96.216 E0.02284
G1 X128.491 Y96.491 E0.02550
G1 X129.228 Y96.832 E0.02545
G1 X129.953 Y97.250 E0.02623
G1 X130.302 Y97.485 E0.01319
G1 X130.880 Y97.928 E0.02283
G1 X131.482 Y98.475 E0.02549
G1 X132.026 Y99.065 E0.02518
G1 X132.542 Y99.736 E0.02651
G1 X132.774 Y100.086 E0.01320
G1 X133.145 Y100.728 E0.02322
G1 X133.486 Y101.453 E0.02513
G1 X133.762 Y102.206 E0.02516
G1 X133.982 Y103.022 E0.02650
G1 X134.063 Y103.435 E0.01319
G1 X134.158 Y104.157 E0.02284
G1 X134.197 Y104.969 E0.02549
G1 X134.165 Y105.772 E0.02519
G1 X134.055 Y106.610 E0.02650
G1 X133.972 Y107.023 E0.01319
G1 X133.784 Y107.726 E0.02284
G1 X133.509 Y108.491 E0.02549
G1 X133.172 Y109.220 E0.02518
G1 X132.750 Y109.953 E0.02651
G1 X132.515 Y110.302 E0.01319
G1 X132.072 Y110.880 E0.02284
G1 X131.525 Y111.482 E0.02549
G1 X130.935 Y112.026 E0.02518
G1 X130.264 Y112.542 E0.02651
G1 X129.914 Y112.774 E0.01320
G1 X129.272 Y113.145 E0.02322
G1 X128.547 Y113.486 E0.02513
G1 X127.794 Y113.762 E0.02516
G1 X126.978 Y113.982 E0.02650
G1 X126.565 Y114.063 E0.01319
G1 X125.843 Y114.158 E0.02284
G1 X125.031 Y114.197 E0.02549
G1 X124.228 Y114.165 E0.02519
G1 X123.390 Y114.055 E0.02650
G1 X122.977 Y113.972 E0.01319
G1 X122.274 Y113.784 E0.02284
G1 X121.509 Y113.509 E0.02549
G1 X120.780 Y113.172 E0.02518
G1 X120.047 Y112.750 E0.02651
G1 X119.698 Y112.515 E0.01319
G1 X119.120 Y112.072 E0.02284
G1 X118.518 Y111.525 E0.02550
G1 X117.968 Y110.928 E0.02545
G1 X117.468 Y110.278 E0.02570
G1 X117.021 Y109.574 E0.02618
G1 X116.679 Y108.917 E0.02322
G1 X116.508 Y108.532 E0.01320
G1 X116.237 Y107.794 E0.02465
G1 X116.025 Y107.011 E0.02542
G1 X115.880 Y106.187 E0.02624
G1 X115.835 Y105.769 E0.01320
G1 X115.803 Y105.029 E0.02322
G1 X115.835 Y104.228 E0.02513
G1 X115.942 Y103.407 E0.02596
G1 X116.124 Y102.592 E0.02618
G1 X116.342 Y101.897 E0.02283
G1 X116.497 Y101.494 E0.01356
G1 X116.828 Y100.780 E0.02468
G1 X117.142 Y100.233 E0.01975
G1 X117.469 Y100.421 F7200.000
G1 F1800
G1 X117.555 Y100.271 E0.00541
G1 X118.009 Y99.622 E0.02485
G1 X118.258 Y99.313 E0.01244
G1 X118.749 Y98.778 E0.02278
G1 X119.321 Y98.251 E0.02438
G1 X119.950 Y97.769 E0.02485
G1 X120.280 Y97.549 E0.01243
G1 X120.898 Y97.192 E0.02240
G1 X121.605 Y96.860 E0.02448
G1 X122.328 Y96.594 E0.02414
G1 X123.079 Y96.392 E0.02439
G1 X123.859 Y96.254 E0.02485
G1 X124.254 Y96.212 E0.01244
G1 X124.979 Y96.180 E0.02277
G1 X125.748 Y96.212 E0.02411
G1 X126.542 Y96.316 E0.02511
G1 X126.931 Y96.394 E0.01243
G1 X127.621 Y96.579 E0.02240
G1 X128.356 Y96.843 E0.02449
G1 X129.062 Y97.171 E0.02441
G1 X129.748 Y97.567 E0.02485
G1 X130.077 Y97.788 E0.01243
G1 X130.644 Y98.223 E0.02240
G1 X131.222 Y98.748 E0.02448
G1 X131.743 Y99.315 E0.02414
G1 X132.231 Y99.950 E0.02511
G1 X132.451 Y100.280 E0.01244
G1 X132.814 Y100.909 E0.02277
G1 X133.141 Y101.605 E0.02412
G1 X133.406 Y102.328 E0.02413
G1 X133.613 Y103.101 E0.02511
G1 X133.690 Y103.490 E0.01243
G1 X133.783 Y104.199 E0.02240
G1 X133.820 Y104.979 E0.02448
G1 X133.788 Y105.748 E0.02414
G1 X133.684 Y106.542 E0.02511
G1 X133.606 Y106.931 E0.01243
G1 X133.421 Y107.621 E0.02240
G1 X133.157 Y108.356 E0.02448
G1 X132.833 Y109.054 E0.02414
G1 X132.433 Y109.748 E0.02511
G1 X132.212 Y110.077 E0.01243
G1 X131.777 Y110.644 E0.02240
G1 X131.252 Y111.222 E0.02448
G1 X130.685 Y111.743 E0.02414
G1 X130.050 Y112.231 E0.02511
G1 X129.720 Y112.451 E0.01244
G1 X129.091 Y112.814 E0.02277
G1 X128.395 Y113.141 E0.02412
G1 X127.672 Y113.406 E0.02413
G1 X126.899 Y113.613 E0.02511
G1 X126.510 Y113.690 E0.01243
G1 X125.801 Y113.783 E0.02240
G1 X125.021 Y113.820 E0.02448
G1 X124.252 Y113.788 E0.02414
G1 X123.458 Y113.684 E0.02511
G1 X123.069 Y113.606 E0.01243
G1 X122.379 Y113.421 E0.02240
G1 X121.644 Y113.157 E0.02448
G1 X120.946 Y112.833 E0.02414
G1 X120.252 Y112.433 E0.02511
G1 X119.923 Y112.212 E0.01243
G1 X119.356 Y111.777 E0.02240
G1 X118.778 Y111.252 E0.02448
G1 X118.251 Y110.679 E0.02440
G1 X117.773 Y110.055 E0.02465
G1 X117.351 Y109.392 E0.02463
G1 X117.016 Y108.748 E0.02277
G1 X116.855 Y108.385 E0.01244
G1 X116.594 Y107.672 E0.02381
G1 X116.392 Y106.921 E0.02439
G1 X116.254 Y106.141 E0.02485
G1 X116.212 Y105.746 E0.01244
G1 X116.180 Y105.021 E0.02277
G1 X116.212 Y104.252 E0.02411
G1 X116.315 Y103.464 E0.02491
G1 X116.486 Y102.698 E0.02463
G1 X116.700 Y102.016 E0.02240
G1 X116.847 Y101.635 E0.01281
G1 X117.167 Y100.946 E0.02383
