; generated by Slic3r 1.37.2-prusa3d-win64 on 2018-04-16 at 02:33:28

; 

; external perimeters extrusion width = 0.45mm
; perimeters extrusion width = 0.45mm
; infill extrusion width = 0.45mm
; solid infill extrusion width = 0.45mm
; top infill extrusion width = 0.45mm
; first layer extrusion width = 0.42mm

M107
M115 U3.1.0 ; tell printer latest fw version
M83  ; extruder relative mode
M104 S150
M140 S75 ; set bed temp
G28 W ; home all without mesh bed level
G1 X125 Z80 F1000
M190 S75 ; wait for bed temp
M104 S230 ; set extruder temp
G80 ; mesh bed leveling
M109 S230 ; wait for extruder temp
G1 Y-3.0 F1000.0 ; go outside print area
G92 E0.0
G1 X60.0 E9.0  F1000.0 ; intro line
G1 X100.0 E12.5  F1000.0 ; intro line
G92 E0.0
M900 K45 ; Filament gcode
G21 ; set units to millimeters
G90 ; use absolute coordinates
M83 ; use relative distances for extrusion
;BEFORE_LAYER_CHANGE
;0.2


G1 E-0.80000 F2100.00000
G1 Z0.200 F7200.000
;AFTER_LAYER_CHANGE
;0.2
G1 X115.279 Y98.710 F7200.000
G1 E0.80000 F2100.00000
M204 S1000
G1 F1800
G1 X116.087 Y97.609 E0.04281
G1 X116.812 Y96.812 E0.03377
G1 X118.426 Y95.468 E0.06586
G1 X119.594 Y94.761 E0.04281
G1 X120.568 Y94.302 E0.03377
G1 X121.586 Y93.936 E0.03392
G1 X122.909 Y93.612 E0.04270
G1 X125.004 Y93.421 E0.06598
G1 X126.080 Y93.471 E0.03377
G1 X127.426 Y93.678 E0.04270
G1 X129.431 Y94.302 E0.06583
G1 X131.290 Y95.279 E0.06586
G1 X132.391 Y96.087 E0.04281
G1 X133.188 Y96.812 E0.03377
G1 X134.532 Y98.426 E0.06586
G1 X135.237 Y99.589 E0.04266
G1 X135.698 Y100.568 E0.03392
G1 X136.322 Y102.574 E0.06586
G1 X136.528 Y103.919 E0.04267
G1 X136.580 Y104.999 E0.03392
G1 X136.388 Y107.091 E0.06586
G1 X136.065 Y108.413 E0.04266
G1 X135.698 Y109.431 E0.03392
G1 X134.721 Y111.290 E0.06586
G1 X133.913 Y112.391 E0.04281
G1 X133.188 Y113.188 E0.03377
G1 X131.574 Y114.532 E0.06586
G1 X130.411 Y115.237 E0.04266
G1 X129.432 Y115.698 E0.03392
G1 X127.426 Y116.322 E0.06586
G1 X126.076 Y116.529 E0.04282
G1 X125.001 Y116.580 E0.03377
G1 X122.909 Y116.388 E0.06586
G1 X121.583 Y116.063 E0.04281
G1 X120.569 Y115.698 E0.03377
G1 X118.710 Y114.721 E0.06586
G1 X117.609 Y113.913 E0.04281
G1 X116.812 Y113.188 E0.03377
G1 X115.468 Y111.574 E0.06586
G1 X114.761 Y110.406 E0.04281
G1 X114.302 Y109.432 E0.03377
G1 X113.678 Y107.426 E0.06586
G1 X113.472 Y106.081 E0.04266
G1 X113.420 Y105.001 E0.03392
G1 X113.612 Y102.909 E0.06586
G1 X113.937 Y101.583 E0.04281
G1 X114.302 Y100.569 E0.03377
G1 X115.251 Y98.763 E0.06398
G1 X115.583 Y98.937 F7200.000
G1 F1800
G1 X116.377 Y97.849 E0.04225
G1 X117.078 Y97.079 E0.03263
G1 X118.635 Y95.782 E0.06356
G1 X119.770 Y95.094 E0.04162
G1 X120.712 Y94.651 E0.03263
G1 X121.691 Y94.298 E0.03263
G1 X122.982 Y93.981 E0.04168
G1 X125.004 Y93.798 E0.06363
G1 X126.039 Y93.846 E0.03249
G1 X127.353 Y94.048 E0.04168
G1 X129.286 Y94.650 E0.06349
G1 X131.081 Y95.592 E0.06356
G1 X132.151 Y96.377 E0.04162
G1 X132.921 Y97.078 E0.03263
G1 X134.218 Y98.635 E0.06356
G1 X134.906 Y99.770 E0.04162
G1 X135.349 Y100.712 E0.03263
G1 X135.952 Y102.647 E0.06356
G1 X136.154 Y103.960 E0.04162
G1 X136.202 Y104.999 E0.03263
G1 X136.019 Y107.018 E0.06356
G1 X135.703 Y108.307 E0.04162
G1 X135.350 Y109.286 E0.03263
G1 X134.408 Y111.081 E0.06356
G1 X133.623 Y112.151 E0.04162
G1 X132.922 Y112.921 E0.03263
G1 X131.365 Y114.218 E0.06355
G1 X130.230 Y114.906 E0.04162
G1 X129.288 Y115.349 E0.03263
G1 X127.353 Y115.952 E0.06356
G1 X126.041 Y116.154 E0.04162
G1 X125.001 Y116.202 E0.03263
G1 X122.982 Y116.019 E0.06356
G1 X121.693 Y115.703 E0.04162
G1 X120.714 Y115.350 E0.03263
G1 X118.919 Y114.408 E0.06356
G1 X117.849 Y113.623 E0.04162
G1 X117.079 Y112.922 E0.03263
G1 X115.782 Y111.365 E0.06356
G1 X115.094 Y110.230 E0.04162
G1 X114.651 Y109.288 E0.03263
G1 X114.048 Y107.353 E0.06356
G1 X113.846 Y106.041 E0.04162
G1 X113.798 Y105.001 E0.03263
G1 X113.981 Y102.982 E0.06356
G1 X114.297 Y101.693 E0.04162
G1 X114.650 Y100.714 E0.03263
G1 X115.555 Y98.990 E0.06104
G1 X116.345 Y99.499 F7200.000
G1 F1800
G1 X116.619 Y99.073 E0.01589
G1 X117.166 Y98.367 E0.02800
G1 X117.702 Y97.782 E0.02488
G1 X118.055 Y97.440 E0.01540
G1 X118.765 Y96.846 E0.02904
G1 X119.526 Y96.317 E0.02904
G1 X120.309 Y95.870 E0.02828
G1 X121.021 Y95.538 E0.02462
G1 X121.477 Y95.358 E0.01537
G1 X122.360 Y95.081 E0.02903
G1 X123.265 Y94.883 E0.02903
G1 X124.151 Y94.770 E0.02801
G1 X124.944 Y94.736 E0.02488
G1 X125.435 Y94.744 E0.01540
G1 X126.357 Y94.826 E0.02903
G1 X127.268 Y94.989 E0.02902
G1 X128.130 Y95.224 E0.02801
G1 X128.876 Y95.495 E0.02488
G1 X129.327 Y95.691 E0.01540
G1 X130.145 Y96.117 E0.02892
G1 X130.927 Y96.619 E0.02915
G1 X131.633 Y97.166 E0.02800
G1 X132.218 Y97.702 E0.02488
G1 X132.560 Y98.055 E0.01540
G1 X133.154 Y98.765 E0.02904
G1 X133.683 Y99.525 E0.02902
G1 X134.126 Y100.301 E0.02801
G1 X134.462 Y101.020 E0.02488
G1 X134.642 Y101.477 E0.01540
G1 X134.919 Y102.357 E0.02892
G1 X135.117 Y103.265 E0.02915
G1 X135.230 Y104.151 E0.02800
G1 X135.264 Y104.944 E0.02488
G1 X135.256 Y105.435 E0.01540
G1 X135.174 Y106.357 E0.02904
G1 X135.011 Y107.268 E0.02902
G1 X134.776 Y108.130 E0.02801
G1 X134.505 Y108.876 E0.02488
G1 X134.309 Y109.327 E0.01540
G1 X133.881 Y110.147 E0.02903
G1 X133.391 Y110.913 E0.02850
G1 X132.832 Y111.636 E0.02864
G1 X132.217 Y112.299 E0.02836
G1 X131.556 Y112.898 E0.02796
G1 X130.940 Y113.371 E0.02434
G1 X130.535 Y113.645 E0.01536
G1 X129.700 Y114.126 E0.03021
G1 X128.980 Y114.462 E0.02490
G1 X128.523 Y114.642 E0.01540
G1 X127.643 Y114.919 E0.02892
G1 X126.735 Y115.117 E0.02915
G1 X125.849 Y115.230 E0.02800
G1 X125.056 Y115.264 E0.02488
G1 X124.565 Y115.256 E0.01540
G1 X123.643 Y115.174 E0.02903
G1 X122.748 Y115.015 E0.02850
G1 X121.866 Y114.775 E0.02865
G1 X121.019 Y114.462 E0.02832
G1 X120.239 Y114.094 E0.02703
G1 X119.812 Y113.857 E0.01534
G1 X119.157 Y113.439 E0.02436
G1 X118.405 Y112.866 E0.02964
G1 X117.701 Y112.217 E0.03003
G1 X117.102 Y111.557 E0.02795
G1 X116.637 Y110.951 E0.02395
G1 X116.356 Y110.536 E0.01571
G1 X115.874 Y109.700 E0.03027
G1 X115.538 Y108.980 E0.02490
G1 X115.358 Y108.523 E0.01540
G1 X115.081 Y107.640 E0.02903
G1 X114.883 Y106.735 E0.02903
G1 X114.770 Y105.849 E0.02801
G1 X114.736 Y105.056 E0.02488
G1 X114.744 Y104.565 E0.01540
G1 X114.826 Y103.643 E0.02904
G1 X114.989 Y102.732 E0.02902
G1 X115.224 Y101.869 E0.02802
G1 X115.511 Y101.085 E0.02618
G1 X115.859 Y100.332 E0.02602
G1 X116.139 Y99.818 E0.01835
G1 X116.313 Y99.549 E0.01003
G1 X116.630 Y99.753 F7200.000
G1 F1800
G1 X116.923 Y99.297 E0.01700
G1 X117.450 Y98.616 E0.02700
G1 X117.976 Y98.041 E0.02445
G1 X118.312 Y97.716 E0.01465
G1 X119.001 Y97.140 E0.02815
G1 X119.720 Y96.640 E0.02748
G1 X120.475 Y96.208 E0.02728
G1 X121.175 Y95.882 E0.02419
G1 X121.609 Y95.712 E0.01463
G1 X122.449 Y95.447 E0.02763
G1 X123.321 Y95.256 E0.02798
G1 X124.175 Y95.147 E0.02701
G1 X124.954 Y95.113 E0.02445
G1 X125.422 Y95.121 E0.01465
G1 X126.299 Y95.198 E0.02763
G1 X127.178 Y95.355 E0.02797
G1 X128.009 Y95.581 E0.02701
G1 X128.742 Y95.848 E0.02445
G1 X129.170 Y96.034 E0.01465
G1 X129.963 Y96.448 E0.02803
G1 X130.703 Y96.923 E0.02758
G1 X131.384 Y97.450 E0.02700
G1 X131.959 Y97.976 E0.02445
G1 X132.284 Y98.312 E0.01464
G1 X132.860 Y99.001 E0.02815
G1 X133.360 Y99.720 E0.02746
G1 X133.788 Y100.467 E0.02701
G1 X134.117 Y101.174 E0.02445
G1 X134.288 Y101.609 E0.01465
G1 X134.556 Y102.462 E0.02803
G1 X134.744 Y103.321 E0.02758
G1 X134.853 Y104.175 E0.02700
G1 X134.887 Y104.954 E0.02445
G1 X134.879 Y105.421 E0.01465
G1 X134.800 Y106.316 E0.02815
G1 X134.645 Y107.178 E0.02746
G1 X134.419 Y108.009 E0.02701
G1 X134.152 Y108.742 E0.02445
G1 X133.966 Y109.170 E0.01465
G1 X133.558 Y109.951 E0.02763
G1 X133.087 Y110.689 E0.02746
G1 X132.549 Y111.386 E0.02760
G1 X131.957 Y112.026 E0.02733
G1 X131.321 Y112.604 E0.02696
G1 X130.716 Y113.068 E0.02391
G1 X130.329 Y113.329 E0.01462
G1 X129.533 Y113.788 E0.02881
G1 X128.826 Y114.117 E0.02446
G1 X128.391 Y114.288 E0.01465
G1 X127.538 Y114.556 E0.02803
G1 X126.679 Y114.744 E0.02758
G1 X125.825 Y114.853 E0.02700
G1 X125.046 Y114.887 E0.02445
G1 X124.578 Y114.879 E0.01465
G1 X123.701 Y114.802 E0.02763
G1 X122.838 Y114.649 E0.02746
G1 X121.989 Y114.418 E0.02760
G1 X121.172 Y114.117 E0.02730
G1 X120.417 Y113.762 E0.02618
G1 X120.009 Y113.536 E0.01460
G1 X119.366 Y113.126 E0.02392
G1 X118.641 Y112.572 E0.02861
G1 X117.974 Y111.957 E0.02843
G1 X117.396 Y111.321 E0.02696
G1 X116.939 Y110.726 E0.02352
G1 X116.672 Y110.331 E0.01497
G1 X116.212 Y109.533 E0.02887
G1 X115.883 Y108.826 E0.02446
G1 X115.712 Y108.391 E0.01465
G1 X115.447 Y107.551 E0.02763
G1 X115.256 Y106.679 E0.02798
G1 X115.147 Y105.825 E0.02701
G1 X115.113 Y105.046 E0.02445
G1 X115.121 Y104.579 E0.01464
G1 X115.200 Y103.684 E0.02815
G1 X115.355 Y102.822 E0.02746
G1 X115.581 Y101.991 E0.02702
G1 X115.857 Y101.236 E0.02520
G1 X116.198 Y100.496 E0.02557
G1 X116.597 Y99.804 E0.02504
G1 X116.914 Y100.007 F7200.000
G1 F1800
G1 X117.226 Y99.521 E0.01812
G1 X117.733 Y98.865 E0.02599
G1 X118.250 Y98.300 E0.02401
G1 X118.569 Y97.993 E0.01389
G1 X119.224 Y97.445 E0.02675
G1 X119.915 Y96.963 E0.02643
G1 X120.642 Y96.547 E0.02626
G1 X121.329 Y96.227 E0.02375
G1 X121.740 Y96.065 E0.01387
G1 X122.554 Y95.809 E0.02675
G1 X123.377 Y95.629 E0.02642
G1 X124.200 Y95.523 E0.02600
G1 X124.965 Y95.490 E0.02401
G1 X125.408 Y95.498 E0.01389
G1 X126.258 Y95.573 E0.02675
G1 X127.087 Y95.721 E0.02641
G1 X127.887 Y95.938 E0.02600
G1 X128.607 Y96.200 E0.02401
G1 X129.013 Y96.377 E0.01389
G1 X129.766 Y96.770 E0.02663
G1 X130.479 Y97.226 E0.02654
G1 X131.135 Y97.733 E0.02599
G1 X131.700 Y98.250 E0.02401
G1 X132.007 Y98.569 E0.01389
G1 X132.555 Y99.224 E0.02675
G1 X133.037 Y99.915 E0.02641
G1 X133.449 Y100.634 E0.02600
G1 X133.773 Y101.328 E0.02401
G1 X133.935 Y101.741 E0.01389
G1 X134.190 Y102.551 E0.02663
G1 X134.371 Y103.378 E0.02654
G1 X134.477 Y104.200 E0.02599
G1 X134.510 Y104.965 E0.02401
G1 X134.502 Y105.408 E0.01389
G1 X134.427 Y106.258 E0.02675
G1 X134.279 Y107.087 E0.02641
G1 X134.062 Y107.887 E0.02600
G1 X133.800 Y108.607 E0.02401
G1 X133.623 Y109.013 E0.01389
G1 X133.228 Y109.769 E0.02675
G1 X132.774 Y110.479 E0.02641
G1 X132.266 Y111.136 E0.02604
G1 X131.697 Y111.753 E0.02629
G1 X131.085 Y112.310 E0.02596
G1 X130.491 Y112.765 E0.02348
G1 X130.124 Y113.013 E0.01387
G1 X129.366 Y113.449 E0.02743
G1 X128.672 Y113.773 E0.02402
G1 X128.259 Y113.935 E0.01389
G1 X127.449 Y114.190 E0.02663
G1 X126.622 Y114.371 E0.02654
G1 X125.800 Y114.477 E0.02599
G1 X125.035 Y114.510 E0.02401
G1 X124.592 Y114.502 E0.01389
G1 X123.742 Y114.427 E0.02675
G1 X122.913 Y114.279 E0.02641
G1 X122.111 Y114.061 E0.02604
G1 X121.325 Y113.772 E0.02628
G1 X120.594 Y113.429 E0.02533
G1 X120.207 Y113.214 E0.01386
G1 X119.575 Y112.812 E0.02349
G1 X118.890 Y112.288 E0.02705
G1 X118.247 Y111.697 E0.02737
G1 X117.691 Y111.085 E0.02595
G1 X117.242 Y110.501 E0.02309
G1 X116.988 Y110.125 E0.01422
G1 X116.551 Y109.366 E0.02747
G1 X116.227 Y108.672 E0.02402
G1 X116.065 Y108.260 E0.01389
G1 X115.809 Y107.446 E0.02675
G1 X115.629 Y106.623 E0.02642
G1 X115.523 Y105.800 E0.02600
G1 X115.490 Y105.035 E0.02401
G1 X115.498 Y104.592 E0.01389
G1 X115.573 Y103.742 E0.02675
G1 X115.721 Y102.913 E0.02641
G1 X115.938 Y102.113 E0.02600
G1 X116.208 Y101.373 E0.02469
G1 X116.538 Y100.660 E0.02464
G1 X116.882 Y100.058 E0.02174
G1 X117.199 Y100.261 F7200.000
G1 F1800
G1 X117.530 Y99.744 E0.01923
G1 X118.016 Y99.113 E0.02498
G1 X118.524 Y98.559 E0.02357
G1 X118.826 Y98.269 E0.01313
G1 X119.446 Y97.749 E0.02537
G1 X120.110 Y97.286 E0.02539
G1 X120.808 Y96.885 E0.02525
G1 X121.482 Y96.571 E0.02331
G1 X121.872 Y96.419 E0.01312
G1 X122.644 Y96.176 E0.02537
G1 X123.434 Y96.002 E0.02537
G1 X124.224 Y95.899 E0.02498
G1 X124.975 Y95.867 E0.02357
G1 X125.394 Y95.875 E0.01313
G1 X126.200 Y95.946 E0.02537
G1 X126.997 Y96.087 E0.02537
G1 X127.766 Y96.295 E0.02498
G1 X128.472 Y96.552 E0.02357
G1 X128.856 Y96.720 E0.01313
G1 X129.571 Y97.092 E0.02525
G1 X130.256 Y97.530 E0.02550
G1 X130.887 Y98.016 E0.02497
G1 X131.441 Y98.524 E0.02357
G1 X131.731 Y98.826 E0.01313
G1 X132.251 Y99.446 E0.02537
G1 X132.714 Y100.110 E0.02537
G1 X133.111 Y100.801 E0.02498
G1 X133.429 Y101.482 E0.02357
G1 X133.582 Y101.872 E0.01313
G1 X133.823 Y102.640 E0.02525
G1 X133.998 Y103.434 E0.02550
G1 X134.101 Y104.224 E0.02498
G1 X134.133 Y104.975 E0.02357
G1 X134.125 Y105.394 E0.01313
G1 X134.054 Y106.200 E0.02537
G1 X133.913 Y106.997 E0.02537
G1 X133.705 Y107.766 E0.02499
G1 X133.448 Y108.472 E0.02357
G1 X133.280 Y108.856 E0.01313
G1 X132.906 Y109.574 E0.02537
G1 X132.470 Y110.256 E0.02537
G1 X131.983 Y110.887 E0.02500
G1 X131.437 Y111.479 E0.02526
G1 X130.849 Y112.015 E0.02496
G1 X130.266 Y112.463 E0.02304
G1 X129.919 Y112.696 E0.01311
G1 X129.199 Y113.111 E0.02604
G1 X128.518 Y113.429 E0.02357
G1 X128.128 Y113.582 E0.01313
G1 X127.360 Y113.823 E0.02525
G1 X126.566 Y113.998 E0.02550
G1 X125.776 Y114.101 E0.02498
G1 X125.025 Y114.133 E0.02357
G1 X124.606 Y114.125 E0.01313
G1 X123.800 Y114.054 E0.02537
G1 X123.003 Y113.913 E0.02537
G1 X122.233 Y113.705 E0.02500
G1 X121.477 Y113.427 E0.02525
G1 X120.771 Y113.096 E0.02448
G1 X120.405 Y112.893 E0.01311
G1 X119.785 Y112.498 E0.02304
G1 X119.126 Y111.994 E0.02602
G1 X118.521 Y111.437 E0.02578
G1 X117.985 Y110.849 E0.02495
G1 X117.545 Y110.276 E0.02266
G1 X117.304 Y109.920 E0.01347
G1 X116.889 Y109.199 E0.02608
G1 X116.571 Y108.518 E0.02357
G1 X116.419 Y108.128 E0.01313
G1 X116.176 Y107.356 E0.02537
G1 X116.002 Y106.566 E0.02538
G1 X115.899 Y105.776 E0.02498
G1 X115.867 Y105.025 E0.02357
G1 X115.875 Y104.606 E0.01313
G1 X115.946 Y103.800 E0.02537
G1 X116.087 Y103.003 E0.02537
G1 X116.295 Y102.234 E0.02498
G1 X116.554 Y101.524 E0.02369
G1 X116.878 Y100.824 E0.02419
G1 X117.167 Y100.311 E0.01845
G1 X117.485 Y100.514 F7200.000
G1 F1800
G1 X117.834 Y99.968 E0.02034
G1 X118.300 Y99.362 E0.02396
G1 X118.798 Y98.818 E0.02312
G1 X119.083 Y98.545 E0.01236
G1 X119.669 Y98.053 E0.02401
G1 X120.305 Y97.608 E0.02434
G1 X120.975 Y97.223 E0.02422
G1 X121.636 Y96.915 E0.02286
G1 X122.003 Y96.772 E0.01236
G1 X122.733 Y96.542 E0.02401
G1 X123.491 Y96.374 E0.02434
G1 X124.249 Y96.276 E0.02396
G1 X124.986 Y96.244 E0.02312
G1 X125.380 Y96.252 E0.01236
G1 X126.143 Y96.319 E0.02401
G1 X126.907 Y96.454 E0.02434
G1 X127.645 Y96.652 E0.02396
G1 X128.338 Y96.905 E0.02312
G1 X128.699 Y97.063 E0.01236
G1 X129.389 Y97.423 E0.02439
G1 X130.032 Y97.834 E0.02395
G1 X130.638 Y98.300 E0.02396
G1 X131.182 Y98.798 E0.02312
G1 X131.455 Y99.083 E0.01236
G1 X131.947 Y99.669 E0.02401
G1 X132.392 Y100.305 E0.02434
G1 X132.773 Y100.968 E0.02396
G1 X133.084 Y101.636 E0.02312
G1 X133.228 Y102.003 E0.01236
G1 X133.461 Y102.745 E0.02439
G1 X133.626 Y103.491 E0.02395
G1 X133.724 Y104.249 E0.02396
G1 X133.756 Y104.986 E0.02312
G1 X133.748 Y105.380 E0.01236
G1 X133.681 Y106.143 E0.02400
G1 X133.546 Y106.907 E0.02433
G1 X133.348 Y107.645 E0.02396
G1 X133.095 Y108.338 E0.02312
G1 X132.937 Y108.699 E0.01236
G1 X132.583 Y109.378 E0.02401
G1 X132.166 Y110.032 E0.02433
G1 X131.700 Y110.638 E0.02396
G1 X131.177 Y111.206 E0.02422
G1 X130.613 Y111.721 E0.02394
G1 X130.041 Y112.160 E0.02260
G1 X129.714 Y112.380 E0.01235
G1 X129.032 Y112.773 E0.02467
G1 X128.364 Y113.084 E0.02312
G1 X127.997 Y113.228 E0.01236
G1 X127.255 Y113.461 E0.02439
G1 X126.509 Y113.626 E0.02395
G1 X125.751 Y113.724 E0.02396
G1 X125.014 Y113.756 E0.02312
G1 X124.620 Y113.748 E0.01236
G1 X123.857 Y113.681 E0.02400
G1 X123.093 Y113.546 E0.02433
G1 X122.355 Y113.348 E0.02396
G1 X121.630 Y113.082 E0.02422
G1 X120.947 Y112.762 E0.02363
G1 X120.602 Y112.572 E0.01235
G1 X119.994 Y112.185 E0.02260
G1 X119.375 Y111.711 E0.02447
G1 X118.793 Y111.177 E0.02474
G1 X118.279 Y110.613 E0.02393
G1 X117.847 Y110.051 E0.02222
G1 X117.621 Y109.715 E0.01271
G1 X117.227 Y109.032 E0.02469
G1 X116.916 Y108.364 E0.02312
G1 X116.772 Y107.997 E0.01236
G1 X116.542 Y107.267 E0.02401
G1 X116.374 Y106.509 E0.02434
G1 X116.276 Y105.751 E0.02396
G1 X116.244 Y105.014 E0.02312
G1 X116.252 Y104.620 E0.01236
G1 X116.319 Y103.857 E0.02401
G1 X116.454 Y103.093 E0.02434
G1 X116.652 Y102.355 E0.02396
G1 X116.905 Y101.660 E0.02318
G1 X117.217 Y100.988 E0.02324
