; generated by Slic3r 1.37.2-prusa3d-win64 on 2018-04-15 at 20:22:54

; 

; external perimeters extrusion width = 0.45mm
; perimeters extrusion width = 0.45mm
; infill extrusion width = 0.45mm
; solid infill extrusion width = 0.45mm
; top infill extrusion width = 0.45mm
; first layer extrusion width = 0.42mm

M107
M115 U3.1.0 ; tell printer latest fw version
M83  ; extruder relative mode
M104 S150
M140 S75 ; set bed temp
G28 W ; home all without mesh bed level
G1 X125 Z80 F1000
M190 S75 ; wait for bed temp
M104 S230 ; set extruder temp
G80 ; mesh bed leveling
M109 S230 ; wait for extruder temp
G1 Y-3.0 F1000.0 ; go outside print area
G92 E0.0
G1 X60.0 E9.0  F1000.0 ; intro line
G1 X100.0 E12.5  F1000.0 ; intro line
G92 E0.0
M900 K45 ; Filament gcode
G21 ; set units to millimeters
G90 ; use absolute coordinates
M83 ; use relative distances for extrusion
;BEFORE_LAYER_CHANGE
;0.2


G1 E-0.80000 F2100.00000
G1 Z0.200 F7200.000
;AFTER_LAYER_CHANGE
;0.2
G1 X117.397 Y97.452 F7200.000
G1 E0.80000 F2100.00000
M204 S1000
G1 F1800
G1 X118.130 Y96.780 E0.03118
G1 X119.119 Y96.045 E0.03865
G1 X120.841 Y95.126 E0.06119
G1 X121.774 Y94.784 E0.03118
G1 X122.974 Y94.480 E0.03881
G1 X124.946 Y94.286 E0.06213
G1 X125.910 Y94.325 E0.03023
G1 X127.130 Y94.500 E0.03865
G1 X129.004 Y95.062 E0.06134
G1 X129.903 Y95.474 E0.03102
G1 X130.973 Y96.106 E0.03896
G1 X132.520 Y97.368 E0.06260
G1 X133.347 Y98.283 E0.03865
G1 X133.911 Y99.052 E0.02992
G1 X134.860 Y100.808 E0.06260
G1 X135.278 Y101.973 E0.03881
G1 X135.515 Y102.944 E0.03133
G1 X135.661 Y103.938 E0.03149
G1 X135.712 Y105.127 E0.03732
G1 X135.503 Y107.116 E0.06272
G1 X135.187 Y108.318 E0.03896
G1 X134.838 Y109.244 E0.03102
G1 X133.902 Y110.962 E0.06134
G1 X133.158 Y111.945 E0.03865
G1 X132.483 Y112.668 E0.03102
G1 X130.960 Y113.903 E0.06150
G1 X129.897 Y114.529 E0.03865
G1 X128.993 Y114.942 E0.03118
G1 X127.128 Y115.500 E0.06103
G1 X125.908 Y115.675 E0.03865
G1 X124.935 Y115.714 E0.03055
G1 X122.973 Y115.520 E0.06181
G1 X121.778 Y115.217 E0.03865
G1 X120.840 Y114.873 E0.03133
G1 X119.118 Y113.954 E0.06119
G1 X118.128 Y113.219 E0.03865
G1 X117.396 Y112.547 E0.03118
G1 X116.153 Y111.042 E0.06119
G1 X115.518 Y109.986 E0.03865
G1 X115.094 Y109.081 E0.03133
G1 X114.519 Y107.218 E0.06114
G1 X114.334 Y106.002 E0.03854
G1 X114.287 Y104.999 E0.03149
G1 X114.334 Y104.001 E0.03133
G1 X114.519 Y102.782 E0.03865
G1 X115.093 Y100.922 E0.06103
G1 X115.516 Y100.017 E0.03133
G1 X116.152 Y98.961 E0.03865
G1 X117.359 Y97.498 E0.05946
G1 X117.648 Y97.737 F7200.000
G1 F1800
G1 X118.367 Y97.073 E0.03067
G1 X119.327 Y96.360 E0.03750
G1 X120.987 Y95.474 E0.05900
G1 X121.886 Y95.144 E0.03005
G1 X123.050 Y94.849 E0.03765
G1 X124.942 Y94.663 E0.05960
G1 X125.876 Y94.701 E0.02930
G1 X127.060 Y94.871 E0.03750
G1 X128.862 Y95.411 E0.05900
G1 X129.725 Y95.806 E0.02975
G1 X130.763 Y96.419 E0.03780
G1 X132.254 Y97.636 E0.06034
G1 X133.056 Y98.523 E0.03750
G1 X133.600 Y99.265 E0.02885
G1 X134.512 Y100.954 E0.06019
G1 X134.917 Y102.085 E0.03765
G1 X135.145 Y103.016 E0.03005
G1 X135.286 Y103.969 E0.03020
G1 X135.335 Y105.127 E0.03635
G1 X135.135 Y107.036 E0.06017
G1 X134.829 Y108.202 E0.03780
G1 X134.492 Y109.094 E0.02991
G1 X133.592 Y110.747 E0.05900
G1 X132.868 Y111.704 E0.03765
G1 X132.220 Y112.398 E0.02975
G1 X130.755 Y113.586 E0.05915
G1 X129.725 Y114.194 E0.03750
G1 X128.853 Y114.592 E0.03005
G1 X127.060 Y115.129 E0.05870
G1 X125.876 Y115.299 E0.03750
G1 X124.937 Y115.337 E0.02946
G1 X123.050 Y115.151 E0.05945
G1 X121.886 Y114.856 E0.03765
G1 X120.987 Y114.526 E0.03005
G1 X119.331 Y113.642 E0.05885
G1 X118.370 Y112.930 E0.03750
G1 X117.661 Y112.278 E0.03021
G1 X116.466 Y110.831 E0.05885
G1 X115.849 Y109.806 E0.03749
G1 X115.441 Y108.933 E0.03021
G1 X114.889 Y107.144 E0.05870
G1 X114.709 Y105.962 E0.03749
G1 X114.664 Y105.000 E0.03020
G1 X114.834 Y103.136 E0.05870
G1 X115.117 Y101.974 E0.03749
G1 X115.441 Y101.067 E0.03020
G1 X115.849 Y100.194 E0.03020
G1 X116.466 Y99.169 E0.03750
G1 X117.610 Y97.783 E0.05635
G1 X117.899 Y98.022 F7200.000
G1 F1800
G1 X118.607 Y97.363 E0.03032
G1 X119.538 Y96.673 E0.03634
G1 X121.132 Y95.822 E0.05666
G1 X121.994 Y95.505 E0.02879
G1 X123.127 Y95.218 E0.03663
G1 X124.943 Y95.040 E0.05723
G1 X125.838 Y95.076 E0.02808
G1 X126.990 Y95.241 E0.03648
G1 X128.716 Y95.759 E0.05652
G1 X129.551 Y96.141 E0.02879
G1 X130.557 Y96.735 E0.03663
G1 X131.985 Y97.900 E0.05780
G1 X132.765 Y98.763 E0.03648
G1 X133.287 Y99.475 E0.02765
G1 X134.163 Y101.096 E0.05780
G1 X134.557 Y102.196 E0.03663
G1 X134.775 Y103.088 E0.02879
G1 X134.910 Y104.005 E0.02907
G1 X134.957 Y105.127 E0.03521
G1 X134.765 Y106.960 E0.05779
G1 X134.469 Y108.090 E0.03663
G1 X134.144 Y108.949 E0.02879
G1 X133.280 Y110.536 E0.05666
G1 X132.578 Y111.464 E0.03648
G1 X131.954 Y112.131 E0.02864
G1 X130.551 Y113.270 E0.05666
G1 X129.548 Y113.861 E0.03648
G1 X128.713 Y114.242 E0.02879
G1 X126.986 Y114.759 E0.05652
G1 X125.839 Y114.924 E0.03634
G1 X124.940 Y114.960 E0.02822
G1 X123.123 Y114.781 E0.05723
G1 X121.995 Y114.495 E0.03648
G1 X121.129 Y114.177 E0.02893
G1 X119.538 Y113.327 E0.05656
G1 X118.608 Y112.637 E0.03630
G1 X117.929 Y112.013 E0.02893
G1 X116.780 Y110.622 E0.05656
G1 X116.183 Y109.630 E0.03630
G1 X115.790 Y108.790 E0.02907
G1 X115.259 Y107.071 E0.05641
G1 X115.084 Y105.927 E0.03630
G1 X115.041 Y105.001 E0.02907
G1 X115.204 Y103.209 E0.05642
G1 X115.478 Y102.084 E0.03630
G1 X115.790 Y101.211 E0.02907
G1 X116.182 Y100.371 E0.02907
G1 X116.780 Y99.378 E0.03634
G1 X117.861 Y98.068 E0.05323
G1 X118.544 Y98.683 F7200.000
G1 F1800
G1 X119.149 Y98.118 E0.02594
G1 X119.722 Y97.669 E0.02283
G1 X120.081 Y97.423 E0.01365
G1 X120.735 Y97.037 E0.02381
G1 X121.472 Y96.684 E0.02563
G1 X122.241 Y96.398 E0.02572
G1 X122.657 Y96.276 E0.01358
G1 X123.305 Y96.127 E0.02084
G1 X124.085 Y96.013 E0.02474
G1 X124.888 Y95.968 E0.02519
G1 X125.633 Y95.989 E0.02337
G1 X126.142 Y96.039 E0.01606
G1 X126.808 Y96.149 E0.02114
G1 X127.564 Y96.338 E0.02446
G1 X128.348 Y96.609 E0.02599
G1 X129.094 Y96.947 E0.02567
G1 X129.701 Y97.286 E0.02180
G1 X130.066 Y97.520 E0.01359
G1 X130.669 Y97.966 E0.02354
G1 X131.303 Y98.528 E0.02655
G1 X131.883 Y99.149 E0.02664
G1 X132.284 Y99.656 E0.02028
G1 X132.531 Y100.010 E0.01352
G1 X132.919 Y100.652 E0.02354
G1 X133.291 Y101.413 E0.02655
G1 X133.592 Y102.208 E0.02664
G1 X133.769 Y102.830 E0.02028
G1 X133.864 Y103.251 E0.01353
G1 X133.979 Y104.004 E0.02390
G1 X134.037 Y104.952 E0.02977
G1 X133.991 Y105.886 E0.02933
G1 X133.870 Y106.713 E0.02619
G1 X133.670 Y107.539 E0.02666
G1 X133.459 Y108.170 E0.02086
G1 X133.299 Y108.572 E0.01356
G1 X132.969 Y109.256 E0.02381
G1 X132.552 Y109.958 E0.02561
G1 X132.077 Y110.615 E0.02542
G1 X131.799 Y110.948 E0.01360
G1 X131.338 Y111.438 E0.02111
G1 X130.758 Y111.961 E0.02446
G1 X130.097 Y112.458 E0.02595
G1 X129.399 Y112.891 E0.02574
G1 X129.016 Y113.092 E0.01358
G1 X128.410 Y113.366 E0.02084
G1 X127.667 Y113.631 E0.02473
G1 X126.854 Y113.841 E0.02632
G1 X126.016 Y113.976 E0.02662
G1 X125.371 Y114.026 E0.02028
G1 X124.940 Y114.034 E0.01352
G1 X124.190 Y113.997 E0.02353
G1 X123.354 Y113.882 E0.02648
G1 X122.543 Y113.693 E0.02611
G1 X121.910 Y113.488 E0.02086
G1 X121.507 Y113.331 E0.01356
G1 X120.818 Y113.007 E0.02386
G1 X120.041 Y112.550 E0.02828
G1 X119.513 Y112.175 E0.02030
G1 X119.176 Y111.905 E0.01353
G1 X118.593 Y111.367 E0.02488
G1 X118.054 Y110.774 E0.02512
G1 X117.621 Y110.209 E0.02233
G1 X117.378 Y109.848 E0.01364
G1 X116.998 Y109.191 E0.02381
G1 X116.652 Y108.450 E0.02563
G1 X116.373 Y107.679 E0.02572
G1 X116.255 Y107.262 E0.01358
G1 X116.112 Y106.613 E0.02084
G1 X116.006 Y105.841 E0.02442
G1 X115.967 Y105.015 E0.02594
G1 X116.003 Y104.194 E0.02575
G1 X116.052 Y103.764 E0.01358
G1 X116.167 Y103.109 E0.02084
G1 X116.363 Y102.355 E0.02443
G1 X116.641 Y101.576 E0.02595
G1 X116.988 Y100.828 E0.02585
G1 X117.206 Y100.435 E0.01408
G1 X117.552 Y99.889 E0.02026
G1 X118.019 Y99.267 E0.02439
G1 X118.504 Y98.728 E0.02276
G1 X118.784 Y98.980 F7200.000
G1 F1800
G1 X119.399 Y98.400 E0.02650
G1 X119.950 Y97.970 E0.02190
G1 X120.289 Y97.738 E0.01289
G1 X120.920 Y97.366 E0.02296
G1 X121.612 Y97.034 E0.02407
G1 X122.354 Y96.758 E0.02483
G1 X122.747 Y96.642 E0.01284
G1 X123.382 Y96.496 E0.02042
G1 X124.131 Y96.387 E0.02374
G1 X124.900 Y96.344 E0.02415
G1 X125.615 Y96.366 E0.02242
G1 X126.087 Y96.412 E0.01488
G1 X126.738 Y96.520 E0.02070
G1 X127.465 Y96.702 E0.02347
G1 X128.216 Y96.963 E0.02493
G1 X128.930 Y97.287 E0.02461
G1 X129.512 Y97.612 E0.02088
G1 X129.857 Y97.833 E0.01285
G1 X130.438 Y98.264 E0.02269
G1 X131.046 Y98.804 E0.02549
G1 X131.592 Y99.389 E0.02508
G1 X131.984 Y99.886 E0.01986
G1 X132.218 Y100.220 E0.01280
G1 X132.592 Y100.840 E0.02269
G1 X132.949 Y101.570 E0.02549
G1 X133.231 Y102.319 E0.02508
G1 X133.405 Y102.928 E0.01986
G1 X133.494 Y103.327 E0.01281
G1 X133.605 Y104.053 E0.02303
G1 X133.660 Y104.964 E0.02862
G1 X133.614 Y105.858 E0.02806
G1 X133.499 Y106.649 E0.02509
G1 X133.310 Y107.427 E0.02510
G1 X133.104 Y108.045 E0.02043
G1 X132.951 Y108.425 E0.01283
G1 X132.633 Y109.085 E0.02296
G1 X132.241 Y109.744 E0.02406
G1 X131.783 Y110.379 E0.02453
G1 X131.521 Y110.694 E0.01286
G1 X131.068 Y111.174 E0.02068
G1 X130.512 Y111.675 E0.02347
G1 X129.891 Y112.143 E0.02437
G1 X129.218 Y112.560 E0.02485
G1 X128.855 Y112.751 E0.01284
G1 X128.262 Y113.019 E0.02042
G1 X127.549 Y113.273 E0.02373
G1 X126.769 Y113.474 E0.02525
G1 X125.979 Y113.601 E0.02507
G1 X125.348 Y113.649 E0.01986
G1 X124.940 Y113.657 E0.01280
G1 X124.217 Y113.621 E0.02268
G1 X123.431 Y113.513 E0.02490
G1 X122.651 Y113.332 E0.02509
G1 X122.031 Y113.131 E0.02042
G1 X121.650 Y112.982 E0.01283
G1 X120.987 Y112.670 E0.02299
G1 X120.252 Y112.238 E0.02671
G1 X119.736 Y111.871 E0.01987
G1 X119.417 Y111.615 E0.01281
G1 X118.866 Y111.107 E0.02350
G1 X118.348 Y110.539 E0.02411
G1 X117.924 Y109.985 E0.02189
G1 X117.695 Y109.644 E0.01288
G1 X117.328 Y109.009 E0.02296
G1 X117.003 Y108.314 E0.02407
G1 X116.734 Y107.569 E0.02483
G1 X116.622 Y107.175 E0.01284
G1 X116.482 Y106.539 E0.02041
G1 X116.381 Y105.799 E0.02344
G1 X116.344 Y105.022 E0.02436
G1 X116.378 Y104.230 E0.02486
G1 X116.425 Y103.823 E0.01284
G1 X116.537 Y103.182 E0.02042
G1 X116.726 Y102.458 E0.02345
G1 X116.987 Y101.726 E0.02437
G1 X117.321 Y101.005 E0.02494
G1 X117.527 Y100.632 E0.01334
G1 X117.866 Y100.098 E0.01985
G1 X118.315 Y99.501 E0.02341
G1 X118.744 Y99.024 E0.02011
G1 X119.024 Y99.276 F7200.000
G1 F1800
G1 X119.638 Y98.692 E0.02657
G1 X120.177 Y98.271 E0.02146
G1 X120.496 Y98.053 E0.01212
G1 X121.104 Y97.695 E0.02211
G1 X121.767 Y97.378 E0.02304
G1 X122.467 Y97.117 E0.02342
G1 X122.837 Y97.008 E0.01210
G1 X123.459 Y96.865 E0.01999
G1 X124.177 Y96.762 E0.02275
G1 X124.913 Y96.721 E0.02311
G1 X125.597 Y96.742 E0.02146
G1 X126.032 Y96.785 E0.01370
G1 X126.669 Y96.890 E0.02026
G1 X127.364 Y97.065 E0.02248
G1 X128.068 Y97.310 E0.02335
G1 X128.753 Y97.620 E0.02359
G1 X129.322 Y97.938 E0.02044
G1 X129.647 Y98.147 E0.01210
G1 X130.207 Y98.562 E0.02184
G1 X130.776 Y99.068 E0.02389
G1 X131.301 Y99.629 E0.02407
G1 X131.685 Y100.115 E0.01943
G1 X131.905 Y100.431 E0.01207
G1 X132.265 Y101.027 E0.02184
G1 X132.599 Y101.712 E0.02389
G1 X132.871 Y102.430 E0.02407
G1 X133.041 Y103.026 E0.01943
G1 X133.125 Y103.402 E0.01208
G1 X133.231 Y104.101 E0.02216
G1 X133.283 Y104.975 E0.02748
G1 X133.238 Y105.829 E0.02680
G1 X133.130 Y106.569 E0.02346
G1 X132.950 Y107.315 E0.02407
G1 X132.748 Y107.920 E0.01999
G1 X132.604 Y108.278 E0.01210
G1 X132.297 Y108.913 E0.02211
G1 X131.921 Y109.544 E0.02303
G1 X131.490 Y110.143 E0.02313
G1 X131.242 Y110.439 E0.01211
G1 X130.799 Y110.910 E0.02026
G1 X130.266 Y111.389 E0.02247
G1 X129.672 Y111.836 E0.02333
G1 X129.036 Y112.230 E0.02344
G1 X128.695 Y112.409 E0.01210
G1 X128.114 Y112.672 E0.01999
G1 X127.430 Y112.915 E0.02274
G1 X126.700 Y113.103 E0.02364
G1 X125.943 Y113.225 E0.02406
G1 X125.325 Y113.273 E0.01943
G1 X124.940 Y113.279 E0.01207
G1 X124.244 Y113.245 E0.02183
G1 X123.491 Y113.141 E0.02385
G1 X122.760 Y112.970 E0.02354
G1 X122.153 Y112.774 E0.02000
G1 X121.794 Y112.633 E0.01210
G1 X121.155 Y112.332 E0.02213
G1 X120.464 Y111.926 E0.02515
G1 X119.958 Y111.567 E0.01944
G1 X119.658 Y111.326 E0.01207
G1 X119.128 Y110.836 E0.02263
G1 X118.633 Y110.291 E0.02308
G1 X118.227 Y109.760 E0.02096
G1 X118.011 Y109.439 E0.01213
G1 X117.659 Y108.828 E0.02211
G1 X117.349 Y108.162 E0.02304
G1 X117.095 Y107.460 E0.02342
G1 X116.989 Y107.088 E0.01210
G1 X116.852 Y106.466 E0.01999
G1 X116.756 Y105.756 E0.02245
G1 X116.721 Y105.013 E0.02332
G1 X116.753 Y104.266 E0.02345
G1 X116.797 Y103.883 E0.01210
G1 X116.907 Y103.255 E0.01999
G1 X117.088 Y102.562 E0.02245
G1 X117.339 Y101.862 E0.02333
G1 X117.654 Y101.181 E0.02351
G1 X117.849 Y100.829 E0.01261
G1 X118.180 Y100.306 E0.01943
G1 X118.611 Y99.735 E0.02243
G1 X118.984 Y99.321 E0.01746
G1 X119.264 Y99.573 F7200.000
G1 F1800
G1 X119.888 Y98.974 E0.02714
G1 X120.404 Y98.572 E0.02051
G1 X120.704 Y98.368 E0.01136
G1 X121.288 Y98.024 E0.02125
G1 X121.921 Y97.722 E0.02201
G1 X122.580 Y97.477 E0.02204
G1 X122.928 Y97.375 E0.01136
G1 X123.535 Y97.235 E0.01956
G1 X124.222 Y97.136 E0.02174
G1 X124.925 Y97.098 E0.02207
G1 X125.579 Y97.119 E0.02051
G1 X125.976 Y97.158 E0.01253
G1 X126.600 Y97.261 E0.01982
G1 X127.264 Y97.429 E0.02147
G1 X127.936 Y97.663 E0.02230
G1 X128.576 Y97.953 E0.02205
G1 X129.133 Y98.265 E0.02000
G1 X129.438 Y98.461 E0.01135
G1 X129.975 Y98.860 E0.02099
G1 X130.519 Y99.344 E0.02284
G1 X131.010 Y99.869 E0.02252
G1 X131.386 Y100.344 E0.01901
G1 X131.592 Y100.641 E0.01134
G1 X131.937 Y101.214 E0.02099
G1 X132.256 Y101.869 E0.02284
G1 X132.510 Y102.541 E0.02252
G1 X132.677 Y103.124 E0.01900
G1 X132.755 Y103.477 E0.01134
G1 X132.857 Y104.149 E0.02129
G1 X132.906 Y104.987 E0.02633
G1 X132.862 Y105.800 E0.02553
G1 X132.758 Y106.506 E0.02237
G1 X132.590 Y107.204 E0.02252
G1 X132.392 Y107.795 E0.01956
G1 X132.256 Y108.131 E0.01136
G1 X131.961 Y108.741 E0.02125
G1 X131.602 Y109.344 E0.02200
G1 X131.195 Y109.907 E0.02176
G1 X130.964 Y110.185 E0.01137
G1 X130.530 Y110.645 E0.01982
G1 X130.021 Y111.103 E0.02147
G1 X129.452 Y111.529 E0.02228
G1 X128.854 Y111.899 E0.02205
G1 X128.534 Y112.068 E0.01136
G1 X127.966 Y112.325 E0.01956
G1 X127.312 Y112.557 E0.02173
G1 X126.615 Y112.736 E0.02258
G1 X125.906 Y112.850 E0.02251
G1 X125.302 Y112.897 E0.01900
G1 X124.940 Y112.902 E0.01134
G1 X124.272 Y112.869 E0.02099
G1 X123.568 Y112.771 E0.02228
G1 X122.868 Y112.609 E0.02251
G1 X122.275 Y112.417 E0.01956
G1 X121.938 Y112.285 E0.01136
G1 X121.324 Y111.995 E0.02127
G1 X120.676 Y111.614 E0.02359
G1 X120.181 Y111.263 E0.01901
G1 X119.900 Y111.036 E0.01134
G1 X119.401 Y110.576 E0.02127
G1 X118.927 Y110.056 E0.02206
G1 X118.530 Y109.536 E0.02051
G1 X118.328 Y109.235 E0.01136
G1 X117.990 Y108.647 E0.02125
G1 X117.694 Y108.011 E0.02201
G1 X117.455 Y107.350 E0.02204
G1 X117.356 Y107.002 E0.01136
G1 X117.222 Y106.392 E0.01956
G1 X117.131 Y105.714 E0.02146
G1 X117.098 Y105.021 E0.02176
G1 X117.129 Y104.302 E0.02257
G1 X117.169 Y103.942 E0.01135
G1 X117.277 Y103.328 E0.01956
G1 X117.451 Y102.666 E0.02145
G1 X117.691 Y101.997 E0.02228
G1 X117.987 Y101.358 E0.02210
G1 X118.171 Y101.026 E0.01187
G1 X118.495 Y100.514 E0.01900
G1 X118.907 Y99.969 E0.02144
G1 X119.223 Y99.618 E0.01481
G1 X119.503 Y99.871 F7200.000
G1 F1800
G1 X119.646 Y99.712 E0.00669
G1 X120.138 Y99.257 E0.02103
G1 X120.631 Y98.873 E0.01957
G1 X120.910 Y98.683 E0.01060
G1 X121.472 Y98.353 E0.02041
G1 X122.061 Y98.073 E0.02047
G1 X122.694 Y97.837 E0.02117
G1 X123.018 Y97.741 E0.01060
G1 X123.612 Y97.604 E0.01912
G1 X124.266 Y97.511 E0.02072
G1 X124.936 Y97.475 E0.02103
G1 X125.560 Y97.496 E0.01957
G1 X125.921 Y97.531 E0.01137
G1 X126.531 Y97.632 E0.01938
G1 X127.163 Y97.792 E0.02046
G1 X127.803 Y98.016 E0.02125
G1 X128.413 Y98.293 E0.02101
G1 X128.944 Y98.591 E0.01907
G1 X129.228 Y98.774 E0.01060
G1 X129.743 Y99.157 E0.02015
G1 X130.250 Y99.608 E0.02126
G1 X130.719 Y100.109 E0.02151
G1 X131.086 Y100.573 E0.01857
G1 X131.279 Y100.851 E0.01059
G1 X131.610 Y101.402 E0.02015
G1 X131.907 Y102.011 E0.02126
G1 X132.150 Y102.653 E0.02151
G1 X132.313 Y103.222 E0.01857
