; generated by Slic3r 1.37.2-prusa3d-win64 on 2018-04-16 at 02:33:50

; 

; external perimeters extrusion width = 0.45mm
; perimeters extrusion width = 0.45mm
; infill extrusion width = 0.45mm
; solid infill extrusion width = 0.45mm
; top infill extrusion width = 0.45mm
; first layer extrusion width = 0.42mm

M107
M115 U3.1.0 ; tell printer latest fw version
M83  ; extruder relative mode
M104 S150
M140 S75 ; set bed temp
G28 W ; home all without mesh bed level
G1 X125 Z80 F1000
M190 S75 ; wait for bed temp
M104 S230 ; set extruder temp
G80 ; mesh bed leveling
M109 S230 ; wait for extruder temp
G1 Y-3.0 F1000.0 ; go outside print area
G92 E0.0
G1 X60.0 E9.0  F1000.0 ; intro line
G1 X100.0 E12.5  F1000.0 ; intro line
G92 E0.0
M900 K45 ; Filament gcode
G21 ; set units to millimeters
G90 ; use absolute coordinates
M83 ; use relative distances for extrusion
;BEFORE_LAYER_CHANGE
;0.2


G1 E-0.80000 F2100.00000
G1 Z0.200 F7200.000
;AFTER_LAYER_CHANGE
;0.2
G1 X117.577 Y97.631 F7200.000
G1 E0.80000 F2100.00000
M204 S1000
G1 F1800
G1 X118.294 Y96.974 E0.03048
G1 X119.257 Y96.259 E0.03761
G1 X120.940 Y95.360 E0.05981
G1 X121.853 Y95.025 E0.03048
G1 X123.020 Y94.730 E0.03777
G1 X124.948 Y94.540 E0.06075
G1 X125.890 Y94.578 E0.02954
G1 X127.077 Y94.749 E0.03761
G1 X128.900 Y95.294 E0.05965
G1 X129.784 Y95.698 E0.03048
G1 X130.818 Y96.307 E0.03761
G1 X132.307 Y97.515 E0.06012
G1 X132.964 Y98.218 E0.03017
G1 X133.688 Y99.175 E0.03761
G1 X134.604 Y100.854 E0.05996
G1 X134.947 Y101.763 E0.03048
G1 X135.253 Y102.928 E0.03777
G1 X135.459 Y104.861 E0.06094
G1 X135.409 Y106.032 E0.03676
G1 X135.267 Y107.004 E0.03080
G1 X135.035 Y107.954 E0.03064
G1 X134.630 Y109.083 E0.03761
G1 X133.704 Y110.802 E0.06122
G1 X133.149 Y111.557 E0.02938
G1 X132.345 Y112.447 E0.03761
G1 X130.829 Y113.685 E0.06137
G1 X129.787 Y114.300 E0.03793
G1 X128.912 Y114.701 E0.03017
G1 X127.081 Y115.251 E0.05996
G1 X125.893 Y115.421 E0.03761
G1 X124.937 Y115.460 E0.03001
G1 X123.019 Y115.270 E0.06043
G1 X121.851 Y114.974 E0.03777
G1 X120.938 Y114.639 E0.03048
G1 X119.256 Y113.741 E0.05981
G1 X118.293 Y113.025 E0.03761
G1 X117.576 Y112.368 E0.03049
G1 X116.362 Y110.897 E0.05981
G1 X115.743 Y109.869 E0.03761
G1 X115.327 Y108.979 E0.03080
G1 X114.998 Y108.059 E0.03064
G1 X114.714 Y106.894 E0.03761
G1 X114.541 Y104.999 E0.05965
G1 X114.587 Y104.023 E0.03064
G1 X114.767 Y102.837 E0.03761
G1 X115.328 Y101.019 E0.05965
G1 X115.742 Y100.134 E0.03064
G1 X116.360 Y99.106 E0.03761
G1 X117.539 Y97.677 E0.05808
G1 X117.828 Y97.916 F7200.000
G1 F1800
G1 X118.531 Y97.267 E0.02998
G1 X119.464 Y96.574 E0.03646
G1 X121.081 Y95.710 E0.05747
G1 X121.960 Y95.387 E0.02936
G1 X123.096 Y95.099 E0.03676
G1 X124.944 Y94.917 E0.05822
G1 X125.856 Y94.954 E0.02861
G1 X127.007 Y95.119 E0.03646
G1 X128.759 Y95.643 E0.05732
G1 X129.610 Y96.033 E0.02936
G1 X130.612 Y96.623 E0.03646
G1 X132.040 Y97.781 E0.05762
G1 X132.676 Y98.461 E0.02921
G1 X133.377 Y99.389 E0.03646
G1 X134.255 Y100.998 E0.05747
G1 X134.586 Y101.874 E0.02936
G1 X134.883 Y103.003 E0.03661
G1 X135.082 Y104.859 E0.05852
G1 X135.034 Y106.000 E0.03581
G1 X134.897 Y106.931 E0.02951
G1 X134.675 Y107.841 E0.02936
G1 X134.279 Y108.945 E0.03676
G1 X133.391 Y110.591 E0.05866
G1 X132.857 Y111.320 E0.02832
G1 X132.077 Y112.182 E0.03646
G1 X130.620 Y113.371 E0.05896
G1 X129.610 Y113.967 E0.03676
G1 X128.767 Y114.353 E0.02906
G1 X127.007 Y114.881 E0.05762
G1 X125.856 Y115.046 E0.03646
G1 X124.940 Y115.083 E0.02876
G1 X123.097 Y114.901 E0.05807
G1 X121.965 Y114.615 E0.03661
G1 X121.085 Y114.292 E0.02936
G1 X119.468 Y113.429 E0.05747
G1 X118.531 Y112.733 E0.03661
G1 X117.841 Y112.100 E0.02936
G1 X116.674 Y110.686 E0.05747
G1 X116.075 Y109.689 E0.03646
G1 X115.676 Y108.837 E0.02951
G1 X115.137 Y107.090 E0.05732
G1 X114.962 Y105.940 E0.03646
G1 X114.918 Y105.000 E0.02951
G1 X115.084 Y103.179 E0.05732
G1 X115.359 Y102.050 E0.03646
G1 X115.676 Y101.163 E0.02951
G1 X116.075 Y100.311 E0.02951
G1 X116.674 Y99.314 E0.03646
G1 X117.790 Y97.962 E0.05497
G1 X118.080 Y98.201 F7200.000
G1 F1800
G1 X118.771 Y97.557 E0.02963
G1 X119.676 Y96.886 E0.03531
G1 X121.231 Y96.056 E0.05528
G1 X122.072 Y95.747 E0.02810
G1 X123.173 Y95.468 E0.03559
G1 X124.945 Y95.294 E0.05585
G1 X125.818 Y95.329 E0.02738
G1 X126.937 Y95.490 E0.03545
G1 X128.617 Y95.993 E0.05500
G1 X129.432 Y96.365 E0.02810
G1 X130.406 Y96.939 E0.03545
G1 X131.776 Y98.050 E0.05528
G1 X132.385 Y98.701 E0.02795
G1 X133.067 Y99.603 E0.03545
G1 X133.909 Y101.147 E0.05514
G1 X134.226 Y101.985 E0.02809
G1 X134.515 Y103.083 E0.03559
G1 X134.705 Y104.857 E0.05597
G1 X134.658 Y105.963 E0.03469
G1 X134.527 Y106.858 E0.02838
G1 X134.313 Y107.733 E0.02824
G1 X133.932 Y108.798 E0.03545
G1 X133.078 Y110.381 E0.05641
G1 X131.812 Y111.914 E0.06233
G1 X130.415 Y113.055 E0.05656
G1 X129.437 Y113.632 E0.03559
G1 X128.627 Y114.003 E0.02795
G1 X126.938 Y114.510 E0.05528
G1 X125.819 Y114.671 E0.03545
G1 X124.942 Y114.706 E0.02753
G1 X123.169 Y114.531 E0.05585
G1 X122.073 Y114.254 E0.03545
G1 X121.232 Y113.944 E0.02810
G1 X119.680 Y113.117 E0.05514
G1 X118.772 Y112.444 E0.03545
G1 X118.109 Y111.834 E0.02824
G1 X116.989 Y110.477 E0.05518
G1 X116.406 Y109.510 E0.03541
G1 X116.025 Y108.694 E0.02824
G1 X115.507 Y107.017 E0.05503
G1 X115.337 Y105.905 E0.03527
G1 X115.295 Y105.001 E0.02838
G1 X115.454 Y103.253 E0.05503
G1 X115.720 Y102.160 E0.03527
G1 X116.025 Y101.307 E0.02838
G1 X116.408 Y100.487 E0.02838
G1 X116.989 Y99.523 E0.03531
G1 X118.041 Y98.247 E0.05185
G1 X118.723 Y98.869 F7200.000
G1 F1800
G1 X119.391 Y98.247 E0.02862
G1 X120.165 Y97.673 E0.03019
G1 X120.875 Y97.250 E0.02592
G1 X121.642 Y96.888 E0.02660
G1 X122.402 Y96.615 E0.02533
G1 X123.337 Y96.380 E0.03023
G1 X124.183 Y96.259 E0.02678
G1 X125.028 Y96.221 E0.02652
G1 X125.970 Y96.275 E0.02961
G1 X126.750 Y96.396 E0.02472
G1 X127.515 Y96.588 E0.02474
G1 X128.267 Y96.850 E0.02496
G1 X129.213 Y97.297 E0.03280
G1 X129.892 Y97.709 E0.02491
G1 X130.549 Y98.196 E0.02564
G1 X131.166 Y98.750 E0.02600
G1 X131.714 Y99.343 E0.02532
G1 X132.283 Y100.097 E0.02961
G1 X132.712 Y100.802 E0.02588
G1 X133.080 Y101.563 E0.02651
G1 X133.356 Y102.305 E0.02483
G1 X133.617 Y103.317 E0.03277
G1 X133.738 Y104.138 E0.02600
G1 X133.784 Y105.046 E0.02853
G1 X133.734 Y105.898 E0.02674
G1 X133.607 Y106.736 E0.02660
G1 X133.414 Y107.507 E0.02489
G1 X133.057 Y108.489 E0.03276
G1 X132.707 Y109.207 E0.02506
G1 X132.282 Y109.905 E0.02562
G1 X131.701 Y110.672 E0.03019
G1 X131.152 Y111.264 E0.02532
G1 X130.542 Y111.810 E0.02564
G1 X129.892 Y112.291 E0.02537
G1 X129.212 Y112.703 E0.02491
G1 X128.229 Y113.165 E0.03407
G1 X127.499 Y113.417 E0.02422
G1 X126.746 Y113.604 E0.02431
G1 X125.945 Y113.728 E0.02544
G1 X124.879 Y113.779 E0.03345
G1 X124.108 Y113.734 E0.02420
G1 X123.344 Y113.622 E0.02423
G1 X122.572 Y113.436 E0.02490
G1 X121.548 Y113.073 E0.03407
G1 X120.850 Y112.737 E0.02427
G1 X120.164 Y112.327 E0.02505
G1 X119.391 Y111.753 E0.03021
G1 X118.743 Y111.158 E0.02757
G1 X118.220 Y110.577 E0.02451
G1 X117.754 Y109.957 E0.02432
G1 X117.328 Y109.266 E0.02544
G1 X116.866 Y108.305 E0.03345
G1 X116.607 Y107.576 E0.02425
G1 X116.408 Y106.802 E0.02506
G1 X116.263 Y105.850 E0.03020
G1 X116.221 Y105.000 E0.02667
G1 X116.284 Y103.954 E0.03286
G1 X116.414 Y103.171 E0.02489
G1 X116.615 Y102.399 E0.02501
G1 X116.884 Y101.652 E0.02488
G1 X117.253 Y100.872 E0.02705
G1 X117.741 Y100.063 E0.02963
G1 X118.236 Y99.403 E0.02588
G1 X118.683 Y98.913 E0.02077
G1 X118.961 Y99.167 F7200.000
G1 F1800
G1 X119.624 Y98.544 E0.02852
G1 X120.381 Y97.982 E0.02959
G1 X121.060 Y97.579 E0.02473
G1 X121.779 Y97.240 E0.02493
G1 X122.504 Y96.978 E0.02417
G1 X123.401 Y96.752 E0.02902
G1 X124.209 Y96.635 E0.02561
G1 X125.016 Y96.598 E0.02532
G1 X125.940 Y96.651 E0.02900
G1 X126.682 Y96.767 E0.02357
G1 X127.415 Y96.952 E0.02368
G1 X128.115 Y97.196 E0.02324
G1 X129.042 Y97.634 E0.03218
G1 X129.688 Y98.027 E0.02370
G1 X130.317 Y98.493 E0.02455
G1 X130.895 Y99.012 E0.02435
G1 X131.419 Y99.578 E0.02416
G1 X131.976 Y100.316 E0.02900
G1 X132.384 Y100.990 E0.02470
G1 X132.729 Y101.703 E0.02485
G1 X132.993 Y102.410 E0.02364
G1 X133.246 Y103.382 E0.03151
G1 X133.362 Y104.166 E0.02485
G1 X133.407 Y105.035 E0.02728
G1 X133.360 Y105.850 E0.02560
G1 X133.239 Y106.654 E0.02549
G1 X133.056 Y107.388 E0.02370
G1 X132.714 Y108.333 E0.03152
G1 X132.380 Y109.019 E0.02392
G1 X131.975 Y109.685 E0.02444
G1 X131.406 Y110.437 E0.02959
G1 X130.894 Y110.990 E0.02362
G1 X130.311 Y111.512 E0.02455
G1 X129.689 Y111.973 E0.02428
G1 X129.043 Y112.366 E0.02370
G1 X128.096 Y112.812 E0.03280
G1 X127.399 Y113.053 E0.02312
G1 X126.680 Y113.233 E0.02325
G1 X125.916 Y113.352 E0.02424
G1 X124.890 Y113.402 E0.03219
G1 X124.155 Y113.360 E0.02311
G1 X123.423 Y113.253 E0.02318
G1 X122.688 Y113.077 E0.02370
G1 X121.702 Y112.728 E0.03281
G1 X121.036 Y112.408 E0.02316
G1 X120.381 Y112.018 E0.02389
G1 X119.623 Y111.456 E0.02960
G1 X119.017 Y110.899 E0.02581
G1 X118.516 Y110.344 E0.02345
G1 X118.070 Y109.751 E0.02325
G1 X117.664 Y109.093 E0.02424
G1 X117.218 Y108.168 E0.03219
G1 X116.970 Y107.473 E0.02315
G1 X116.780 Y106.735 E0.02389
G1 X116.637 Y105.802 E0.02959
G1 X116.598 Y105.013 E0.02479
G1 X116.660 Y103.987 E0.03222
G1 X116.784 Y103.241 E0.02370
G1 X116.973 Y102.518 E0.02343
G1 X117.229 Y101.805 E0.02378
G1 X117.581 Y101.059 E0.02586
G1 X118.059 Y100.266 E0.02902
G1 X118.532 Y99.637 E0.02470
G1 X118.920 Y99.211 E0.01806
G1 X119.198 Y99.465 F7200.000
G1 F1800
G1 X119.327 Y99.324 E0.00599
G1 X119.856 Y98.841 E0.02245
G1 X120.598 Y98.290 E0.02897
G1 X121.244 Y97.908 E0.02354
G1 X121.916 Y97.591 E0.02328
G1 X122.605 Y97.341 E0.02300
G1 X123.484 Y97.120 E0.02841
G1 X124.236 Y97.011 E0.02383
G1 X125.005 Y96.975 E0.02412
G1 X125.909 Y97.026 E0.02839
G1 X126.615 Y97.138 E0.02242
G1 X127.299 Y97.311 E0.02212
G1 X127.963 Y97.541 E0.02203
G1 X128.872 Y97.971 E0.03154
G1 X129.485 Y98.344 E0.02249
G1 X130.072 Y98.780 E0.02294
G1 X130.625 Y99.275 E0.02326
G1 X131.124 Y99.813 E0.02299
G1 X131.669 Y100.536 E0.02839
G1 X132.057 Y101.177 E0.02351
G1 X132.379 Y101.844 E0.02322
G1 X132.631 Y102.514 E0.02246
G1 X132.874 Y103.448 E0.03025
G1 X132.986 Y104.196 E0.02370
G1 X133.030 Y105.024 E0.02602
G1 X132.986 Y105.803 E0.02446
G1 X132.871 Y106.572 E0.02439
G1 X132.698 Y107.269 E0.02250
G1 X132.370 Y108.177 E0.03027
G1 X132.053 Y108.831 E0.02279
G1 X131.669 Y109.465 E0.02325
G1 X131.111 Y110.202 E0.02898
G1 X130.624 Y110.726 E0.02245
G1 X130.079 Y111.215 E0.02294
G1 X129.485 Y111.656 E0.02320
G1 X128.872 Y112.029 E0.02249
G1 X127.963 Y112.459 E0.03154
G1 X127.299 Y112.689 E0.02203
G1 X126.613 Y112.862 E0.02218
G1 X125.887 Y112.976 E0.02304
G1 X124.901 Y113.025 E0.03094
G1 X124.200 Y112.986 E0.02202
G1 X123.502 Y112.884 E0.02213
G1 X122.804 Y112.719 E0.02249
G1 X121.855 Y112.384 E0.03154
G1 X121.221 Y112.080 E0.02205
G1 X120.598 Y111.710 E0.02272
G1 X119.856 Y111.159 E0.02899
G1 X119.291 Y110.640 E0.02406
G1 X118.812 Y110.110 E0.02239
G1 X118.386 Y109.545 E0.02218
G1 X117.999 Y108.920 E0.02304
G1 X117.570 Y108.032 E0.03094
G1 X117.333 Y107.370 E0.02204
G1 X117.151 Y106.668 E0.02272
G1 X117.011 Y105.755 E0.02898
G1 X116.975 Y105.025 E0.02291
G1 X117.036 Y104.020 E0.03158
G1 X117.155 Y103.312 E0.02249
G1 X117.335 Y102.622 E0.02237
G1 X117.574 Y101.957 E0.02217
G1 X117.909 Y101.245 E0.02465
G1 X118.377 Y100.469 E0.02840
G1 X118.828 Y99.871 E0.02351
G1 X119.158 Y99.509 E0.01535
G1 F5760
G1 X119.327 Y99.324 E-0.08693
G1 F5760
G1 X119.856 Y98.841 E-0.24801
G1 F5760
G1 X120.598 Y98.290 E-0.32005
G1 F5760
G1 X120.859 Y98.136 E-0.10501
G1 E-0.04000 F2100.00000
G1 X120.089 Y99.138 F7200.000
G1 E0.80000 F2100.00000
G1 F1800
G1 X120.815 Y98.599 E0.02836
G1 X121.413 Y98.245 E0.02180
G1 X122.053 Y97.942 E0.02219
G1 X122.707 Y97.704 E0.02182
G1 X123.566 Y97.488 E0.02779
G1 X124.280 Y97.386 E0.02262
G1 X124.993 Y97.352 E0.02237
G1 X125.878 Y97.402 E0.02778
G1 X126.547 Y97.509 E0.02125
G1 X127.199 Y97.674 E0.02108
G1 X127.829 Y97.894 E0.02093
G1 X128.701 Y98.307 E0.03027
G1 X129.281 Y98.661 E0.02128
G1 X129.840 Y99.077 E0.02187
G1 X130.355 Y99.538 E0.02165
G1 X130.828 Y100.048 E0.02182
G1 X131.362 Y100.755 E0.02778
G1 X131.722 Y101.349 E0.02178
G1 X132.030 Y101.985 E0.02215
G1 X132.269 Y102.620 E0.02126
G1 X132.503 Y103.514 E0.02899
G1 X132.610 Y104.225 E0.02255
G1 X132.653 Y105.014 E0.02475
G1 X132.610 Y105.773 E0.02385
G1 X132.502 Y106.491 E0.02276
G1 X132.340 Y107.150 E0.02129
G1 X132.019 Y108.039 E0.02963
G1 X131.718 Y108.658 E0.02158
G1 X131.362 Y109.246 E0.02153
G1 X130.816 Y109.967 E0.02836
G1 X130.354 Y110.463 E0.02126
G1 X129.834 Y110.928 E0.02187
G1 X129.281 Y111.339 E0.02161
G1 X128.701 Y111.693 E0.02129
G1 X127.829 Y112.106 E0.03027
G1 X127.198 Y112.326 E0.02094
G1 X126.545 Y112.491 E0.02112
G1 X125.857 Y112.600 E0.02184
G1 X124.912 Y112.648 E0.02968
G1 X124.246 Y112.611 E0.02093
G1 X123.580 Y112.515 E0.02108
G1 X122.919 Y112.359 E0.02129
G1 X122.009 Y112.039 E0.03027
G1 X121.406 Y111.751 E0.02095
G1 X120.815 Y111.401 E0.02154
G1 X120.088 Y110.862 E0.02836
G1 X119.564 Y110.380 E0.02232
G1 X119.108 Y109.876 E0.02134
G1 X118.702 Y109.338 E0.02112
G1 X118.334 Y108.747 E0.02184
G1 X117.921 Y107.895 E0.02968
G1 X117.696 Y107.266 E0.02094
G1 X117.522 Y106.602 E0.02154
G1 X117.385 Y105.707 E0.02836
G1 X117.352 Y105.017 E0.02166
G1 X117.411 Y104.053 E0.03029
G1 X117.525 Y103.384 E0.02128
G1 X117.698 Y102.726 E0.02132
G1 X117.926 Y102.093 E0.02111
G1 X118.236 Y101.431 E0.02291
G1 X118.694 Y100.673 E0.02779
G1 X119.113 Y100.118 E0.02178
G1 X119.588 Y99.596 E0.02215
G1 X120.044 Y99.178 E0.01939
G1 X120.299 Y99.455 F7200.000
G1 F1800
G1 X121.031 Y98.908 E0.02868
G1 X121.597 Y98.574 E0.02060
G1 X122.191 Y98.293 E0.02059
G1 X122.809 Y98.068 E0.02063
G1 X123.649 Y97.856 E0.02716
G1 X124.307 Y97.762 E0.02086
G1 X124.982 Y97.729 E0.02116
G1 X125.846 Y97.778 E0.02716
G1 X126.478 Y97.880 E0.02006
G1 X127.098 Y98.038 E0.02004
G1 X127.695 Y98.246 E0.01984
G1 X128.530 Y98.643 E0.02900
G1 X129.076 Y98.978 E0.02008
G1 X129.595 Y99.364 E0.02029
G1 X130.085 Y99.802 E0.02058
G1 X130.534 Y100.283 E0.02063
G1 X131.055 Y100.974 E0.02716
G1 X131.394 Y101.537 E0.02058
G1 X131.680 Y102.127 E0.02056
G1 X131.907 Y102.725 E0.02008
G1 X132.132 Y103.581 E0.02773
G1 X132.234 Y104.256 E0.02141
G1 X132.276 Y105.003 E0.02346
G1 X132.234 Y105.743 E0.02324
G1 X132.134 Y106.410 E0.02114
G1 X131.982 Y107.032 E0.02008
G1 X131.668 Y107.902 E0.02899
G1 X131.390 Y108.470 E0.01984
G1 X131.055 Y109.026 E0.02034
G1 X130.522 Y109.731 E0.02773
G1 X130.084 Y110.199 E0.02007
G1 X129.602 Y110.630 E0.02029
G1 X129.076 Y111.022 E0.02056
G1 X128.530 Y111.357 E0.02008
G1 X127.695 Y111.754 E0.02899
G1 X127.098 Y111.962 E0.01984
G1 X126.477 Y112.120 E0.02007
G1 X125.827 Y112.224 E0.02063
G1 X124.922 Y112.271 E0.02842
G1 X124.291 Y112.237 E0.01984
G1 X123.658 Y112.146 E0.02004
G1 X123.034 Y112.000 E0.02008
G1 X122.162 Y111.694 E0.02899
G1 X121.590 Y111.422 E0.01984
G1 X121.032 Y111.092 E0.02034
G1 X120.321 Y110.565 E0.02773
G1 X119.826 Y110.109 E0.02111
G1 X119.403 Y109.641 E0.01978
G1 X119.017 Y109.131 E0.02007
G1 X118.668 Y108.573 E0.02063
G1 X118.272 Y107.758 E0.02842
G1 X118.058 Y107.162 E0.01984
G1 X117.893 Y106.535 E0.02034
G1 X117.760 Y105.660 E0.02773
G1 X117.729 Y105.010 E0.02040
G1 X117.787 Y104.087 E0.02901
G1 X117.895 Y103.456 E0.02008
G1 X118.056 Y102.846 E0.01977
G1 X118.272 Y102.244 E0.02004
G1 X118.565 Y101.618 E0.02169
G1 X119.012 Y100.876 E0.02715
G1 X119.408 Y100.353 E0.02058
G1 X119.850 Y99.868 E0.02056
G1 X120.254 Y99.496 E0.01724
G1 X120.509 Y99.773 F7200.000
G1 F1800
G1 X121.248 Y99.217 E0.02899
G1 X121.767 Y98.911 E0.01887
G1 X122.329 Y98.644 E0.01952
G1 X122.911 Y98.431 E0.01943
G1 X123.731 Y98.224 E0.02653
G1 X124.351 Y98.136 E0.01965
G1 X124.970 Y98.106 E0.01942
G1 X125.815 Y98.154 E0.02653
G1 X126.409 Y98.251 E0.01887
G1 X126.996 Y98.401 E0.01900
G1 X127.561 Y98.599 E0.01875
G1 X128.359 Y98.979 E0.02772
G1 X128.871 Y99.295 E0.01887
G1 X129.363 Y99.662 E0.01925
G1 X129.815 Y100.066 E0.01901
G1 X130.239 Y100.518 E0.01943
G1 X130.749 Y101.193 E0.02653
G1 X131.059 Y101.709 E0.01886
G1 X131.331 Y102.269 E0.01951
